cr2hdr.app/Contents/logNeutral.cube
TITLE "Generate by Resolve"
LUT_3D_SIZE 5
0.062501 0.062501 0.062501
0.33637 0.062501 0.062501
0.518105 0.062501 0.062501
0.702342 0.062501 0.062501
0.996094 0.062501 0.062501
0.062501 0.33637 0.062501
0.33637 0.33637 0.062501
0.518105 0.33637 0.062501
0.702342 0.33637 0.062501
0.996094 0.33637 0.062501
0.062501 0.518105 0.062501
0.33637 0.518105 0.062501
0.518105 0.518105 0.062501
0.702342 0.518105 0.062501
0.996094 0.518105 0.062501
0.062501 0.702342 0.062501
0.33637 0.702342 0.062501
0.518105 0.702342 0.062501
0.702342 0.702342 0.062501
0.996094 0.702342 0.062501
0.062501 0.996094 0.062501
0.33637 0.996094 0.062501
0.518105 0.996094 0.062501
0.702342 0.996094 0.062501
0.996094 0.996094 0.062501
0.062501 0.062501 0.33637
0.33637 0.062501 0.33637
0.518105 0.062501 0.33637
0.702342 0.062501 0.33637
0.996094 0.062501 0.33637
0.062501 0.33637 0.33637
0.33637 0.33637 0.33637
0.518105 0.33637 0.33637
0.702342 0.33637 0.33637
0.996094 0.33637 0.33637
0.062501 0.518105 0.33637
0.33637 0.518105 0.33637
0.518105 0.518105 0.33637
0.702342 0.518105 0.33637
0.996094 0.518105 0.33637
0.062501 0.702342 0.33637
0.33637 0.702342 0.33637
0.518105 0.702342 0.33637
0.702342 0.702342 0.33637
0.996094 0.702342 0.33637
0.062501 0.996094 0.33637
0.33637 0.996094 0.33637
0.518105 0.996094 0.33637
0.702342 0.996094 0.33637
0.996094 0.996094 0.33637
0.062501 0.062501 0.518105
0.33637 0.062501 0.518105
0.518105 0.062501 0.518105
0.702342 0.062501 0.518105
0.996094 0.062501 0.518105
0.062501 0.33637 0.518105
0.33637 0.33637 0.518105
0.518105 0.33637 0.518105
0.702342 0.33637 0.518105
0.996094 0.33637 0.518105
0.062501 0.518105 0.518105
0.33637 0.518105 0.518105
0.518105 0.518105 0.518105
0.702342 0.518105 0.518105
0.996094 0.518105 0.518105
0.062501 0.702342 0.518105
0.33637 0.702342 0.518105
0.518105 0.702342 0.518105
0.702342 0.702342 0.518105
0.996094 0.702342 0.518105
0.062501 0.996094 0.518105
0.33637 0.996094 0.518105
0.518105 0.996094 0.518105
0.702342 0.996094 0.518105
0.996094 0.996094 0.518105
0.062501 0.062501 0.702342
0.33637 0.062501 0.702342
0.518105 0.062501 0.702342
0.702342 0.062501 0.702342
0.996094 0.062501 0.702342
0.062501 0.33637 0.702342
0.33637 0.33637 0.702342
0.518105 0.33637 0.702342
0.702342 0.33637 0.702342
0.996094 0.33637 0.702342
0.062501 0.518105 0.702342
0.33637 0.518105 0.702342
0.518105 0.518105 0.702342
0.702342 0.518105 0.702342
0.996094 0.518105 0.702342
0.062501 0.702342 0.702342
0.33637 0.702342 0.702342
0.518105 0.702342 0.702342
0.702342 0.702342 0.702342
0.996094 0.702342 0.702342
0.062501 0.996094 0.702342
0.33637 0.996094 0.702342
0.518105 0.996094 0.702342
0.702342 0.996094 0.702342
0.996094 0.996094 0.702342
0.062501 0.062501 0.996094
0.33637 0.062501 0.996094
0.518105 0.062501 0.996094
0.702342 0.062501 0.996094
0.996094 0.062501 0.996094
0.062501 0.33637 0.996094
0.33637 0.33637 0.996094
0.518105 0.33637 0.996094
0.702342 0.33637 0.996094
0.996094 0.33637 0.996094
0.062501 0.518105 0.996094
0.33637 0.518105 0.996094
0.518105 0.518105 0.996094
0.702342 0.518105 0.996094
0.996094 0.518105 0.996094
0.062501 0.702342 0.996094
0.33637 0.702342 0.996094
0.518105 0.702342 0.996094
0.702342 0.702342 0.996094
0.996094 0.702342 0.996094
0.062501 0.996094 0.996094
0.33637 0.996094 0.996094
0.518105 0.996094 0.996094
0.702342 0.996094 0.996094
0.996094 0.996094 0.996094
