cr2hdr.app/Contents/logNeutral.cube
TITLE "Generate by Resolve"
LUT_3D_SIZE 33
0.062501 0.062501 0.062501
0.102617 0.062501 0.062501
0.142748 0.062501 0.062501
0.182879 0.062501 0.062501
0.218891 0.062501 0.062501
0.249805 0.062501 0.062501
0.280705 0.062501 0.062501
0.311604 0.062501 0.062501
0.33637 0.062501 0.062501
0.360388 0.062501 0.062501
0.38439 0.062501 0.062501
0.407675 0.062501 0.062501
0.429526 0.062501 0.062501
0.451377 0.062501 0.062501
0.473228 0.062501 0.062501
0.495583 0.062501 0.062501
0.518105 0.062501 0.062501
0.540612 0.062501 0.062501
0.563165 0.062501 0.062501
0.58587 0.062501 0.062501
0.608576 0.062501 0.062501
0.631266 0.062501 0.062501
0.654704 0.062501 0.062501
0.678523 0.062501 0.062501
0.702342 0.062501 0.062501
0.726818 0.062501 0.062501
0.756573 0.062501 0.062501
0.786343 0.062501 0.062501
0.816098 0.062501 0.062501
0.855375 0.062501 0.062501
0.902281 0.062501 0.062501
0.949187 0.062501 0.062501
0.996094 0.062501 0.062501
0.062501 0.102617 0.062501
0.102617 0.102617 0.062501
0.142748 0.102617 0.062501
0.182879 0.102617 0.062501
0.218891 0.102617 0.062501
0.249805 0.102617 0.062501
0.280705 0.102617 0.062501
0.311604 0.102617 0.062501
0.33637 0.102617 0.062501
0.360388 0.102617 0.062501
0.38439 0.102617 0.062501
0.407675 0.102617 0.062501
0.429526 0.102617 0.062501
0.451377 0.102617 0.062501
0.473228 0.102617 0.062501
0.495583 0.102617 0.062501
0.518105 0.102617 0.062501
0.540612 0.102617 0.062501
0.563165 0.102617 0.062501
0.58587 0.102617 0.062501
0.608576 0.102617 0.062501
0.631266 0.102617 0.062501
0.654704 0.102617 0.062501
0.678523 0.102617 0.062501
0.702342 0.102617 0.062501
0.726818 0.102617 0.062501
0.756573 0.102617 0.062501
0.786343 0.102617 0.062501
0.816098 0.102617 0.062501
0.855375 0.102617 0.062501
0.902281 0.102617 0.062501
0.949187 0.102617 0.062501
0.996094 0.102617 0.062501
0.062501 0.142748 0.062501
0.102617 0.142748 0.062501
0.142748 0.142748 0.062501
0.182879 0.142748 0.062501
0.218891 0.142748 0.062501
0.249805 0.142748 0.062501
0.280705 0.142748 0.062501
0.311604 0.142748 0.062501
0.33637 0.142748 0.062501
0.360388 0.142748 0.062501
0.38439 0.142748 0.062501
0.407675 0.142748 0.062501
0.429526 0.142748 0.062501
0.451377 0.142748 0.062501
0.473228 0.142748 0.062501
0.495583 0.142748 0.062501
0.518105 0.142748 0.062501
0.540612 0.142748 0.062501
0.563165 0.142748 0.062501
0.58587 0.142748 0.062501
0.608576 0.142748 0.062501
0.631266 0.142748 0.062501
0.654704 0.142748 0.062501
0.678523 0.142748 0.062501
0.702342 0.142748 0.062501
0.726818 0.142748 0.062501
0.756573 0.142748 0.062501
0.786343 0.142748 0.062501
0.816098 0.142748 0.062501
0.855375 0.142748 0.062501
0.902281 0.142748 0.062501
0.949187 0.142748 0.062501
0.996094 0.142748 0.062501
0.062501 0.182879 0.062501
0.102617 0.182879 0.062501
0.142748 0.182879 0.062501
0.182879 0.182879 0.062501
0.218891 0.182879 0.062501
0.249805 0.182879 0.062501
0.280705 0.182879 0.062501
0.311604 0.182879 0.062501
0.33637 0.182879 0.062501
0.360388 0.182879 0.062501
0.38439 0.182879 0.062501
0.407675 0.182879 0.062501
0.429526 0.182879 0.062501
0.451377 0.182879 0.062501
0.473228 0.182879 0.062501
0.495583 0.182879 0.062501
0.518105 0.182879 0.062501
0.540612 0.182879 0.062501
0.563165 0.182879 0.062501
0.58587 0.182879 0.062501
0.608576 0.182879 0.062501
0.631266 0.182879 0.062501
0.654704 0.182879 0.062501
0.678523 0.182879 0.062501
0.702342 0.182879 0.062501
0.726818 0.182879 0.062501
0.756573 0.182879 0.062501
0.786343 0.182879 0.062501
0.816098 0.182879 0.062501
0.855375 0.182879 0.062501
0.902281 0.182879 0.062501
0.949187 0.182879 0.062501
0.996094 0.182879 0.062501
0.062501 0.218891 0.062501
0.102617 0.218891 0.062501
0.142748 0.218891 0.062501
0.182879 0.218891 0.062501
0.218891 0.218891 0.062501
0.249805 0.218891 0.062501
0.280705 0.218891 0.062501
0.311604 0.218891 0.062501
0.33637 0.218891 0.062501
0.360388 0.218891 0.062501
0.38439 0.218891 0.062501
0.407675 0.218891 0.062501
0.429526 0.218891 0.062501
0.451377 0.218891 0.062501
0.473228 0.218891 0.062501
0.495583 0.218891 0.062501
0.518105 0.218891 0.062501
0.540612 0.218891 0.062501
0.563165 0.218891 0.062501
0.58587 0.218891 0.062501
0.608576 0.218891 0.062501
0.631266 0.218891 0.062501
0.654704 0.218891 0.062501
0.678523 0.218891 0.062501
0.702342 0.218891 0.062501
0.726818 0.218891 0.062501
0.756573 0.218891 0.062501
0.786343 0.218891 0.062501
0.816098 0.218891 0.062501
0.855375 0.218891 0.062501
0.902281 0.218891 0.062501
0.949187 0.218891 0.062501
0.996094 0.218891 0.062501
0.062501 0.249805 0.062501
0.102617 0.249805 0.062501
0.142748 0.249805 0.062501
0.182879 0.249805 0.062501
0.218891 0.249805 0.062501
0.249805 0.249805 0.062501
0.280705 0.249805 0.062501
0.311604 0.249805 0.062501
0.33637 0.249805 0.062501
0.360388 0.249805 0.062501
0.38439 0.249805 0.062501
0.407675 0.249805 0.062501
0.429526 0.249805 0.062501
0.451377 0.249805 0.062501
0.473228 0.249805 0.062501
0.495583 0.249805 0.062501
0.518105 0.249805 0.062501
0.540612 0.249805 0.062501
0.563165 0.249805 0.062501
0.58587 0.249805 0.062501
0.608576 0.249805 0.062501
0.631266 0.249805 0.062501
0.654704 0.249805 0.062501
0.678523 0.249805 0.062501
0.702342 0.249805 0.062501
0.726818 0.249805 0.062501
0.756573 0.249805 0.062501
0.786343 0.249805 0.062501
0.816098 0.249805 0.062501
0.855375 0.249805 0.062501
0.902281 0.249805 0.062501
0.949187 0.249805 0.062501
0.996094 0.249805 0.062501
0.062501 0.280705 0.062501
0.102617 0.280705 0.062501
0.142748 0.280705 0.062501
0.182879 0.280705 0.062501
0.218891 0.280705 0.062501
0.249805 0.280705 0.062501
0.280705 0.280705 0.062501
0.311604 0.280705 0.062501
0.33637 0.280705 0.062501
0.360388 0.280705 0.062501
0.38439 0.280705 0.062501
0.407675 0.280705 0.062501
0.429526 0.280705 0.062501
0.451377 0.280705 0.062501
0.473228 0.280705 0.062501
0.495583 0.280705 0.062501
0.518105 0.280705 0.062501
0.540612 0.280705 0.062501
0.563165 0.280705 0.062501
0.58587 0.280705 0.062501
0.608576 0.280705 0.062501
0.631266 0.280705 0.062501
0.654704 0.280705 0.062501
0.678523 0.280705 0.062501
0.702342 0.280705 0.062501
0.726818 0.280705 0.062501
0.756573 0.280705 0.062501
0.786343 0.280705 0.062501
0.816098 0.280705 0.062501
0.855375 0.280705 0.062501
0.902281 0.280705 0.062501
0.949187 0.280705 0.062501
0.996094 0.280705 0.062501
0.062501 0.311604 0.062501
0.102617 0.311604 0.062501
0.142748 0.311604 0.062501
0.182879 0.311604 0.062501
0.218891 0.311604 0.062501
0.249805 0.311604 0.062501
0.280705 0.311604 0.062501
0.311604 0.311604 0.062501
0.33637 0.311604 0.062501
0.360388 0.311604 0.062501
0.38439 0.311604 0.062501
0.407675 0.311604 0.062501
0.429526 0.311604 0.062501
0.451377 0.311604 0.062501
0.473228 0.311604 0.062501
0.495583 0.311604 0.062501
0.518105 0.311604 0.062501
0.540612 0.311604 0.062501
0.563165 0.311604 0.062501
0.58587 0.311604 0.062501
0.608576 0.311604 0.062501
0.631266 0.311604 0.062501
0.654704 0.311604 0.062501
0.678523 0.311604 0.062501
0.702342 0.311604 0.062501
0.726818 0.311604 0.062501
0.756573 0.311604 0.062501
0.786343 0.311604 0.062501
0.816098 0.311604 0.062501
0.855375 0.311604 0.062501
0.902281 0.311604 0.062501
0.949187 0.311604 0.062501
0.996094 0.311604 0.062501
0.062501 0.33637 0.062501
0.102617 0.33637 0.062501
0.142748 0.33637 0.062501
0.182879 0.33637 0.062501
0.218891 0.33637 0.062501
0.249805 0.33637 0.062501
0.280705 0.33637 0.062501
0.311604 0.33637 0.062501
0.33637 0.33637 0.062501
0.360388 0.33637 0.062501
0.38439 0.33637 0.062501
0.407675 0.33637 0.062501
0.429526 0.33637 0.062501
0.451377 0.33637 0.062501
0.473228 0.33637 0.062501
0.495583 0.33637 0.062501
0.518105 0.33637 0.062501
0.540612 0.33637 0.062501
0.563165 0.33637 0.062501
0.58587 0.33637 0.062501
0.608576 0.33637 0.062501
0.631266 0.33637 0.062501
0.654704 0.33637 0.062501
0.678523 0.33637 0.062501
0.702342 0.33637 0.062501
0.726818 0.33637 0.062501
0.756573 0.33637 0.062501
0.786343 0.33637 0.062501
0.816098 0.33637 0.062501
0.855375 0.33637 0.062501
0.902281 0.33637 0.062501
0.949187 0.33637 0.062501
0.996094 0.33637 0.062501
0.062501 0.360388 0.062501
0.102617 0.360388 0.062501
0.142748 0.360388 0.062501
0.182879 0.360388 0.062501
0.218891 0.360388 0.062501
0.249805 0.360388 0.062501
0.280705 0.360388 0.062501
0.311604 0.360388 0.062501
0.33637 0.360388 0.062501
0.360388 0.360388 0.062501
0.38439 0.360388 0.062501
0.407675 0.360388 0.062501
0.429526 0.360388 0.062501
0.451377 0.360388 0.062501
0.473228 0.360388 0.062501
0.495583 0.360388 0.062501
0.518105 0.360388 0.062501
0.540612 0.360388 0.062501
0.563165 0.360388 0.062501
0.58587 0.360388 0.062501
0.608576 0.360388 0.062501
0.631266 0.360388 0.062501
0.654704 0.360388 0.062501
0.678523 0.360388 0.062501
0.702342 0.360388 0.062501
0.726818 0.360388 0.062501
0.756573 0.360388 0.062501
0.786343 0.360388 0.062501
0.816098 0.360388 0.062501
0.855375 0.360388 0.062501
0.902281 0.360388 0.062501
0.949187 0.360388 0.062501
0.996094 0.360388 0.062501
0.062501 0.38439 0.062501
0.102617 0.38439 0.062501
0.142748 0.38439 0.062501
0.182879 0.38439 0.062501
0.218891 0.38439 0.062501
0.249805 0.38439 0.062501
0.280705 0.38439 0.062501
0.311604 0.38439 0.062501
0.33637 0.38439 0.062501
0.360388 0.38439 0.062501
0.38439 0.38439 0.062501
0.407675 0.38439 0.062501
0.429526 0.38439 0.062501
0.451377 0.38439 0.062501
0.473228 0.38439 0.062501
0.495583 0.38439 0.062501
0.518105 0.38439 0.062501
0.540612 0.38439 0.062501
0.563165 0.38439 0.062501
0.58587 0.38439 0.062501
0.608576 0.38439 0.062501
0.631266 0.38439 0.062501
0.654704 0.38439 0.062501
0.678523 0.38439 0.062501
0.702342 0.38439 0.062501
0.726818 0.38439 0.062501
0.756573 0.38439 0.062501
0.786343 0.38439 0.062501
0.816098 0.38439 0.062501
0.855375 0.38439 0.062501
0.902281 0.38439 0.062501
0.949187 0.38439 0.062501
0.996094 0.38439 0.062501
0.062501 0.407675 0.062501
0.102617 0.407675 0.062501
0.142748 0.407675 0.062501
0.182879 0.407675 0.062501
0.218891 0.407675 0.062501
0.249805 0.407675 0.062501
0.280705 0.407675 0.062501
0.311604 0.407675 0.062501
0.33637 0.407675 0.062501
0.360388 0.407675 0.062501
0.38439 0.407675 0.062501
0.407675 0.407675 0.062501
0.429526 0.407675 0.062501
0.451377 0.407675 0.062501
0.473228 0.407675 0.062501
0.495583 0.407675 0.062501
0.518105 0.407675 0.062501
0.540612 0.407675 0.062501
0.563165 0.407675 0.062501
0.58587 0.407675 0.062501
0.608576 0.407675 0.062501
0.631266 0.407675 0.062501
0.654704 0.407675 0.062501
0.678523 0.407675 0.062501
0.702342 0.407675 0.062501
0.726818 0.407675 0.062501
0.756573 0.407675 0.062501
0.786343 0.407675 0.062501
0.816098 0.407675 0.062501
0.855375 0.407675 0.062501
0.902281 0.407675 0.062501
0.949187 0.407675 0.062501
0.996094 0.407675 0.062501
0.062501 0.429526 0.062501
0.102617 0.429526 0.062501
0.142748 0.429526 0.062501
0.182879 0.429526 0.062501
0.218891 0.429526 0.062501
0.249805 0.429526 0.062501
0.280705 0.429526 0.062501
0.311604 0.429526 0.062501
0.33637 0.429526 0.062501
0.360388 0.429526 0.062501
0.38439 0.429526 0.062501
0.407675 0.429526 0.062501
0.429526 0.429526 0.062501
0.451377 0.429526 0.062501
0.473228 0.429526 0.062501
0.495583 0.429526 0.062501
0.518105 0.429526 0.062501
0.540612 0.429526 0.062501
0.563165 0.429526 0.062501
0.58587 0.429526 0.062501
0.608576 0.429526 0.062501
0.631266 0.429526 0.062501
0.654704 0.429526 0.062501
0.678523 0.429526 0.062501
0.702342 0.429526 0.062501
0.726818 0.429526 0.062501
0.756573 0.429526 0.062501
0.786343 0.429526 0.062501
0.816098 0.429526 0.062501
0.855375 0.429526 0.062501
0.902281 0.429526 0.062501
0.949187 0.429526 0.062501
0.996094 0.429526 0.062501
0.062501 0.451377 0.062501
0.102617 0.451377 0.062501
0.142748 0.451377 0.062501
0.182879 0.451377 0.062501
0.218891 0.451377 0.062501
0.249805 0.451377 0.062501
0.280705 0.451377 0.062501
0.311604 0.451377 0.062501
0.33637 0.451377 0.062501
0.360388 0.451377 0.062501
0.38439 0.451377 0.062501
0.407675 0.451377 0.062501
0.429526 0.451377 0.062501
0.451377 0.451377 0.062501
0.473228 0.451377 0.062501
0.495583 0.451377 0.062501
0.518105 0.451377 0.062501
0.540612 0.451377 0.062501
0.563165 0.451377 0.062501
0.58587 0.451377 0.062501
0.608576 0.451377 0.062501
0.631266 0.451377 0.062501
0.654704 0.451377 0.062501
0.678523 0.451377 0.062501
0.702342 0.451377 0.062501
0.726818 0.451377 0.062501
0.756573 0.451377 0.062501
0.786343 0.451377 0.062501
0.816098 0.451377 0.062501
0.855375 0.451377 0.062501
0.902281 0.451377 0.062501
0.949187 0.451377 0.062501
0.996094 0.451377 0.062501
0.062501 0.473228 0.062501
0.102617 0.473228 0.062501
0.142748 0.473228 0.062501
0.182879 0.473228 0.062501
0.218891 0.473228 0.062501
0.249805 0.473228 0.062501
0.280705 0.473228 0.062501
0.311604 0.473228 0.062501
0.33637 0.473228 0.062501
0.360388 0.473228 0.062501
0.38439 0.473228 0.062501
0.407675 0.473228 0.062501
0.429526 0.473228 0.062501
0.451377 0.473228 0.062501
0.473228 0.473228 0.062501
0.495583 0.473228 0.062501
0.518105 0.473228 0.062501
0.540612 0.473228 0.062501
0.563165 0.473228 0.062501
0.58587 0.473228 0.062501
0.608576 0.473228 0.062501
0.631266 0.473228 0.062501
0.654704 0.473228 0.062501
0.678523 0.473228 0.062501
0.702342 0.473228 0.062501
0.726818 0.473228 0.062501
0.756573 0.473228 0.062501
0.786343 0.473228 0.062501
0.816098 0.473228 0.062501
0.855375 0.473228 0.062501
0.902281 0.473228 0.062501
0.949187 0.473228 0.062501
0.996094 0.473228 0.062501
0.062501 0.495583 0.062501
0.102617 0.495583 0.062501
0.142748 0.495583 0.062501
0.182879 0.495583 0.062501
0.218891 0.495583 0.062501
0.249805 0.495583 0.062501
0.280705 0.495583 0.062501
0.311604 0.495583 0.062501
0.33637 0.495583 0.062501
0.360388 0.495583 0.062501
0.38439 0.495583 0.062501
0.407675 0.495583 0.062501
0.429526 0.495583 0.062501
0.451377 0.495583 0.062501
0.473228 0.495583 0.062501
0.495583 0.495583 0.062501
0.518105 0.495583 0.062501
0.540612 0.495583 0.062501
0.563165 0.495583 0.062501
0.58587 0.495583 0.062501
0.608576 0.495583 0.062501
0.631266 0.495583 0.062501
0.654704 0.495583 0.062501
0.678523 0.495583 0.062501
0.702342 0.495583 0.062501
0.726818 0.495583 0.062501
0.756573 0.495583 0.062501
0.786343 0.495583 0.062501
0.816098 0.495583 0.062501
0.855375 0.495583 0.062501
0.902281 0.495583 0.062501
0.949187 0.495583 0.062501
0.996094 0.495583 0.062501
0.062501 0.518105 0.062501
0.102617 0.518105 0.062501
0.142748 0.518105 0.062501
0.182879 0.518105 0.062501
0.218891 0.518105 0.062501
0.249805 0.518105 0.062501
0.280705 0.518105 0.062501
0.311604 0.518105 0.062501
0.33637 0.518105 0.062501
0.360388 0.518105 0.062501
0.38439 0.518105 0.062501
0.407675 0.518105 0.062501
0.429526 0.518105 0.062501
0.451377 0.518105 0.062501
0.473228 0.518105 0.062501
0.495583 0.518105 0.062501
0.518105 0.518105 0.062501
0.540612 0.518105 0.062501
0.563165 0.518105 0.062501
0.58587 0.518105 0.062501
0.608576 0.518105 0.062501
0.631266 0.518105 0.062501
0.654704 0.518105 0.062501
0.678523 0.518105 0.062501
0.702342 0.518105 0.062501
0.726818 0.518105 0.062501
0.756573 0.518105 0.062501
0.786343 0.518105 0.062501
0.816098 0.518105 0.062501
0.855375 0.518105 0.062501
0.902281 0.518105 0.062501
0.949187 0.518105 0.062501
0.996094 0.518105 0.062501
0.062501 0.540612 0.062501
0.102617 0.540612 0.062501
0.142748 0.540612 0.062501
0.182879 0.540612 0.062501
0.218891 0.540612 0.062501
0.249805 0.540612 0.062501
0.280705 0.540612 0.062501
0.311604 0.540612 0.062501
0.33637 0.540612 0.062501
0.360388 0.540612 0.062501
0.38439 0.540612 0.062501
0.407675 0.540612 0.062501
0.429526 0.540612 0.062501
0.451377 0.540612 0.062501
0.473228 0.540612 0.062501
0.495583 0.540612 0.062501
0.518105 0.540612 0.062501
0.540612 0.540612 0.062501
0.563165 0.540612 0.062501
0.58587 0.540612 0.062501
0.608576 0.540612 0.062501
0.631266 0.540612 0.062501
0.654704 0.540612 0.062501
0.678523 0.540612 0.062501
0.702342 0.540612 0.062501
0.726818 0.540612 0.062501
0.756573 0.540612 0.062501
0.786343 0.540612 0.062501
0.816098 0.540612 0.062501
0.855375 0.540612 0.062501
0.902281 0.540612 0.062501
0.949187 0.540612 0.062501
0.996094 0.540612 0.062501
0.062501 0.563165 0.062501
0.102617 0.563165 0.062501
0.142748 0.563165 0.062501
0.182879 0.563165 0.062501
0.218891 0.563165 0.062501
0.249805 0.563165 0.062501
0.280705 0.563165 0.062501
0.311604 0.563165 0.062501
0.33637 0.563165 0.062501
0.360388 0.563165 0.062501
0.38439 0.563165 0.062501
0.407675 0.563165 0.062501
0.429526 0.563165 0.062501
0.451377 0.563165 0.062501
0.473228 0.563165 0.062501
0.495583 0.563165 0.062501
0.518105 0.563165 0.062501
0.540612 0.563165 0.062501
0.563165 0.563165 0.062501
0.58587 0.563165 0.062501
0.608576 0.563165 0.062501
0.631266 0.563165 0.062501
0.654704 0.563165 0.062501
0.678523 0.563165 0.062501
0.702342 0.563165 0.062501
0.726818 0.563165 0.062501
0.756573 0.563165 0.062501
0.786343 0.563165 0.062501
0.816098 0.563165 0.062501
0.855375 0.563165 0.062501
0.902281 0.563165 0.062501
0.949187 0.563165 0.062501
0.996094 0.563165 0.062501
0.062501 0.58587 0.062501
0.102617 0.58587 0.062501
0.142748 0.58587 0.062501
0.182879 0.58587 0.062501
0.218891 0.58587 0.062501
0.249805 0.58587 0.062501
0.280705 0.58587 0.062501
0.311604 0.58587 0.062501
0.33637 0.58587 0.062501
0.360388 0.58587 0.062501
0.38439 0.58587 0.062501
0.407675 0.58587 0.062501
0.429526 0.58587 0.062501
0.451377 0.58587 0.062501
0.473228 0.58587 0.062501
0.495583 0.58587 0.062501
0.518105 0.58587 0.062501
0.540612 0.58587 0.062501
0.563165 0.58587 0.062501
0.58587 0.58587 0.062501
0.608576 0.58587 0.062501
0.631266 0.58587 0.062501
0.654704 0.58587 0.062501
0.678523 0.58587 0.062501
0.702342 0.58587 0.062501
0.726818 0.58587 0.062501
0.756573 0.58587 0.062501
0.786343 0.58587 0.062501
0.816098 0.58587 0.062501
0.855375 0.58587 0.062501
0.902281 0.58587 0.062501
0.949187 0.58587 0.062501
0.996094 0.58587 0.062501
0.062501 0.608576 0.062501
0.102617 0.608576 0.062501
0.142748 0.608576 0.062501
0.182879 0.608576 0.062501
0.218891 0.608576 0.062501
0.249805 0.608576 0.062501
0.280705 0.608576 0.062501
0.311604 0.608576 0.062501
0.33637 0.608576 0.062501
0.360388 0.608576 0.062501
0.38439 0.608576 0.062501
0.407675 0.608576 0.062501
0.429526 0.608576 0.062501
0.451377 0.608576 0.062501
0.473228 0.608576 0.062501
0.495583 0.608576 0.062501
0.518105 0.608576 0.062501
0.540612 0.608576 0.062501
0.563165 0.608576 0.062501
0.58587 0.608576 0.062501
0.608576 0.608576 0.062501
0.631266 0.608576 0.062501
0.654704 0.608576 0.062501
0.678523 0.608576 0.062501
0.702342 0.608576 0.062501
0.726818 0.608576 0.062501
0.756573 0.608576 0.062501
0.786343 0.608576 0.062501
0.816098 0.608576 0.062501
0.855375 0.608576 0.062501
0.902281 0.608576 0.062501
0.949187 0.608576 0.062501
0.996094 0.608576 0.062501
0.062501 0.631266 0.062501
0.102617 0.631266 0.062501
0.142748 0.631266 0.062501
0.182879 0.631266 0.062501
0.218891 0.631266 0.062501
0.249805 0.631266 0.062501
0.280705 0.631266 0.062501
0.311604 0.631266 0.062501
0.33637 0.631266 0.062501
0.360388 0.631266 0.062501
0.38439 0.631266 0.062501
0.407675 0.631266 0.062501
0.429526 0.631266 0.062501
0.451377 0.631266 0.062501
0.473228 0.631266 0.062501
0.495583 0.631266 0.062501
0.518105 0.631266 0.062501
0.540612 0.631266 0.062501
0.563165 0.631266 0.062501
0.58587 0.631266 0.062501
0.608576 0.631266 0.062501
0.631266 0.631266 0.062501
0.654704 0.631266 0.062501
0.678523 0.631266 0.062501
0.702342 0.631266 0.062501
0.726818 0.631266 0.062501
0.756573 0.631266 0.062501
0.786343 0.631266 0.062501
0.816098 0.631266 0.062501
0.855375 0.631266 0.062501
0.902281 0.631266 0.062501
0.949187 0.631266 0.062501
0.996094 0.631266 0.062501
0.062501 0.654704 0.062501
0.102617 0.654704 0.062501
0.142748 0.654704 0.062501
0.182879 0.654704 0.062501
0.218891 0.654704 0.062501
0.249805 0.654704 0.062501
0.280705 0.654704 0.062501
0.311604 0.654704 0.062501
0.33637 0.654704 0.062501
0.360388 0.654704 0.062501
0.38439 0.654704 0.062501
0.407675 0.654704 0.062501
0.429526 0.654704 0.062501
0.451377 0.654704 0.062501
0.473228 0.654704 0.062501
0.495583 0.654704 0.062501
0.518105 0.654704 0.062501
0.540612 0.654704 0.062501
0.563165 0.654704 0.062501
0.58587 0.654704 0.062501
0.608576 0.654704 0.062501
0.631266 0.654704 0.062501
0.654704 0.654704 0.062501
0.678523 0.654704 0.062501
0.702342 0.654704 0.062501
0.726818 0.654704 0.062501
0.756573 0.654704 0.062501
0.786343 0.654704 0.062501
0.816098 0.654704 0.062501
0.855375 0.654704 0.062501
0.902281 0.654704 0.062501
0.949187 0.654704 0.062501
0.996094 0.654704 0.062501
0.062501 0.678523 0.062501
0.102617 0.678523 0.062501
0.142748 0.678523 0.062501
0.182879 0.678523 0.062501
0.218891 0.678523 0.062501
0.249805 0.678523 0.062501
0.280705 0.678523 0.062501
0.311604 0.678523 0.062501
0.33637 0.678523 0.062501
0.360388 0.678523 0.062501
0.38439 0.678523 0.062501
0.407675 0.678523 0.062501
0.429526 0.678523 0.062501
0.451377 0.678523 0.062501
0.473228 0.678523 0.062501
0.495583 0.678523 0.062501
0.518105 0.678523 0.062501
0.540612 0.678523 0.062501
0.563165 0.678523 0.062501
0.58587 0.678523 0.062501
0.608576 0.678523 0.062501
0.631266 0.678523 0.062501
0.654704 0.678523 0.062501
0.678523 0.678523 0.062501
0.702342 0.678523 0.062501
0.726818 0.678523 0.062501
0.756573 0.678523 0.062501
0.786343 0.678523 0.062501
0.816098 0.678523 0.062501
0.855375 0.678523 0.062501
0.902281 0.678523 0.062501
0.949187 0.678523 0.062501
0.996094 0.678523 0.062501
0.062501 0.702342 0.062501
0.102617 0.702342 0.062501
0.142748 0.702342 0.062501
0.182879 0.702342 0.062501
0.218891 0.702342 0.062501
0.249805 0.702342 0.062501
0.280705 0.702342 0.062501
0.311604 0.702342 0.062501
0.33637 0.702342 0.062501
0.360388 0.702342 0.062501
0.38439 0.702342 0.062501
0.407675 0.702342 0.062501
0.429526 0.702342 0.062501
0.451377 0.702342 0.062501
0.473228 0.702342 0.062501
0.495583 0.702342 0.062501
0.518105 0.702342 0.062501
0.540612 0.702342 0.062501
0.563165 0.702342 0.062501
0.58587 0.702342 0.062501
0.608576 0.702342 0.062501
0.631266 0.702342 0.062501
0.654704 0.702342 0.062501
0.678523 0.702342 0.062501
0.702342 0.702342 0.062501
0.726818 0.702342 0.062501
0.756573 0.702342 0.062501
0.786343 0.702342 0.062501
0.816098 0.702342 0.062501
0.855375 0.702342 0.062501
0.902281 0.702342 0.062501
0.949187 0.702342 0.062501
0.996094 0.702342 0.062501
0.062501 0.726818 0.062501
0.102617 0.726818 0.062501
0.142748 0.726818 0.062501
0.182879 0.726818 0.062501
0.218891 0.726818 0.062501
0.249805 0.726818 0.062501
0.280705 0.726818 0.062501
0.311604 0.726818 0.062501
0.33637 0.726818 0.062501
0.360388 0.726818 0.062501
0.38439 0.726818 0.062501
0.407675 0.726818 0.062501
0.429526 0.726818 0.062501
0.451377 0.726818 0.062501
0.473228 0.726818 0.062501
0.495583 0.726818 0.062501
0.518105 0.726818 0.062501
0.540612 0.726818 0.062501
0.563165 0.726818 0.062501
0.58587 0.726818 0.062501
0.608576 0.726818 0.062501
0.631266 0.726818 0.062501
0.654704 0.726818 0.062501
0.678523 0.726818 0.062501
0.702342 0.726818 0.062501
0.726818 0.726818 0.062501
0.756573 0.726818 0.062501
0.786343 0.726818 0.062501
0.816098 0.726818 0.062501
0.855375 0.726818 0.062501
0.902281 0.726818 0.062501
0.949187 0.726818 0.062501
0.996094 0.726818 0.062501
0.062501 0.756573 0.062501
0.102617 0.756573 0.062501
0.142748 0.756573 0.062501
0.182879 0.756573 0.062501
0.218891 0.756573 0.062501
0.249805 0.756573 0.062501
0.280705 0.756573 0.062501
0.311604 0.756573 0.062501
0.33637 0.756573 0.062501
0.360388 0.756573 0.062501
0.38439 0.756573 0.062501
0.407675 0.756573 0.062501
0.429526 0.756573 0.062501
0.451377 0.756573 0.062501
0.473228 0.756573 0.062501
0.495583 0.756573 0.062501
0.518105 0.756573 0.062501
0.540612 0.756573 0.062501
0.563165 0.756573 0.062501
0.58587 0.756573 0.062501
0.608576 0.756573 0.062501
0.631266 0.756573 0.062501
0.654704 0.756573 0.062501
0.678523 0.756573 0.062501
0.702342 0.756573 0.062501
0.726818 0.756573 0.062501
0.756573 0.756573 0.062501
0.786343 0.756573 0.062501
0.816098 0.756573 0.062501
0.855375 0.756573 0.062501
0.902281 0.756573 0.062501
0.949187 0.756573 0.062501
0.996094 0.756573 0.062501
0.062501 0.786343 0.062501
0.102617 0.786343 0.062501
