cr2hdr.app/Contents/logNeutral.cube
TITLE "Generate by Resolve"
LUT_3D_SIZE 9
0.062501 0.062501 0.062501
0.218891 0.062501 0.062501
0.33637 0.062501 0.062501
0.429526 0.062501 0.062501
0.518105 0.062501 0.062501
0.608576 0.062501 0.062501
0.702342 0.062501 0.062501
0.816098 0.062501 0.062501
0.996094 0.062501 0.062501
0.062501 0.218891 0.062501
0.218891 0.218891 0.062501
0.33637 0.218891 0.062501
0.429526 0.218891 0.062501
0.518105 0.218891 0.062501
0.608576 0.218891 0.062501
0.702342 0.218891 0.062501
0.816098 0.218891 0.062501
0.996094 0.218891 0.062501
0.062501 0.33637 0.062501
0.218891 0.33637 0.062501
0.33637 0.33637 0.062501
0.429526 0.33637 0.062501
0.518105 0.33637 0.062501
0.608576 0.33637 0.062501
0.702342 0.33637 0.062501
0.816098 0.33637 0.062501
0.996094 0.33637 0.062501
0.062501 0.429526 0.062501
0.218891 0.429526 0.062501
0.33637 0.429526 0.062501
0.429526 0.429526 0.062501
0.518105 0.429526 0.062501
0.608576 0.429526 0.062501
0.702342 0.429526 0.062501
0.816098 0.429526 0.062501
0.996094 0.429526 0.062501
0.062501 0.518105 0.062501
0.218891 0.518105 0.062501
0.33637 0.518105 0.062501
0.429526 0.518105 0.062501
0.518105 0.518105 0.062501
0.608576 0.518105 0.062501
0.702342 0.518105 0.062501
0.816098 0.518105 0.062501
0.996094 0.518105 0.062501
0.062501 0.608576 0.062501
0.218891 0.608576 0.062501
0.33637 0.608576 0.062501
0.429526 0.608576 0.062501
0.518105 0.608576 0.062501
0.608576 0.608576 0.062501
0.702342 0.608576 0.062501
0.816098 0.608576 0.062501
0.996094 0.608576 0.062501
0.062501 0.702342 0.062501
0.218891 0.702342 0.062501
0.33637 0.702342 0.062501
0.429526 0.702342 0.062501
0.518105 0.702342 0.062501
0.608576 0.702342 0.062501
0.702342 0.702342 0.062501
0.816098 0.702342 0.062501
0.996094 0.702342 0.062501
0.062501 0.816098 0.062501
0.218891 0.816098 0.062501
0.33637 0.816098 0.062501
0.429526 0.816098 0.062501
0.518105 0.816098 0.062501
0.608576 0.816098 0.062501
0.702342 0.816098 0.062501
0.816098 0.816098 0.062501
0.996094 0.816098 0.062501
0.062501 0.996094 0.062501
0.218891 0.996094 0.062501
0.33637 0.996094 0.062501
0.429526 0.996094 0.062501
0.518105 0.996094 0.062501
0.608576 0.996094 0.062501
0.702342 0.996094 0.062501
0.816098 0.996094 0.062501
0.996094 0.996094 0.062501
0.062501 0.062501 0.218891
0.218891 0.062501 0.218891
0.33637 0.062501 0.218891
0.429526 0.062501 0.218891
0.518105 0.062501 0.218891
0.608576 0.062501 0.218891
0.702342 0.062501 0.218891
0.816098 0.062501 0.218891
0.996094 0.062501 0.218891
0.062501 0.218891 0.218891
0.218891 0.218891 0.218891
0.33637 0.218891 0.218891
0.429526 0.218891 0.218891
0.518105 0.218891 0.218891
0.608576 0.218891 0.218891
0.702342 0.218891 0.218891
0.816098 0.218891 0.218891
0.996094 0.218891 0.218891
0.062501 0.33637 0.218891
0.218891 0.33637 0.218891
0.33637 0.33637 0.218891
0.429526 0.33637 0.218891
0.518105 0.33637 0.218891
0.608576 0.33637 0.218891
0.702342 0.33637 0.218891
0.816098 0.33637 0.218891
0.996094 0.33637 0.218891
0.062501 0.429526 0.218891
0.218891 0.429526 0.218891
0.33637 0.429526 0.218891
0.429526 0.429526 0.218891
0.518105 0.429526 0.218891
0.608576 0.429526 0.218891
0.702342 0.429526 0.218891
0.816098 0.429526 0.218891
0.996094 0.429526 0.218891
0.062501 0.518105 0.218891
0.218891 0.518105 0.218891
0.33637 0.518105 0.218891
0.429526 0.518105 0.218891
0.518105 0.518105 0.218891
0.608576 0.518105 0.218891
0.702342 0.518105 0.218891
0.816098 0.518105 0.218891
0.996094 0.518105 0.218891
0.062501 0.608576 0.218891
0.218891 0.608576 0.218891
0.33637 0.608576 0.218891
0.429526 0.608576 0.218891
0.518105 0.608576 0.218891
0.608576 0.608576 0.218891
0.702342 0.608576 0.218891
0.816098 0.608576 0.218891
0.996094 0.608576 0.218891
0.062501 0.702342 0.218891
0.218891 0.702342 0.218891
0.33637 0.702342 0.218891
0.429526 0.702342 0.218891
0.518105 0.702342 0.218891
0.608576 0.702342 0.218891
0.702342 0.702342 0.218891
0.816098 0.702342 0.218891
0.996094 0.702342 0.218891
0.062501 0.816098 0.218891
0.218891 0.816098 0.218891
0.33637 0.816098 0.218891
0.429526 0.816098 0.218891
0.518105 0.816098 0.218891
0.608576 0.816098 0.218891
0.702342 0.816098 0.218891
0.816098 0.816098 0.218891
0.996094 0.816098 0.218891
0.062501 0.996094 0.218891
0.218891 0.996094 0.218891
0.33637 0.996094 0.218891
0.429526 0.996094 0.218891
0.518105 0.996094 0.218891
0.608576 0.996094 0.218891
0.702342 0.996094 0.218891
0.816098 0.996094 0.218891
0.996094 0.996094 0.218891
0.062501 0.062501 0.33637
0.218891 0.062501 0.33637
0.33637 0.062501 0.33637
0.429526 0.062501 0.33637
0.518105 0.062501 0.33637
0.608576 0.062501 0.33637
0.702342 0.062501 0.33637
0.816098 0.062501 0.33637
0.996094 0.062501 0.33637
0.062501 0.218891 0.33637
0.218891 0.218891 0.33637
0.33637 0.218891 0.33637
0.429526 0.218891 0.33637
0.518105 0.218891 0.33637
0.608576 0.218891 0.33637
0.702342 0.218891 0.33637
0.816098 0.218891 0.33637
0.996094 0.218891 0.33637
0.062501 0.33637 0.33637
0.218891 0.33637 0.33637
0.33637 0.33637 0.33637
0.429526 0.33637 0.33637
0.518105 0.33637 0.33637
0.608576 0.33637 0.33637
0.702342 0.33637 0.33637
0.816098 0.33637 0.33637
0.996094 0.33637 0.33637
0.062501 0.429526 0.33637
0.218891 0.429526 0.33637
0.33637 0.429526 0.33637
0.429526 0.429526 0.33637
0.518105 0.429526 0.33637
0.608576 0.429526 0.33637
0.702342 0.429526 0.33637
0.816098 0.429526 0.33637
0.996094 0.429526 0.33637
0.062501 0.518105 0.33637
0.218891 0.518105 0.33637
0.33637 0.518105 0.33637
0.429526 0.518105 0.33637
0.518105 0.518105 0.33637
0.608576 0.518105 0.33637
0.702342 0.518105 0.33637
0.816098 0.518105 0.33637
0.996094 0.518105 0.33637
0.062501 0.608576 0.33637
0.218891 0.608576 0.33637
0.33637 0.608576 0.33637
0.429526 0.608576 0.33637
0.518105 0.608576 0.33637
0.608576 0.608576 0.33637
0.702342 0.608576 0.33637
0.816098 0.608576 0.33637
0.996094 0.608576 0.33637
0.062501 0.702342 0.33637
0.218891 0.702342 0.33637
0.33637 0.702342 0.33637
0.429526 0.702342 0.33637
0.518105 0.702342 0.33637
0.608576 0.702342 0.33637
0.702342 0.702342 0.33637
0.816098 0.702342 0.33637
0.996094 0.702342 0.33637
0.062501 0.816098 0.33637
0.218891 0.816098 0.33637
0.33637 0.816098 0.33637
0.429526 0.816098 0.33637
0.518105 0.816098 0.33637
0.608576 0.816098 0.33637
0.702342 0.816098 0.33637
0.816098 0.816098 0.33637
0.996094 0.816098 0.33637
0.062501 0.996094 0.33637
0.218891 0.996094 0.33637
0.33637 0.996094 0.33637
0.429526 0.996094 0.33637
0.518105 0.996094 0.33637
0.608576 0.996094 0.33637
0.702342 0.996094 0.33637
0.816098 0.996094 0.33637
0.996094 0.996094 0.33637
0.062501 0.062501 0.429526
0.218891 0.062501 0.429526
0.33637 0.062501 0.429526
0.429526 0.062501 0.429526
0.518105 0.062501 0.429526
0.608576 0.062501 0.429526
0.702342 0.062501 0.429526
0.816098 0.062501 0.429526
0.996094 0.062501 0.429526
0.062501 0.218891 0.429526
0.218891 0.218891 0.429526
0.33637 0.218891 0.429526
0.429526 0.218891 0.429526
0.518105 0.218891 0.429526
0.608576 0.218891 0.429526
0.702342 0.218891 0.429526
0.816098 0.218891 0.429526
0.996094 0.218891 0.429526
0.062501 0.33637 0.429526
0.218891 0.33637 0.429526
0.33637 0.33637 0.429526
0.429526 0.33637 0.429526
0.518105 0.33637 0.429526
0.608576 0.33637 0.429526
0.702342 0.33637 0.429526
0.816098 0.33637 0.429526
0.996094 0.33637 0.429526
0.062501 0.429526 0.429526
0.218891 0.429526 0.429526
0.33637 0.429526 0.429526
0.429526 0.429526 0.429526
0.518105 0.429526 0.429526
0.608576 0.429526 0.429526
0.702342 0.429526 0.429526
0.816098 0.429526 0.429526
0.996094 0.429526 0.429526
0.062501 0.518105 0.429526
0.218891 0.518105 0.429526
0.33637 0.518105 0.429526
0.429526 0.518105 0.429526
0.518105 0.518105 0.429526
0.608576 0.518105 0.429526
0.702342 0.518105 0.429526
0.816098 0.518105 0.429526
0.996094 0.518105 0.429526
0.062501 0.608576 0.429526
0.218891 0.608576 0.429526
0.33637 0.608576 0.429526
0.429526 0.608576 0.429526
0.518105 0.608576 0.429526
0.608576 0.608576 0.429526
0.702342 0.608576 0.429526
0.816098 0.608576 0.429526
0.996094 0.608576 0.429526
0.062501 0.702342 0.429526
0.218891 0.702342 0.429526
0.33637 0.702342 0.429526
0.429526 0.702342 0.429526
0.518105 0.702342 0.429526
0.608576 0.702342 0.429526
0.702342 0.702342 0.429526
0.816098 0.702342 0.429526
0.996094 0.702342 0.429526
0.062501 0.816098 0.429526
0.218891 0.816098 0.429526
0.33637 0.816098 0.429526
0.429526 0.816098 0.429526
0.518105 0.816098 0.429526
0.608576 0.816098 0.429526
0.702342 0.816098 0.429526
0.816098 0.816098 0.429526
0.996094 0.816098 0.429526
0.062501 0.996094 0.429526
0.218891 0.996094 0.429526
0.33637 0.996094 0.429526
0.429526 0.996094 0.429526
0.518105 0.996094 0.429526
0.608576 0.996094 0.429526
0.702342 0.996094 0.429526
0.816098 0.996094 0.429526
0.996094 0.996094 0.429526
0.062501 0.062501 0.518105
0.218891 0.062501 0.518105
0.33637 0.062501 0.518105
0.429526 0.062501 0.518105
0.518105 0.062501 0.518105
0.608576 0.062501 0.518105
0.702342 0.062501 0.518105
0.816098 0.062501 0.518105
0.996094 0.062501 0.518105
0.062501 0.218891 0.518105
0.218891 0.218891 0.518105
0.33637 0.218891 0.518105
0.429526 0.218891 0.518105
0.518105 0.218891 0.518105
0.608576 0.218891 0.518105
0.702342 0.218891 0.518105
0.816098 0.218891 0.518105
0.996094 0.218891 0.518105
0.062501 0.33637 0.518105
0.218891 0.33637 0.518105
0.33637 0.33637 0.518105
0.429526 0.33637 0.518105
0.518105 0.33637 0.518105
0.608576 0.33637 0.518105
0.702342 0.33637 0.518105
0.816098 0.33637 0.518105
0.996094 0.33637 0.518105
0.062501 0.429526 0.518105
0.218891 0.429526 0.518105
0.33637 0.429526 0.518105
0.429526 0.429526 0.518105
0.518105 0.429526 0.518105
0.608576 0.429526 0.518105
0.702342 0.429526 0.518105
0.816098 0.429526 0.518105
0.996094 0.429526 0.518105
0.062501 0.518105 0.518105
0.218891 0.518105 0.518105
0.33637 0.518105 0.518105
0.429526 0.518105 0.518105
0.518105 0.518105 0.518105
0.608576 0.518105 0.518105
0.702342 0.518105 0.518105
0.816098 0.518105 0.518105
0.996094 0.518105 0.518105
0.062501 0.608576 0.518105
0.218891 0.608576 0.518105
0.33637 0.608576 0.518105
0.429526 0.608576 0.518105
0.518105 0.608576 0.518105
0.608576 0.608576 0.518105
0.702342 0.608576 0.518105
0.816098 0.608576 0.518105
0.996094 0.608576 0.518105
0.062501 0.702342 0.518105
0.218891 0.702342 0.518105
0.33637 0.702342 0.518105
0.429526 0.702342 0.518105
0.518105 0.702342 0.518105
0.608576 0.702342 0.518105
0.702342 0.702342 0.518105
0.816098 0.702342 0.518105
0.996094 0.702342 0.518105
0.062501 0.816098 0.518105
0.218891 0.816098 0.518105
0.33637 0.816098 0.518105
0.429526 0.816098 0.518105
0.518105 0.816098 0.518105
0.608576 0.816098 0.518105
0.702342 0.816098 0.518105
0.816098 0.816098 0.518105
0.996094 0.816098 0.518105
0.062501 0.996094 0.518105
0.218891 0.996094 0.518105
0.33637 0.996094 0.518105
0.429526 0.996094 0.518105
0.518105 0.996094 0.518105
0.608576 0.996094 0.518105
0.702342 0.996094 0.518105
0.816098 0.996094 0.518105
0.996094 0.996094 0.518105
0.062501 0.062501 0.608576
0.218891 0.062501 0.608576
0.33637 0.062501 0.608576
0.429526 0.062501 0.608576
0.518105 0.062501 0.608576
0.608576 0.062501 0.608576
0.702342 0.062501 0.608576
0.816098 0.062501 0.608576
0.996094 0.062501 0.608576
0.062501 0.218891 0.608576
0.218891 0.218891 0.608576
0.33637 0.218891 0.608576
0.429526 0.218891 0.608576
0.518105 0.218891 0.608576
0.608576 0.218891 0.608576
0.702342 0.218891 0.608576
0.816098 0.218891 0.608576
0.996094 0.218891 0.608576
0.062501 0.33637 0.608576
0.218891 0.33637 0.608576
0.33637 0.33637 0.608576
0.429526 0.33637 0.608576
0.518105 0.33637 0.608576
0.608576 0.33637 0.608576
0.702342 0.33637 0.608576
0.816098 0.33637 0.608576
0.996094 0.33637 0.608576
0.062501 0.429526 0.608576
0.218891 0.429526 0.608576
0.33637 0.429526 0.608576
0.429526 0.429526 0.608576
0.518105 0.429526 0.608576
0.608576 0.429526 0.608576
0.702342 0.429526 0.608576
0.816098 0.429526 0.608576
0.996094 0.429526 0.608576
0.062501 0.518105 0.608576
0.218891 0.518105 0.608576
0.33637 0.518105 0.608576
0.429526 0.518105 0.608576
0.518105 0.518105 0.608576
0.608576 0.518105 0.608576
0.702342 0.518105 0.608576
0.816098 0.518105 0.608576
0.996094 0.518105 0.608576
0.062501 0.608576 0.608576
0.218891 0.608576 0.608576
0.33637 0.608576 0.608576
0.429526 0.608576 0.608576
0.518105 0.608576 0.608576
0.608576 0.608576 0.608576
0.702342 0.608576 0.608576
0.816098 0.608576 0.608576
0.996094 0.608576 0.608576
0.062501 0.702342 0.608576
0.218891 0.702342 0.608576
0.33637 0.702342 0.608576
0.429526 0.702342 0.608576
0.518105 0.702342 0.608576
0.608576 0.702342 0.608576
0.702342 0.702342 0.608576
0.816098 0.702342 0.608576
0.996094 0.702342 0.608576
0.062501 0.816098 0.608576
0.218891 0.816098 0.608576
0.33637 0.816098 0.608576
0.429526 0.816098 0.608576
0.518105 0.816098 0.608576
0.608576 0.816098 0.608576
0.702342 0.816098 0.608576
0.816098 0.816098 0.608576
0.996094 0.816098 0.608576
0.062501 0.996094 0.608576
0.218891 0.996094 0.608576
0.33637 0.996094 0.608576
0.429526 0.996094 0.608576
0.518105 0.996094 0.608576
0.608576 0.996094 0.608576
0.702342 0.996094 0.608576
0.816098 0.996094 0.608576
0.996094 0.996094 0.608576
0.062501 0.062501 0.702342
0.218891 0.062501 0.702342
0.33637 0.062501 0.702342
0.429526 0.062501 0.702342
0.518105 0.062501 0.702342
0.608576 0.062501 0.702342
0.702342 0.062501 0.702342
0.816098 0.062501 0.702342
0.996094 0.062501 0.702342
0.062501 0.218891 0.702342
0.218891 0.218891 0.702342
0.33637 0.218891 0.702342
0.429526 0.218891 0.702342
0.518105 0.218891 0.702342
0.608576 0.218891 0.702342
0.702342 0.218891 0.702342
0.816098 0.218891 0.702342
0.996094 0.218891 0.702342
0.062501 0.33637 0.702342
0.218891 0.33637 0.702342
0.33637 0.33637 0.702342
0.429526 0.33637 0.702342
0.518105 0.33637 0.702342
0.608576 0.33637 0.702342
0.702342 0.33637 0.702342
0.816098 0.33637 0.702342
0.996094 0.33637 0.702342
0.062501 0.429526 0.702342
0.218891 0.429526 0.702342
0.33637 0.429526 0.702342
0.429526 0.429526 0.702342
0.518105 0.429526 0.702342
0.608576 0.429526 0.702342
0.702342 0.429526 0.702342
0.816098 0.429526 0.702342
0.996094 0.429526 0.702342
0.062501 0.518105 0.702342
0.218891 0.518105 0.702342
0.33637 0.518105 0.702342
0.429526 0.518105 0.702342
0.518105 0.518105 0.702342
0.608576 0.518105 0.702342
0.702342 0.518105 0.702342
0.816098 0.518105 0.702342
0.996094 0.518105 0.702342
0.062501 0.608576 0.702342
0.218891 0.608576 0.702342
0.33637 0.608576 0.702342
0.429526 0.608576 0.702342
0.518105 0.608576 0.702342
0.608576 0.608576 0.702342
0.702342 0.608576 0.702342
0.816098 0.608576 0.702342
0.996094 0.608576 0.702342
0.062501 0.702342 0.702342
0.218891 0.702342 0.702342
0.33637 0.702342 0.702342
0.429526 0.702342 0.702342
0.518105 0.702342 0.702342
0.608576 0.702342 0.702342
0.702342 0.702342 0.702342
0.816098 0.702342 0.702342
0.996094 0.702342 0.702342
0.062501 0.816098 0.702342
0.218891 0.816098 0.702342
0.33637 0.816098 0.702342
0.429526 0.816098 0.702342
0.518105 0.816098 0.702342
0.608576 0.816098 0.702342
0.702342 0.816098 0.702342
0.816098 0.816098 0.702342
0.996094 0.816098 0.702342
0.062501 0.996094 0.702342
0.218891 0.996094 0.702342
0.33637 0.996094 0.702342
0.429526 0.996094 0.702342
0.518105 0.996094 0.702342
0.608576 0.996094 0.702342
0.702342 0.996094 0.702342
0.816098 0.996094 0.702342
0.996094 0.996094 0.702342
0.062501 0.062501 0.816098
0.218891 0.062501 0.816098
0.33637 0.062501 0.816098
0.429526 0.062501 0.816098
0.518105 0.062501 0.816098
0.608576 0.062501 0.816098
0.702342 0.062501 0.816098
0.816098 0.062501 0.816098
0.996094 0.062501 0.816098
0.062501 0.218891 0.816098
0.218891 0.218891 0.816098
0.33637 0.218891 0.816098
0.429526 0.218891 0.816098
0.518105 0.218891 0.816098
0.608576 0.218891 0.816098
0.702342 0.218891 0.816098
0.816098 0.218891 0.816098
0.996094 0.218891 0.816098
0.062501 0.33637 0.816098
0.218891 0.33637 0.816098
0.33637 0.33637 0.816098
0.429526 0.33637 0.816098
0.518105 0.33637 0.816098
0.608576 0.33637 0.816098
0.702342 0.33637 0.816098
0.816098 0.33637 0.816098
0.996094 0.33637 0.816098
0.062501 0.429526 0.816098
0.218891 0.429526 0.816098
0.33637 0.429526 0.816098
0.429526 0.429526 0.816098
0.518105 0.429526 0.816098
0.608576 0.429526 0.816098
0.702342 0.429526 0.816098
0.816098 0.429526 0.816098
0.996094 0.429526 0.816098
0.062501 0.518105 0.816098
0.218891 0.518105 0.816098
0.33637 0.518105 0.816098
0.429526 0.518105 0.816098
0.518105 0.518105 0.816098
0.608576 0.518105 0.816098
0.702342 0.518105 0.816098
0.816098 0.518105 0.816098
0.996094 0.518105 0.816098
0.062501 0.608576 0.816098
0.218891 0.608576 0.816098
0.33637 0.608576 0.816098
0.429526 0.608576 0.816098
0.518105 0.608576 0.816098
0.608576 0.608576 0.816098
0.702342 0.608576 0.816098
0.816098 0.608576 0.816098
0.996094 0.608576 0.816098
0.062501 0.702342 0.816098
0.218891 0.702342 0.816098
0.33637 0.702342 0.816098
0.429526 0.702342 0.816098
0.518105 0.702342 0.816098
0.608576 0.702342 0.816098
0.702342 0.702342 0.816098
0.816098 0.702342 0.816098
0.996094 0.702342 0.816098
0.062501 0.816098 0.816098
0.218891 0.816098 0.816098
0.33637 0.816098 0.816098
0.429526 0.816098 0.816098
0.518105 0.816098 0.816098
0.608576 0.816098 0.816098
0.702342 0.816098 0.816098
0.816098 0.816098 0.816098
0.996094 0.816098 0.816098
0.062501 0.996094 0.816098
0.218891 0.996094 0.816098
0.33637 0.996094 0.816098
0.429526 0.996094 0.816098
0.518105 0.996094 0.816098
0.608576 0.996094 0.816098
0.702342 0.996094 0.816098
0.816098 0.996094 0.816098
0.996094 0.996094 0.816098
0.062501 0.062501 0.996094
0.218891 0.062501 0.996094
0.33637 0.062501 0.996094
0.429526 0.062501 0.996094
0.518105 0.062501 0.996094
0.608576 0.062501 0.996094
0.702342 0.062501 0.996094
0.816098 0.062501 0.996094
0.996094 0.062501 0.996094
0.062501 0.218891 0.996094
0.218891 0.218891 0.996094
0.33637 0.218891 0.996094
0.429526 0.218891 0.996094
0.518105 0.218891 0.996094
0.608576 0.218891 0.996094
0.702342 0.218891 0.996094
0.816098 0.218891 0.996094
0.996094 0.218891 0.996094
0.062501 0.33637 0.996094
0.218891 0.33637 0.996094
0.33637 0.33637 0.996094
0.429526 0.33637 0.996094
0.518105 0.33637 0.996094
0.608576 0.33637 0.996094
0.702342 0.33637 0.996094
0.816098 0.33637 0.996094
0.996094 0.33637 0.996094
0.062501 0.429526 0.996094
0.218891 0.429526 0.996094
0.33637 0.429526 0.996094
0.429526 0.429526 0.996094
0.518105 0.429526 0.996094
0.608576 0.429526 0.996094
0.702342 0.429526 0.996094
0.816098 0.429526 0.996094
0.996094 0.429526 0.996094
0.062501 0.518105 0.996094
0.218891 0.518105 0.996094
0.33637 0.518105 0.996094
0.429526 0.518105 0.996094
0.518105 0.518105 0.996094
0.608576 0.518105 0.996094
0.702342 0.518105 0.996094
0.816098 0.518105 0.996094
0.996094 0.518105 0.996094
0.062501 0.608576 0.996094
0.218891 0.608576 0.996094
0.33637 0.608576 0.996094
0.429526 0.608576 0.996094
0.518105 0.608576 0.996094
0.608576 0.608576 0.996094
0.702342 0.608576 0.996094
0.816098 0.608576 0.996094
0.996094 0.608576 0.996094
0.062501 0.702342 0.996094
0.218891 0.702342 0.996094
0.33637 0.702342 0.996094
0.429526 0.702342 0.996094
0.518105 0.702342 0.996094
0.608576 0.702342 0.996094
0.702342 0.702342 0.996094
0.816098 0.702342 0.996094
0.996094 0.702342 0.996094
0.062501 0.816098 0.996094
0.218891 0.816098 0.996094
0.33637 0.816098 0.996094
0.429526 0.816098 0.996094
0.518105 0.816098 0.996094
0.608576 0.816098 0.996094
0.702342 0.816098 0.996094
0.816098 0.816098 0.996094
0.996094 0.816098 0.996094
0.062501 0.996094 0.996094
0.218891 0.996094 0.996094
0.33637 0.996094 0.996094
0.429526 0.996094 0.996094
0.518105 0.996094 0.996094
0.608576 0.996094 0.996094
0.702342 0.996094 0.996094
0.816098 0.996094 0.996094
0.996094 0.996094 0.996094
