cr2hdr.app/Contents/rec709_C-log.cube
LUT_3D_SIZE 5
DOMAIN_MIN 0.000000 0.000000 0.000000
DOMAIN_MAX 0.851064 0.851064 0.851064
0.110937 0.110937 0.110937
0.211200 0.110937 0.110937
0.334203 0.110937 0.110937
0.446301 0.110937 0.110937
0.569582 0.110937 0.110937
0.110937 0.211200 0.110937
0.211200 0.211200 0.110937
0.334203 0.211200 0.110937
0.446301 0.211200 0.110937
0.569582 0.211200 0.110937
0.110937 0.334203 0.110937
0.211200 0.334203 0.110937
0.334203 0.334203 0.110937
0.446301 0.334203 0.110937
0.569582 0.334203 0.110937
0.110937 0.446301 0.110937
0.211200 0.446301 0.110937
0.334203 0.446301 0.110937
0.446301 0.446301 0.110937
0.569582 0.446301 0.110937
0.110937 0.569582 0.110937
0.211200 0.569582 0.110937
0.334203 0.569582 0.110937
0.446301 0.569582 0.110937
0.569582 0.569582 0.110937
0.110937 0.110937 0.211200
0.211200 0.110937 0.211200
0.334203 0.110937 0.211200
0.446301 0.110937 0.211200
0.569582 0.110937 0.211200
0.110937 0.211200 0.211200
0.211200 0.211200 0.211200
0.334203 0.211200 0.211200
0.446301 0.211200 0.211200
0.569582 0.211200 0.211200
0.110937 0.334203 0.211200
0.211200 0.334203 0.211200
0.334203 0.334203 0.211200
0.446301 0.334203 0.211200
0.569582 0.334203 0.211200
0.110937 0.446301 0.211200
0.211200 0.446301 0.211200
0.334203 0.446301 0.211200
0.446301 0.446301 0.211200
0.569582 0.446301 0.211200
0.110937 0.569582 0.211200
0.211200 0.569582 0.211200
0.334203 0.569582 0.211200
0.446301 0.569582 0.211200
0.569582 0.569582 0.211200
0.110937 0.110937 0.334203
0.211200 0.110937 0.334203
0.334203 0.110937 0.334203
0.446301 0.110937 0.334203
0.569582 0.110937 0.334203
0.110937 0.211200 0.334203
0.211200 0.211200 0.334203
0.334203 0.211200 0.334203
0.446301 0.211200 0.334203
0.569582 0.211200 0.334203
0.110937 0.334203 0.334203
0.211200 0.334203 0.334203
0.334203 0.334203 0.334203
0.446301 0.334203 0.334203
0.569582 0.334203 0.334203
0.110937 0.446301 0.334203
0.211200 0.446301 0.334203
0.334203 0.446301 0.334203
0.446301 0.446301 0.334203
0.569582 0.446301 0.334203
0.110937 0.569582 0.334203
0.211200 0.569582 0.334203
0.334203 0.569582 0.334203
0.446301 0.569582 0.334203
0.569582 0.569582 0.334203
0.110937 0.110937 0.446301
0.211200 0.110937 0.446301
0.334203 0.110937 0.446301
0.446301 0.110937 0.446301
0.569582 0.110937 0.446301
0.110937 0.211200 0.446301
0.211200 0.211200 0.446301
0.334203 0.211200 0.446301
0.446301 0.211200 0.446301
0.569582 0.211200 0.446301
0.110937 0.334203 0.446301
0.211200 0.334203 0.446301
0.334203 0.334203 0.446301
0.446301 0.334203 0.446301
0.569582 0.334203 0.446301
0.110937 0.446301 0.446301
0.211200 0.446301 0.446301
0.334203 0.446301 0.446301
0.446301 0.446301 0.446301
0.569582 0.446301 0.446301
0.110937 0.569582 0.446301
0.211200 0.569582 0.446301
0.334203 0.569582 0.446301
0.446301 0.569582 0.446301
0.569582 0.569582 0.446301
0.110937 0.110937 0.569582
0.211200 0.110937 0.569582
0.334203 0.110937 0.569582
0.446301 0.110937 0.569582
0.569582 0.110937 0.569582
0.110937 0.211200 0.569582
0.211200 0.211200 0.569582
0.334203 0.211200 0.569582
0.446301 0.211200 0.569582
0.569582 0.211200 0.569582
0.110937 0.334203 0.569582
0.211200 0.334203 0.569582
0.334203 0.334203 0.569582
0.446301 0.334203 0.569582
0.569582 0.334203 0.569582
0.110937 0.446301 0.569582
0.211200 0.446301 0.569582
0.334203 0.446301 0.569582
0.446301 0.446301 0.569582
0.569582 0.446301 0.569582
0.110937 0.569582 0.569582
0.211200 0.569582 0.569582
0.334203 0.569582 0.569582
0.446301 0.569582 0.569582
0.569582 0.569582 0.569582
