cr2hdr.app/Contents/rec709_C-log.cube
LUT_3D_SIZE 48
0.110937 0.110937 0.110937
0.120804 0.110937 0.110937
0.130237 0.110937 0.110937
0.139278 0.110937 0.110937
0.147914 0.110937 0.110937
0.156919 0.110937 0.110937
0.166630 0.110937 0.110937
0.177074 0.110937 0.110937
0.188041 0.110937 0.110937
0.199436 0.110937 0.110937
0.211200 0.110937 0.110937
0.223178 0.110937 0.110937
0.235402 0.110937 0.110937
0.247811 0.110937 0.110937
0.260245 0.110937 0.110937
0.272710 0.110937 0.110937
0.285150 0.110937 0.110937
0.297553 0.110937 0.110937
0.309879 0.110937 0.110937
0.322083 0.110937 0.110937
0.334203 0.110937 0.110937
0.346207 0.110937 0.110937
0.358006 0.110937 0.110937
0.369640 0.110937 0.110937
0.381122 0.110937 0.110937
0.392433 0.110937 0.110937
0.403566 0.110937 0.110937
0.414497 0.110937 0.110937
0.425250 0.110937 0.110937
0.435849 0.110937 0.110937
0.446301 0.110937 0.110937
0.456504 0.110937 0.110937
0.466600 0.110937 0.110937
0.478679 0.110937 0.110937
0.491183 0.110937 0.110937
0.502992 0.110937 0.110937
0.515268 0.110937 0.110937
0.527966 0.110937 0.110937
0.541125 0.110937 0.110937
0.554992 0.110937 0.110937
0.569582 0.110937 0.110937
0.584967 0.110937 0.110937
0.601413 0.110937 0.110937
0.619176 0.110937 0.110937
0.638341 0.110937 0.110937
0.659781 0.110937 0.110937
0.683723 0.110937 0.110937
0.710922 0.110937 0.110937
0.110937 0.120804 0.110937
0.120804 0.120804 0.110937
0.130237 0.120804 0.110937
0.139278 0.120804 0.110937
0.147914 0.120804 0.110937
0.156919 0.120804 0.110937
0.166630 0.120804 0.110937
0.177074 0.120804 0.110937
0.188041 0.120804 0.110937
0.199436 0.120804 0.110937
0.211200 0.120804 0.110937
0.223178 0.120804 0.110937
0.235402 0.120804 0.110937
0.247811 0.120804 0.110937
0.260245 0.120804 0.110937
0.272710 0.120804 0.110937
0.285150 0.120804 0.110937
0.297553 0.120804 0.110937
0.309879 0.120804 0.110937
0.322083 0.120804 0.110937
0.334203 0.120804 0.110937
0.346207 0.120804 0.110937
0.358006 0.120804 0.110937
0.369640 0.120804 0.110937
0.381122 0.120804 0.110937
0.392433 0.120804 0.110937
0.403566 0.120804 0.110937
0.414497 0.120804 0.110937
0.425250 0.120804 0.110937
0.435849 0.120804 0.110937
0.446301 0.120804 0.110937
0.456504 0.120804 0.110937
0.466600 0.120804 0.110937
0.478679 0.120804 0.110937
0.491183 0.120804 0.110937
0.502992 0.120804 0.110937
0.515268 0.120804 0.110937
0.527966 0.120804 0.110937
0.541125 0.120804 0.110937
0.554992 0.120804 0.110937
0.569582 0.120804 0.110937
0.584967 0.120804 0.110937
0.601413 0.120804 0.110937
0.619176 0.120804 0.110937
0.638341 0.120804 0.110937
0.659781 0.120804 0.110937
0.683723 0.120804 0.110937
0.710922 0.120804 0.110937
0.110937 0.130237 0.110937
0.120804 0.130237 0.110937
0.130237 0.130237 0.110937
0.139278 0.130237 0.110937
0.147914 0.130237 0.110937
0.156919 0.130237 0.110937
0.166630 0.130237 0.110937
0.177074 0.130237 0.110937
0.188041 0.130237 0.110937
0.199436 0.130237 0.110937
0.211200 0.130237 0.110937
0.223178 0.130237 0.110937
0.235402 0.130237 0.110937
0.247811 0.130237 0.110937
0.260245 0.130237 0.110937
0.272710 0.130237 0.110937
0.285150 0.130237 0.110937
0.297553 0.130237 0.110937
0.309879 0.130237 0.110937
0.322083 0.130237 0.110937
0.334203 0.130237 0.110937
0.346207 0.130237 0.110937
0.358006 0.130237 0.110937
0.369640 0.130237 0.110937
0.381122 0.130237 0.110937
0.392433 0.130237 0.110937
0.403566 0.130237 0.110937
0.414497 0.130237 0.110937
0.425250 0.130237 0.110937
0.435849 0.130237 0.110937
0.446301 0.130237 0.110937
0.456504 0.130237 0.110937
0.466600 0.130237 0.110937
0.478679 0.130237 0.110937
0.491183 0.130237 0.110937
0.502992 0.130237 0.110937
0.515268 0.130237 0.110937
0.527966 0.130237 0.110937
0.541125 0.130237 0.110937
0.554992 0.130237 0.110937
0.569582 0.130237 0.110937
0.584967 0.130237 0.110937
0.601413 0.130237 0.110937
0.619176 0.130237 0.110937
0.638341 0.130237 0.110937
0.659781 0.130237 0.110937
0.683723 0.130237 0.110937
0.710922 0.130237 0.110937
0.110937 0.139278 0.110937
0.120804 0.139278 0.110937
0.130237 0.139278 0.110937
0.139278 0.139278 0.110937
0.147914 0.139278 0.110937
0.156919 0.139278 0.110937
0.166630 0.139278 0.110937
0.177074 0.139278 0.110937
0.188041 0.139278 0.110937
0.199436 0.139278 0.110937
0.211200 0.139278 0.110937
0.223178 0.139278 0.110937
0.235402 0.139278 0.110937
0.247811 0.139278 0.110937
0.260245 0.139278 0.110937
0.272710 0.139278 0.110937
0.285150 0.139278 0.110937
0.297553 0.139278 0.110937
0.309879 0.139278 0.110937
0.322083 0.139278 0.110937
0.334203 0.139278 0.110937
0.346207 0.139278 0.110937
0.358006 0.139278 0.110937
0.369640 0.139278 0.110937
0.381122 0.139278 0.110937
0.392433 0.139278 0.110937
0.403566 0.139278 0.110937
0.414497 0.139278 0.110937
0.425250 0.139278 0.110937
0.435849 0.139278 0.110937
0.446301 0.139278 0.110937
0.456504 0.139278 0.110937
0.466600 0.139278 0.110937
0.478679 0.139278 0.110937
0.491183 0.139278 0.110937
0.502992 0.139278 0.110937
0.515268 0.139278 0.110937
0.527966 0.139278 0.110937
0.541125 0.139278 0.110937
0.554992 0.139278 0.110937
0.569582 0.139278 0.110937
0.584967 0.139278 0.110937
0.601413 0.139278 0.110937
0.619176 0.139278 0.110937
0.638341 0.139278 0.110937
0.659781 0.139278 0.110937
0.683723 0.139278 0.110937
0.710922 0.139278 0.110937
0.110937 0.147914 0.110937
0.120804 0.147914 0.110937
0.130237 0.147914 0.110937
0.139278 0.147914 0.110937
0.147914 0.147914 0.110937
0.156919 0.147914 0.110937
0.166630 0.147914 0.110937
0.177074 0.147914 0.110937
0.188041 0.147914 0.110937
0.199436 0.147914 0.110937
0.211200 0.147914 0.110937
0.223178 0.147914 0.110937
0.235402 0.147914 0.110937
0.247811 0.147914 0.110937
0.260245 0.147914 0.110937
0.272710 0.147914 0.110937
0.285150 0.147914 0.110937
0.297553 0.147914 0.110937
0.309879 0.147914 0.110937
0.322083 0.147914 0.110937
0.334203 0.147914 0.110937
0.346207 0.147914 0.110937
0.358006 0.147914 0.110937
0.369640 0.147914 0.110937
0.381122 0.147914 0.110937
0.392433 0.147914 0.110937
0.403566 0.147914 0.110937
0.414497 0.147914 0.110937
0.425250 0.147914 0.110937
0.435849 0.147914 0.110937
0.446301 0.147914 0.110937
0.456504 0.147914 0.110937
0.466600 0.147914 0.110937
0.478679 0.147914 0.110937
0.491183 0.147914 0.110937
0.502992 0.147914 0.110937
0.515268 0.147914 0.110937
0.527966 0.147914 0.110937
0.541125 0.147914 0.110937
0.554992 0.147914 0.110937
0.569582 0.147914 0.110937
0.584967 0.147914 0.110937
0.601413 0.147914 0.110937
0.619176 0.147914 0.110937
0.638341 0.147914 0.110937
0.659781 0.147914 0.110937
0.683723 0.147914 0.110937
0.710922 0.147914 0.110937
0.110937 0.156919 0.110937
0.120804 0.156919 0.110937
0.130237 0.156919 0.110937
0.139278 0.156919 0.110937
0.147914 0.156919 0.110937
0.156919 0.156919 0.110937
0.166630 0.156919 0.110937
0.177074 0.156919 0.110937
0.188041 0.156919 0.110937
0.199436 0.156919 0.110937
0.211200 0.156919 0.110937
0.223178 0.156919 0.110937
0.235402 0.156919 0.110937
0.247811 0.156919 0.110937
0.260245 0.156919 0.110937
0.272710 0.156919 0.110937
0.285150 0.156919 0.110937
0.297553 0.156919 0.110937
0.309879 0.156919 0.110937
0.322083 0.156919 0.110937
0.334203 0.156919 0.110937
0.346207 0.156919 0.110937
0.358006 0.156919 0.110937
0.369640 0.156919 0.110937
0.381122 0.156919 0.110937
0.392433 0.156919 0.110937
0.403566 0.156919 0.110937
0.414497 0.156919 0.110937
0.425250 0.156919 0.110937
0.435849 0.156919 0.110937
0.446301 0.156919 0.110937
0.456504 0.156919 0.110937
0.466600 0.156919 0.110937
0.478679 0.156919 0.110937
0.491183 0.156919 0.110937
0.502992 0.156919 0.110937
0.515268 0.156919 0.110937
0.527966 0.156919 0.110937
0.541125 0.156919 0.110937
0.554992 0.156919 0.110937
0.569582 0.156919 0.110937
0.584967 0.156919 0.110937
0.601413 0.156919 0.110937
0.619176 0.156919 0.110937
0.638341 0.156919 0.110937
0.659781 0.156919 0.110937
0.683723 0.156919 0.110937
0.710922 0.156919 0.110937
0.110937 0.166630 0.110937
0.120804 0.166630 0.110937
0.130237 0.166630 0.110937
0.139278 0.166630 0.110937
0.147914 0.166630 0.110937
0.156919 0.166630 0.110937
0.166630 0.166630 0.110937
0.177074 0.166630 0.110937
0.188041 0.166630 0.110937
0.199436 0.166630 0.110937
0.211200 0.166630 0.110937
0.223178 0.166630 0.110937
0.235402 0.166630 0.110937
0.247811 0.166630 0.110937
0.260245 0.166630 0.110937
0.272710 0.166630 0.110937
0.285150 0.166630 0.110937
0.297553 0.166630 0.110937
0.309879 0.166630 0.110937
0.322083 0.166630 0.110937
0.334203 0.166630 0.110937
0.346207 0.166630 0.110937
0.358006 0.166630 0.110937
0.369640 0.166630 0.110937
0.381122 0.166630 0.110937
0.392433 0.166630 0.110937
0.403566 0.166630 0.110937
0.414497 0.166630 0.110937
0.425250 0.166630 0.110937
0.435849 0.166630 0.110937
0.446301 0.166630 0.110937
0.456504 0.166630 0.110937
0.466600 0.166630 0.110937
0.478679 0.166630 0.110937
0.491183 0.166630 0.110937
0.502992 0.166630 0.110937
0.515268 0.166630 0.110937
0.527966 0.166630 0.110937
0.541125 0.166630 0.110937
0.554992 0.166630 0.110937
0.569582 0.166630 0.110937
0.584967 0.166630 0.110937
0.601413 0.166630 0.110937
0.619176 0.166630 0.110937
0.638341 0.166630 0.110937
0.659781 0.166630 0.110937
0.683723 0.166630 0.110937
0.710922 0.166630 0.110937
0.110937 0.177074 0.110937
0.120804 0.177074 0.110937
0.130237 0.177074 0.110937
0.139278 0.177074 0.110937
0.147914 0.177074 0.110937
0.156919 0.177074 0.110937
0.166630 0.177074 0.110937
0.177074 0.177074 0.110937
0.188041 0.177074 0.110937
0.199436 0.177074 0.110937
0.211200 0.177074 0.110937
0.223178 0.177074 0.110937
0.235402 0.177074 0.110937
0.247811 0.177074 0.110937
0.260245 0.177074 0.110937
0.272710 0.177074 0.110937
0.285150 0.177074 0.110937
0.297553 0.177074 0.110937
0.309879 0.177074 0.110937
0.322083 0.177074 0.110937
0.334203 0.177074 0.110937
0.346207 0.177074 0.110937
0.358006 0.177074 0.110937
0.369640 0.177074 0.110937
0.381122 0.177074 0.110937
0.392433 0.177074 0.110937
0.403566 0.177074 0.110937
0.414497 0.177074 0.110937
0.425250 0.177074 0.110937
0.435849 0.177074 0.110937
0.446301 0.177074 0.110937
0.456504 0.177074 0.110937
0.466600 0.177074 0.110937
0.478679 0.177074 0.110937
0.491183 0.177074 0.110937
0.502992 0.177074 0.110937
0.515268 0.177074 0.110937
0.527966 0.177074 0.110937
0.541125 0.177074 0.110937
0.554992 0.177074 0.110937
0.569582 0.177074 0.110937
0.584967 0.177074 0.110937
0.601413 0.177074 0.110937
0.619176 0.177074 0.110937
0.638341 0.177074 0.110937
0.659781 0.177074 0.110937
0.683723 0.177074 0.110937
0.710922 0.177074 0.110937
0.110937 0.188041 0.110937
0.120804 0.188041 0.110937
0.130237 0.188041 0.110937
0.139278 0.188041 0.110937
0.147914 0.188041 0.110937
0.156919 0.188041 0.110937
0.166630 0.188041 0.110937
0.177074 0.188041 0.110937
0.188041 0.188041 0.110937
0.199436 0.188041 0.110937
0.211200 0.188041 0.110937
0.223178 0.188041 0.110937
0.235402 0.188041 0.110937
0.247811 0.188041 0.110937
0.260245 0.188041 0.110937
0.272710 0.188041 0.110937
0.285150 0.188041 0.110937
0.297553 0.188041 0.110937
0.309879 0.188041 0.110937
0.322083 0.188041 0.110937
0.334203 0.188041 0.110937
0.346207 0.188041 0.110937
0.358006 0.188041 0.110937
0.369640 0.188041 0.110937
0.381122 0.188041 0.110937
0.392433 0.188041 0.110937
0.403566 0.188041 0.110937
0.414497 0.188041 0.110937
0.425250 0.188041 0.110937
0.435849 0.188041 0.110937
0.446301 0.188041 0.110937
0.456504 0.188041 0.110937
0.466600 0.188041 0.110937
0.478679 0.188041 0.110937
0.491183 0.188041 0.110937
0.502992 0.188041 0.110937
0.515268 0.188041 0.110937
0.527966 0.188041 0.110937
0.541125 0.188041 0.110937
0.554992 0.188041 0.110937
0.569582 0.188041 0.110937
0.584967 0.188041 0.110937
0.601413 0.188041 0.110937
0.619176 0.188041 0.110937
0.638341 0.188041 0.110937
0.659781 0.188041 0.110937
0.683723 0.188041 0.110937
0.710922 0.188041 0.110937
0.110937 0.199436 0.110937
0.120804 0.199436 0.110937
0.130237 0.199436 0.110937
0.139278 0.199436 0.110937
0.147914 0.199436 0.110937
0.156919 0.199436 0.110937
0.166630 0.199436 0.110937
0.177074 0.199436 0.110937
0.188041 0.199436 0.110937
0.199436 0.199436 0.110937
0.211200 0.199436 0.110937
0.223178 0.199436 0.110937
0.235402 0.199436 0.110937
0.247811 0.199436 0.110937
0.260245 0.199436 0.110937
0.272710 0.199436 0.110937
0.285150 0.199436 0.110937
0.297553 0.199436 0.110937
0.309879 0.199436 0.110937
0.322083 0.199436 0.110937
0.334203 0.199436 0.110937
0.346207 0.199436 0.110937
0.358006 0.199436 0.110937
0.369640 0.199436 0.110937
0.381122 0.199436 0.110937
0.392433 0.199436 0.110937
0.403566 0.199436 0.110937
0.414497 0.199436 0.110937
0.425250 0.199436 0.110937
0.435849 0.199436 0.110937
0.446301 0.199436 0.110937
0.456504 0.199436 0.110937
0.466600 0.199436 0.110937
0.478679 0.199436 0.110937
0.491183 0.199436 0.110937
0.502992 0.199436 0.110937
0.515268 0.199436 0.110937
0.527966 0.199436 0.110937
0.541125 0.199436 0.110937
0.554992 0.199436 0.110937
0.569582 0.199436 0.110937
0.584967 0.199436 0.110937
0.601413 0.199436 0.110937
0.619176 0.199436 0.110937
0.638341 0.199436 0.110937
0.659781 0.199436 0.110937
0.683723 0.199436 0.110937
0.710922 0.199436 0.110937
0.110937 0.211200 0.110937
0.120804 0.211200 0.110937
0.130237 0.211200 0.110937
0.139278 0.211200 0.110937
0.147914 0.211200 0.110937
0.156919 0.211200 0.110937
0.166630 0.211200 0.110937
0.177074 0.211200 0.110937
0.188041 0.211200 0.110937
0.199436 0.211200 0.110937
0.211200 0.211200 0.110937
0.223178 0.211200 0.110937
0.235402 0.211200 0.110937
0.247811 0.211200 0.110937
0.260245 0.211200 0.110937
0.272710 0.211200 0.110937
0.285150 0.211200 0.110937
0.297553 0.211200 0.110937
0.309879 0.211200 0.110937
0.322083 0.211200 0.110937
0.334203 0.211200 0.110937
0.346207 0.211200 0.110937
0.358006 0.211200 0.110937
0.369640 0.211200 0.110937
0.381122 0.211200 0.110937
0.392433 0.211200 0.110937
0.403566 0.211200 0.110937
0.414497 0.211200 0.110937
0.425250 0.211200 0.110937
0.435849 0.211200 0.110937
0.446301 0.211200 0.110937
0.456504 0.211200 0.110937
0.466600 0.211200 0.110937
0.478679 0.211200 0.110937
0.491183 0.211200 0.110937
0.502992 0.211200 0.110937
0.515268 0.211200 0.110937
0.527966 0.211200 0.110937
0.541125 0.211200 0.110937
0.554992 0.211200 0.110937
0.569582 0.211200 0.110937
0.584967 0.211200 0.110937
0.601413 0.211200 0.110937
0.619176 0.211200 0.110937
0.638341 0.211200 0.110937
0.659781 0.211200 0.110937
0.683723 0.211200 0.110937
0.710922 0.211200 0.110937
0.110937 0.223178 0.110937
0.120804 0.223178 0.110937
0.130237 0.223178 0.110937
0.139278 0.223178 0.110937
0.147914 0.223178 0.110937
0.156919 0.223178 0.110937
0.166630 0.223178 0.110937
0.177074 0.223178 0.110937
0.188041 0.223178 0.110937
0.199436 0.223178 0.110937
0.211200 0.223178 0.110937
0.223178 0.223178 0.110937
0.235402 0.223178 0.110937
0.247811 0.223178 0.110937
0.260245 0.223178 0.110937
0.272710 0.223178 0.110937
0.285150 0.223178 0.110937
0.297553 0.223178 0.110937
0.309879 0.223178 0.110937
0.322083 0.223178 0.110937
0.334203 0.223178 0.110937
0.346207 0.223178 0.110937
0.358006 0.223178 0.110937
0.369640 0.223178 0.110937
0.381122 0.223178 0.110937
0.392433 0.223178 0.110937
0.403566 0.223178 0.110937
0.414497 0.223178 0.110937
0.425250 0.223178 0.110937
0.435849 0.223178 0.110937
0.446301 0.223178 0.110937
0.456504 0.223178 0.110937
0.466600 0.223178 0.110937
0.478679 0.223178 0.110937
0.491183 0.223178 0.110937
0.502992 0.223178 0.110937
0.515268 0.223178 0.110937
0.527966 0.223178 0.110937
0.541125 0.223178 0.110937
0.554992 0.223178 0.110937
0.569582 0.223178 0.110937
0.584967 0.223178 0.110937
0.601413 0.223178 0.110937
0.619176 0.223178 0.110937
0.638341 0.223178 0.110937
0.659781 0.223178 0.110937
0.683723 0.223178 0.110937
0.710922 0.223178 0.110937
0.110937 0.235402 0.110937
0.120804 0.235402 0.110937
0.130237 0.235402 0.110937
0.139278 0.235402 0.110937
0.147914 0.235402 0.110937
0.156919 0.235402 0.110937
0.166630 0.235402 0.110937
0.177074 0.235402 0.110937
0.188041 0.235402 0.110937
0.199436 0.235402 0.110937
0.211200 0.235402 0.110937
0.223178 0.235402 0.110937
0.235402 0.235402 0.110937
0.247811 0.235402 0.110937
0.260245 0.235402 0.110937
0.272710 0.235402 0.110937
0.285150 0.235402 0.110937
0.297553 0.235402 0.110937
0.309879 0.235402 0.110937
0.322083 0.235402 0.110937
0.334203 0.235402 0.110937
0.346207 0.235402 0.110937
0.358006 0.235402 0.110937
0.369640 0.235402 0.110937
0.381122 0.235402 0.110937
0.392433 0.235402 0.110937
0.403566 0.235402 0.110937
0.414497 0.235402 0.110937
0.425250 0.235402 0.110937
0.435849 0.235402 0.110937
0.446301 0.235402 0.110937
0.456504 0.235402 0.110937
0.466600 0.235402 0.110937
0.478679 0.235402 0.110937
0.491183 0.235402 0.110937
0.502992 0.235402 0.110937
0.515268 0.235402 0.110937
0.527966 0.235402 0.110937
0.541125 0.235402 0.110937
0.554992 0.235402 0.110937
0.569582 0.235402 0.110937
0.584967 0.235402 0.110937
0.601413 0.235402 0.110937
0.619176 0.235402 0.110937
0.638341 0.235402 0.110937
0.659781 0.235402 0.110937
0.683723 0.235402 0.110937
0.710922 0.235402 0.110937
0.110937 0.247811 0.110937
0.120804 0.247811 0.110937
0.130237 0.247811 0.110937
0.139278 0.247811 0.110937
0.147914 0.247811 0.110937
0.156919 0.247811 0.110937
0.166630 0.247811 0.110937
0.177074 0.247811 0.110937
0.188041 0.247811 0.110937
0.199436 0.247811 0.110937
0.211200 0.247811 0.110937
0.223178 0.247811 0.110937
0.235402 0.247811 0.110937
0.247811 0.247811 0.110937
0.260245 0.247811 0.110937
0.272710 0.247811 0.110937
0.285150 0.247811 0.110937
0.297553 0.247811 0.110937
0.309879 0.247811 0.110937
0.322083 0.247811 0.110937
0.334203 0.247811 0.110937
0.346207 0.247811 0.110937
0.358006 0.247811 0.110937
0.369640 0.247811 0.110937
0.381122 0.247811 0.110937
0.392433 0.247811 0.110937
0.403566 0.247811 0.110937
0.414497 0.247811 0.110937
0.425250 0.247811 0.110937
0.435849 0.247811 0.110937
0.446301 0.247811 0.110937
0.456504 0.247811 0.110937
0.466600 0.247811 0.110937
0.478679 0.247811 0.110937
0.491183 0.247811 0.110937
0.502992 0.247811 0.110937
0.515268 0.247811 0.110937
0.527966 0.247811 0.110937
0.541125 0.247811 0.110937
0.554992 0.247811 0.110937
0.569582 0.247811 0.110937
0.584967 0.247811 0.110937
0.601413 0.247811 0.110937
0.619176 0.247811 0.110937
0.638341 0.247811 0.110937
0.659781 0.247811 0.110937
0.683723 0.247811 0.110937
0.710922 0.247811 0.110937
0.110937 0.260245 0.110937
0.120804 0.260245 0.110937
0.130237 0.260245 0.110937
0.139278 0.260245 0.110937
0.147914 0.260245 0.110937
0.156919 0.260245 0.110937
0.166630 0.260245 0.110937
0.177074 0.260245 0.110937
0.188041 0.260245 0.110937
0.199436 0.260245 0.110937
0.211200 0.260245 0.110937
0.223178 0.260245 0.110937
0.235402 0.260245 0.110937
0.247811 0.260245 0.110937
0.260245 0.260245 0.110937
0.272710 0.260245 0.110937
0.285150 0.260245 0.110937
0.297553 0.260245 0.110937
0.309879 0.260245 0.110937
0.322083 0.260245 0.110937
0.334203 0.260245 0.110937
0.346207 0.260245 0.110937
0.358006 0.260245 0.110937
0.369640 0.260245 0.110937
0.381122 0.260245 0.110937
0.392433 0.260245 0.110937
0.403566 0.260245 0.110937
0.414497 0.260245 0.110937
0.425250 0.260245 0.110937
0.435849 0.260245 0.110937
0.446301 0.260245 0.110937
0.456504 0.260245 0.110937
0.466600 0.260245 0.110937
0.478679 0.260245 0.110937
0.491183 0.260245 0.110937
0.502992 0.260245 0.110937
0.515268 0.260245 0.110937
0.527966 0.260245 0.110937
0.541125 0.260245 0.110937
0.554992 0.260245 0.110937
0.569582 0.260245 0.110937
0.584967 0.260245 0.110937
0.601413 0.260245 0.110937
0.619176 0.260245 0.110937
0.638341 0.260245 0.110937
0.659781 0.260245 0.110937
0.683723 0.260245 0.110937
0.710922 0.260245 0.110937
0.110937 0.272710 0.110937
0.120804 0.272710 0.110937
0.130237 0.272710 0.110937
0.139278 0.272710 0.110937
0.147914 0.272710 0.110937
0.156919 0.272710 0.110937
0.166630 0.272710 0.110937
0.177074 0.272710 0.110937
0.188041 0.272710 0.110937
0.199436 0.272710 0.110937
0.211200 0.272710 0.110937
0.223178 0.272710 0.110937
0.235402 0.272710 0.110937
0.247811 0.272710 0.110937
0.260245 0.272710 0.110937
0.272710 0.272710 0.110937
0.285150 0.272710 0.110937
0.297553 0.272710 0.110937
0.309879 0.272710 0.110937
0.322083 0.272710 0.110937
0.334203 0.272710 0.110937
0.346207 0.272710 0.110937
0.358006 0.272710 0.110937
0.369640 0.272710 0.110937
0.381122 0.272710 0.110937
0.392433 0.272710 0.110937
0.403566 0.272710 0.110937
0.414497 0.272710 0.110937
0.425250 0.272710 0.110937
0.435849 0.272710 0.110937
0.446301 0.272710 0.110937
0.456504 0.272710 0.110937
0.466600 0.272710 0.110937
0.478679 0.272710 0.110937
0.491183 0.272710 0.110937
0.502992 0.272710 0.110937
0.515268 0.272710 0.110937
0.527966 0.272710 0.110937
0.541125 0.272710 0.110937
0.554992 0.272710 0.110937
0.569582 0.272710 0.110937
0.584967 0.272710 0.110937
0.601413 0.272710 0.110937
0.619176 0.272710 0.110937
0.638341 0.272710 0.110937
0.659781 0.272710 0.110937
0.683723 0.272710 0.110937
0.710922 0.272710 0.110937
0.110937 0.285150 0.110937
0.120804 0.285150 0.110937
0.130237 0.285150 0.110937
0.139278 0.285150 0.110937
0.147914 0.285150 0.110937
0.156919 0.285150 0.110937
0.166630 0.285150 0.110937
0.177074 0.285150 0.110937
0.188041 0.285150 0.110937
0.199436 0.285150 0.110937
0.211200 0.285150 0.110937
0.223178 0.285150 0.110937
0.235402 0.285150 0.110937
0.247811 0.285150 0.110937
0.260245 0.285150 0.110937
0.272710 0.285150 0.110937
0.285150 0.285150 0.110937
0.297553 0.285150 0.110937
0.309879 0.285150 0.110937
0.322083 0.285150 0.110937
0.334203 0.285150 0.110937
0.346207 0.285150 0.110937
0.358006 0.285150 0.110937
0.369640 0.285150 0.110937
0.381122 0.285150 0.110937
0.392433 0.285150 0.110937
0.403566 0.285150 0.110937
0.414497 0.285150 0.110937
0.425250 0.285150 0.110937
0.435849 0.285150 0.110937
0.446301 0.285150 0.110937
0.456504 0.285150 0.110937
0.466600 0.285150 0.110937
0.478679 0.285150 0.110937
0.491183 0.285150 0.110937
0.502992 0.285150 0.110937
0.515268 0.285150 0.110937
0.527966 0.285150 0.110937
0.541125 0.285150 0.110937
0.554992 0.285150 0.110937
0.569582 0.285150 0.110937
0.584967 0.285150 0.110937
0.601413 0.285150 0.110937
0.619176 0.285150 0.110937
0.638341 0.285150 0.110937
0.659781 0.285150 0.110937
0.683723 0.285150 0.110937
0.710922 0.285150 0.110937
0.110937 0.297553 0.110937
0.120804 0.297553 0.110937
0.130237 0.297553 0.110937
0.139278 0.297553 0.110937
0.147914 0.297553 0.110937
0.156919 0.297553 0.110937
0.166630 0.297553 0.110937
0.177074 0.297553 0.110937
0.188041 0.297553 0.110937
0.199436 0.297553 0.110937
0.211200 0.297553 0.110937
0.223178 0.297553 0.110937
0.235402 0.297553 0.110937
0.247811 0.297553 0.110937
0.260245 0.297553 0.110937
0.272710 0.297553 0.110937
0.285150 0.297553 0.110937
0.297553 0.297553 0.110937
0.309879 0.297553 0.110937
0.322083 0.297553 0.110937
0.334203 0.297553 0.110937
0.346207 0.297553 0.110937
0.358006 0.297553 0.110937
0.369640 0.297553 0.110937
0.381122 0.297553 0.110937
0.392433 0.297553 0.110937
0.403566 0.297553 0.110937
0.414497 0.297553 0.110937
0.425250 0.297553 0.110937
0.435849 0.297553 0.110937
0.446301 0.297553 0.110937
0.456504 0.297553 0.110937
0.466600 0.297553 0.110937
0.478679 0.297553 0.110937
0.491183 0.297553 0.110937
0.502992 0.297553 0.110937
0.515268 0.297553 0.110937
0.527966 0.297553 0.110937
0.541125 0.297553 0.110937
0.554992 0.297553 0.110937
0.569582 0.297553 0.110937
0.584967 0.297553 0.110937
0.601413 0.297553 0.110937
0.619176 0.297553 0.110937
0.638341 0.297553 0.110937
0.659781 0.297553 0.110937
0.683723 0.297553 0.110937
0.710922 0.297553 0.110937
0.110937 0.309879 0.110937
0.120804 0.309879 0.110937
0.130237 0.309879 0.110937
0.139278 0.309879 0.110937
0.147914 0.309879 0.110937
0.156919 0.309879 0.110937
0.166630 0.309879 0.110937
0.177074 0.309879 0.110937
0.188041 0.309879 0.110937
0.199436 0.309879 0.110937
0.211200 0.309879 0.110937
0.223178 0.309879 0.110937
0.235402 0.309879 0.110937
0.247811 0.309879 0.110937
0.260245 0.309879 0.110937
0.272710 0.309879 0.110937
0.285150 0.309879 0.110937
0.297553 0.309879 0.110937
0.309879 0.309879 0.110937
0.322083 0.309879 0.110937
0.334203 0.309879 0.110937
0.346207 0.309879 0.110937
0.358006 0.309879 0.110937
0.369640 0.309879 0.110937
