cr2hdr.app/Contents/rec709_C-log.cube
LUT_3D_SIZE 8
DOMAIN_MIN 0.000000 0.000000 0.000000
DOMAIN_MAX 0.893617 0.893617 0.893617
0.110937 0.110937 0.110937
0.166630 0.110937 0.110937
0.235402 0.110937 0.110937
0.309879 0.110937 0.110937
0.381122 0.110937 0.110937
0.446301 0.110937 0.110937
0.515268 0.110937 0.110937
0.601413 0.110937 0.110937
0.110937 0.166630 0.110937
0.166630 0.166630 0.110937
0.235402 0.166630 0.110937
0.309879 0.166630 0.110937
0.381122 0.166630 0.110937
0.446301 0.166630 0.110937
0.515268 0.166630 0.110937
0.601413 0.166630 0.110937
0.110937 0.235402 0.110937
0.166630 0.235402 0.110937
0.235402 0.235402 0.110937
0.309879 0.235402 0.110937
0.381122 0.235402 0.110937
0.446301 0.235402 0.110937
0.515268 0.235402 0.110937
0.601413 0.235402 0.110937
0.110937 0.309879 0.110937
0.166630 0.309879 0.110937
0.235402 0.309879 0.110937
0.309879 0.309879 0.110937
0.381122 0.309879 0.110937
0.446301 0.309879 0.110937
0.515268 0.309879 0.110937
0.601413 0.309879 0.110937
0.110937 0.381122 0.110937
0.166630 0.381122 0.110937
0.235402 0.381122 0.110937
0.309879 0.381122 0.110937
0.381122 0.381122 0.110937
0.446301 0.381122 0.110937
0.515268 0.381122 0.110937
0.601413 0.381122 0.110937
0.110937 0.446301 0.110937
0.166630 0.446301 0.110937
0.235402 0.446301 0.110937
0.309879 0.446301 0.110937
0.381122 0.446301 0.110937
0.446301 0.446301 0.110937
0.515268 0.446301 0.110937
0.601413 0.446301 0.110937
0.110937 0.515268 0.110937
0.166630 0.515268 0.110937
0.235402 0.515268 0.110937
0.309879 0.515268 0.110937
0.381122 0.515268 0.110937
0.446301 0.515268 0.110937
0.515268 0.515268 0.110937
0.601413 0.515268 0.110937
0.110937 0.601413 0.110937
0.166630 0.601413 0.110937
0.235402 0.601413 0.110937
0.309879 0.601413 0.110937
0.381122 0.601413 0.110937
0.446301 0.601413 0.110937
0.515268 0.601413 0.110937
0.601413 0.601413 0.110937
0.110937 0.110937 0.166630
0.166630 0.110937 0.166630
0.235402 0.110937 0.166630
0.309879 0.110937 0.166630
0.381122 0.110937 0.166630
0.446301 0.110937 0.166630
0.515268 0.110937 0.166630
0.601413 0.110937 0.166630
0.110937 0.166630 0.166630
0.166630 0.166630 0.166630
0.235402 0.166630 0.166630
0.309879 0.166630 0.166630
0.381122 0.166630 0.166630
0.446301 0.166630 0.166630
0.515268 0.166630 0.166630
0.601413 0.166630 0.166630
0.110937 0.235402 0.166630
0.166630 0.235402 0.166630
0.235402 0.235402 0.166630
0.309879 0.235402 0.166630
0.381122 0.235402 0.166630
0.446301 0.235402 0.166630
0.515268 0.235402 0.166630
0.601413 0.235402 0.166630
0.110937 0.309879 0.166630
0.166630 0.309879 0.166630
0.235402 0.309879 0.166630
0.309879 0.309879 0.166630
0.381122 0.309879 0.166630
0.446301 0.309879 0.166630
0.515268 0.309879 0.166630
0.601413 0.309879 0.166630
0.110937 0.381122 0.166630
0.166630 0.381122 0.166630
0.235402 0.381122 0.166630
0.309879 0.381122 0.166630
0.381122 0.381122 0.166630
0.446301 0.381122 0.166630
0.515268 0.381122 0.166630
0.601413 0.381122 0.166630
0.110937 0.446301 0.166630
0.166630 0.446301 0.166630
0.235402 0.446301 0.166630
0.309879 0.446301 0.166630
0.381122 0.446301 0.166630
0.446301 0.446301 0.166630
0.515268 0.446301 0.166630
0.601413 0.446301 0.166630
0.110937 0.515268 0.166630
0.166630 0.515268 0.166630
0.235402 0.515268 0.166630
0.309879 0.515268 0.166630
0.381122 0.515268 0.166630
0.446301 0.515268 0.166630
0.515268 0.515268 0.166630
0.601413 0.515268 0.166630
0.110937 0.601413 0.166630
0.166630 0.601413 0.166630
0.235402 0.601413 0.166630
0.309879 0.601413 0.166630
0.381122 0.601413 0.166630
0.446301 0.601413 0.166630
0.515268 0.601413 0.166630
0.601413 0.601413 0.166630
0.110937 0.110937 0.235402
0.166630 0.110937 0.235402
0.235402 0.110937 0.235402
0.309879 0.110937 0.235402
0.381122 0.110937 0.235402
0.446301 0.110937 0.235402
0.515268 0.110937 0.235402
0.601413 0.110937 0.235402
0.110937 0.166630 0.235402
0.166630 0.166630 0.235402
0.235402 0.166630 0.235402
0.309879 0.166630 0.235402
0.381122 0.166630 0.235402
0.446301 0.166630 0.235402
0.515268 0.166630 0.235402
0.601413 0.166630 0.235402
0.110937 0.235402 0.235402
0.166630 0.235402 0.235402
0.235402 0.235402 0.235402
0.309879 0.235402 0.235402
0.381122 0.235402 0.235402
0.446301 0.235402 0.235402
0.515268 0.235402 0.235402
0.601413 0.235402 0.235402
0.110937 0.309879 0.235402
0.166630 0.309879 0.235402
0.235402 0.309879 0.235402
0.309879 0.309879 0.235402
0.381122 0.309879 0.235402
0.446301 0.309879 0.235402
0.515268 0.309879 0.235402
0.601413 0.309879 0.235402
0.110937 0.381122 0.235402
0.166630 0.381122 0.235402
0.235402 0.381122 0.235402
0.309879 0.381122 0.235402
0.381122 0.381122 0.235402
0.446301 0.381122 0.235402
0.515268 0.381122 0.235402
0.601413 0.381122 0.235402
0.110937 0.446301 0.235402
0.166630 0.446301 0.235402
0.235402 0.446301 0.235402
0.309879 0.446301 0.235402
0.381122 0.446301 0.235402
0.446301 0.446301 0.235402
0.515268 0.446301 0.235402
0.601413 0.446301 0.235402
0.110937 0.515268 0.235402
0.166630 0.515268 0.235402
0.235402 0.515268 0.235402
0.309879 0.515268 0.235402
0.381122 0.515268 0.235402
0.446301 0.515268 0.235402
0.515268 0.515268 0.235402
0.601413 0.515268 0.235402
0.110937 0.601413 0.235402
0.166630 0.601413 0.235402
0.235402 0.601413 0.235402
0.309879 0.601413 0.235402
0.381122 0.601413 0.235402
0.446301 0.601413 0.235402
0.515268 0.601413 0.235402
0.601413 0.601413 0.235402
0.110937 0.110937 0.309879
0.166630 0.110937 0.309879
0.235402 0.110937 0.309879
0.309879 0.110937 0.309879
0.381122 0.110937 0.309879
0.446301 0.110937 0.309879
0.515268 0.110937 0.309879
0.601413 0.110937 0.309879
0.110937 0.166630 0.309879
0.166630 0.166630 0.309879
0.235402 0.166630 0.309879
0.309879 0.166630 0.309879
0.381122 0.166630 0.309879
0.446301 0.166630 0.309879
0.515268 0.166630 0.309879
0.601413 0.166630 0.309879
0.110937 0.235402 0.309879
0.166630 0.235402 0.309879
0.235402 0.235402 0.309879
0.309879 0.235402 0.309879
0.381122 0.235402 0.309879
0.446301 0.235402 0.309879
0.515268 0.235402 0.309879
0.601413 0.235402 0.309879
0.110937 0.309879 0.309879
0.166630 0.309879 0.309879
0.235402 0.309879 0.309879
0.309879 0.309879 0.309879
0.381122 0.309879 0.309879
0.446301 0.309879 0.309879
0.515268 0.309879 0.309879
0.601413 0.309879 0.309879
0.110937 0.381122 0.309879
0.166630 0.381122 0.309879
0.235402 0.381122 0.309879
0.309879 0.381122 0.309879
0.381122 0.381122 0.309879
0.446301 0.381122 0.309879
0.515268 0.381122 0.309879
0.601413 0.381122 0.309879
0.110937 0.446301 0.309879
0.166630 0.446301 0.309879
0.235402 0.446301 0.309879
0.309879 0.446301 0.309879
0.381122 0.446301 0.309879
0.446301 0.446301 0.309879
0.515268 0.446301 0.309879
0.601413 0.446301 0.309879
0.110937 0.515268 0.309879
0.166630 0.515268 0.309879
0.235402 0.515268 0.309879
0.309879 0.515268 0.309879
0.381122 0.515268 0.309879
0.446301 0.515268 0.309879
0.515268 0.515268 0.309879
0.601413 0.515268 0.309879
0.110937 0.601413 0.309879
0.166630 0.601413 0.309879
0.235402 0.601413 0.309879
0.309879 0.601413 0.309879
0.381122 0.601413 0.309879
0.446301 0.601413 0.309879
0.515268 0.601413 0.309879
0.601413 0.601413 0.309879
0.110937 0.110937 0.381122
0.166630 0.110937 0.381122
0.235402 0.110937 0.381122
0.309879 0.110937 0.381122
0.381122 0.110937 0.381122
0.446301 0.110937 0.381122
0.515268 0.110937 0.381122
0.601413 0.110937 0.381122
0.110937 0.166630 0.381122
0.166630 0.166630 0.381122
0.235402 0.166630 0.381122
0.309879 0.166630 0.381122
0.381122 0.166630 0.381122
0.446301 0.166630 0.381122
0.515268 0.166630 0.381122
0.601413 0.166630 0.381122
0.110937 0.235402 0.381122
0.166630 0.235402 0.381122
0.235402 0.235402 0.381122
0.309879 0.235402 0.381122
0.381122 0.235402 0.381122
0.446301 0.235402 0.381122
0.515268 0.235402 0.381122
0.601413 0.235402 0.381122
0.110937 0.309879 0.381122
0.166630 0.309879 0.381122
0.235402 0.309879 0.381122
0.309879 0.309879 0.381122
0.381122 0.309879 0.381122
0.446301 0.309879 0.381122
0.515268 0.309879 0.381122
0.601413 0.309879 0.381122
0.110937 0.381122 0.381122
0.166630 0.381122 0.381122
0.235402 0.381122 0.381122
0.309879 0.381122 0.381122
0.381122 0.381122 0.381122
0.446301 0.381122 0.381122
0.515268 0.381122 0.381122
0.601413 0.381122 0.381122
0.110937 0.446301 0.381122
0.166630 0.446301 0.381122
0.235402 0.446301 0.381122
0.309879 0.446301 0.381122
0.381122 0.446301 0.381122
0.446301 0.446301 0.381122
0.515268 0.446301 0.381122
0.601413 0.446301 0.381122
0.110937 0.515268 0.381122
0.166630 0.515268 0.381122
0.235402 0.515268 0.381122
0.309879 0.515268 0.381122
0.381122 0.515268 0.381122
0.446301 0.515268 0.381122
0.515268 0.515268 0.381122
0.601413 0.515268 0.381122
0.110937 0.601413 0.381122
0.166630 0.601413 0.381122
0.235402 0.601413 0.381122
0.309879 0.601413 0.381122
0.381122 0.601413 0.381122
0.446301 0.601413 0.381122
0.515268 0.601413 0.381122
0.601413 0.601413 0.381122
0.110937 0.110937 0.446301
0.166630 0.110937 0.446301
0.235402 0.110937 0.446301
0.309879 0.110937 0.446301
0.381122 0.110937 0.446301
0.446301 0.110937 0.446301
0.515268 0.110937 0.446301
0.601413 0.110937 0.446301
0.110937 0.166630 0.446301
0.166630 0.166630 0.446301
0.235402 0.166630 0.446301
0.309879 0.166630 0.446301
0.381122 0.166630 0.446301
0.446301 0.166630 0.446301
0.515268 0.166630 0.446301
0.601413 0.166630 0.446301
0.110937 0.235402 0.446301
0.166630 0.235402 0.446301
0.235402 0.235402 0.446301
0.309879 0.235402 0.446301
0.381122 0.235402 0.446301
0.446301 0.235402 0.446301
0.515268 0.235402 0.446301
0.601413 0.235402 0.446301
0.110937 0.309879 0.446301
0.166630 0.309879 0.446301
0.235402 0.309879 0.446301
0.309879 0.309879 0.446301
0.381122 0.309879 0.446301
0.446301 0.309879 0.446301
0.515268 0.309879 0.446301
0.601413 0.309879 0.446301
0.110937 0.381122 0.446301
0.166630 0.381122 0.446301
0.235402 0.381122 0.446301
0.309879 0.381122 0.446301
0.381122 0.381122 0.446301
0.446301 0.381122 0.446301
0.515268 0.381122 0.446301
0.601413 0.381122 0.446301
0.110937 0.446301 0.446301
0.166630 0.446301 0.446301
0.235402 0.446301 0.446301
0.309879 0.446301 0.446301
0.381122 0.446301 0.446301
0.446301 0.446301 0.446301
0.515268 0.446301 0.446301
0.601413 0.446301 0.446301
0.110937 0.515268 0.446301
0.166630 0.515268 0.446301
0.235402 0.515268 0.446301
0.309879 0.515268 0.446301
0.381122 0.515268 0.446301
0.446301 0.515268 0.446301
0.515268 0.515268 0.446301
0.601413 0.515268 0.446301
0.110937 0.601413 0.446301
0.166630 0.601413 0.446301
0.235402 0.601413 0.446301
0.309879 0.601413 0.446301
0.381122 0.601413 0.446301
0.446301 0.601413 0.446301
0.515268 0.601413 0.446301
0.601413 0.601413 0.446301
0.110937 0.110937 0.515268
0.166630 0.110937 0.515268
0.235402 0.110937 0.515268
0.309879 0.110937 0.515268
0.381122 0.110937 0.515268
0.446301 0.110937 0.515268
0.515268 0.110937 0.515268
0.601413 0.110937 0.515268
0.110937 0.166630 0.515268
0.166630 0.166630 0.515268
0.235402 0.166630 0.515268
0.309879 0.166630 0.515268
0.381122 0.166630 0.515268
0.446301 0.166630 0.515268
0.515268 0.166630 0.515268
0.601413 0.166630 0.515268
0.110937 0.235402 0.515268
0.166630 0.235402 0.515268
0.235402 0.235402 0.515268
0.309879 0.235402 0.515268
0.381122 0.235402 0.515268
0.446301 0.235402 0.515268
0.515268 0.235402 0.515268
0.601413 0.235402 0.515268
0.110937 0.309879 0.515268
0.166630 0.309879 0.515268
0.235402 0.309879 0.515268
0.309879 0.309879 0.515268
0.381122 0.309879 0.515268
0.446301 0.309879 0.515268
0.515268 0.309879 0.515268
0.601413 0.309879 0.515268
0.110937 0.381122 0.515268
0.166630 0.381122 0.515268
0.235402 0.381122 0.515268
0.309879 0.381122 0.515268
0.381122 0.381122 0.515268
0.446301 0.381122 0.515268
0.515268 0.381122 0.515268
0.601413 0.381122 0.515268
0.110937 0.446301 0.515268
0.166630 0.446301 0.515268
0.235402 0.446301 0.515268
0.309879 0.446301 0.515268
0.381122 0.446301 0.515268
0.446301 0.446301 0.515268
0.515268 0.446301 0.515268
0.601413 0.446301 0.515268
0.110937 0.515268 0.515268
0.166630 0.515268 0.515268
0.235402 0.515268 0.515268
0.309879 0.515268 0.515268
0.381122 0.515268 0.515268
0.446301 0.515268 0.515268
0.515268 0.515268 0.515268
0.601413 0.515268 0.515268
0.110937 0.601413 0.515268
0.166630 0.601413 0.515268
0.235402 0.601413 0.515268
0.309879 0.601413 0.515268
0.381122 0.601413 0.515268
0.446301 0.601413 0.515268
0.515268 0.601413 0.515268
0.601413 0.601413 0.515268
0.110937 0.110937 0.601413
0.166630 0.110937 0.601413
0.235402 0.110937 0.601413
0.309879 0.110937 0.601413
0.381122 0.110937 0.601413
0.446301 0.110937 0.601413
0.515268 0.110937 0.601413
0.601413 0.110937 0.601413
0.110937 0.166630 0.601413
0.166630 0.166630 0.601413
0.235402 0.166630 0.601413
0.309879 0.166630 0.601413
0.381122 0.166630 0.601413
0.446301 0.166630 0.601413
0.515268 0.166630 0.601413
0.601413 0.166630 0.601413
0.110937 0.235402 0.601413
0.166630 0.235402 0.601413
0.235402 0.235402 0.601413
0.309879 0.235402 0.601413
0.381122 0.235402 0.601413
0.446301 0.235402 0.601413
0.515268 0.235402 0.601413
0.601413 0.235402 0.601413
0.110937 0.309879 0.601413
0.166630 0.309879 0.601413
0.235402 0.309879 0.601413
0.309879 0.309879 0.601413
0.381122 0.309879 0.601413
0.446301 0.309879 0.601413
0.515268 0.309879 0.601413
0.601413 0.309879 0.601413
0.110937 0.381122 0.601413
0.166630 0.381122 0.601413
0.235402 0.381122 0.601413
0.309879 0.381122 0.601413
0.381122 0.381122 0.601413
0.446301 0.381122 0.601413
0.515268 0.381122 0.601413
0.601413 0.381122 0.601413
0.110937 0.446301 0.601413
0.166630 0.446301 0.601413
0.235402 0.446301 0.601413
0.309879 0.446301 0.601413
0.381122 0.446301 0.601413
0.446301 0.446301 0.601413
0.515268 0.446301 0.601413
0.601413 0.446301 0.601413
0.110937 0.515268 0.601413
0.166630 0.515268 0.601413
0.235402 0.515268 0.601413
0.309879 0.515268 0.601413
0.381122 0.515268 0.601413
0.446301 0.515268 0.601413
0.515268 0.515268 0.601413
0.601413 0.515268 0.601413
0.110937 0.601413 0.601413
0.166630 0.601413 0.601413
0.235402 0.601413 0.601413
0.309879 0.601413 0.601413
0.381122 0.601413 0.601413
0.446301 0.601413 0.601413
0.515268 0.601413 0.601413
0.601413 0.601413 0.601413
