Switch.app/Contents/aces.cube
LUT_3D_SIZE 48
0.000009 0.000009 0.000009
0.009356 0.001914 0.000379
0.018711 0.003820 0.000750
0.028086 0.005730 0.001121
0.037488 0.007645 0.001494
0.047689 0.009726 0.001897
0.059270 0.012093 0.002358
0.072400 0.014767 0.002877
0.087211 0.017720 0.003451
0.101624 0.020993 0.004086
0.116383 0.024562 0.004780
0.131033 0.028401 0.005526
0.145771 0.032615 0.006344
0.160504 0.037146 0.007224
0.175129 0.041966 0.008160
0.189837 0.047136 0.009166
0.204515 0.052597 0.010231
0.219239 0.058396 0.011362
0.234011 0.064551 0.012563
0.248684 0.071036 0.013823
0.263365 0.078003 0.015158
0.278089 0.085527 0.016565
0.292766 0.092495 0.018028
0.307443 0.099612 0.019566
0.322152 0.106861 0.021172
0.336874 0.114061 0.022847
0.351572 0.121250 0.024597
0.366249 0.128436 0.026411
0.380945 0.135625 0.028296
0.395655 0.142823 0.030260
0.410403 0.150044 0.032301
0.425088 0.157230 0.034414
0.439727 0.164365 0.036595
0.457677 0.173114 0.039363
0.476964 0.182537 0.042460
0.495151 0.191423 0.045488
0.514633 0.200940 0.048849
0.535349 0.211077 0.052590
0.557356 0.221870 0.056711
0.581072 0.233506 0.061333
0.606847 0.246112 0.066628
0.634845 0.259745 0.072642
0.666230 0.274734 0.079736
0.696758 0.291623 0.087994
0.726505 0.310516 0.096864
0.761635 0.332575 0.107492
0.798925 0.358470 0.119886
0.838396 0.389403 0.134700
0.008172 0.017334 0.002321
0.017521 0.019240 0.002691
0.026877 0.021147 0.003062
0.036257 0.023058 0.003433
0.045649 0.024974 0.003805
0.055827 0.027055 0.004209
0.067422 0.029425 0.004670
0.080699 0.032099 0.005189
0.094576 0.035053 0.005763
0.108687 0.038324 0.006398
0.122839 0.041892 0.007092
0.137008 0.045729 0.007838
0.151314 0.049932 0.008657
0.165650 0.054442 0.009536
0.179965 0.059246 0.010472
0.194384 0.064414 0.011478
0.208798 0.069918 0.012544
0.223308 0.075819 0.013675
0.237851 0.081992 0.014875
0.252310 0.088367 0.016136
0.266817 0.094821 0.017471
0.281382 0.101217 0.018878
0.295913 0.107774 0.020341
0.310455 0.114346 0.021878
0.325037 0.120964 0.023485
0.339642 0.127629 0.025159
0.354229 0.134325 0.026910
0.368808 0.141040 0.028723
0.383409 0.147782 0.030609
0.398028 0.154550 0.032574
0.412688 0.161353 0.034617
0.427296 0.168147 0.036730
0.441863 0.174946 0.038910
0.459730 0.183334 0.041676
0.478938 0.192368 0.044770
0.497052 0.200894 0.047794
0.516456 0.210054 0.051154
0.537102 0.219877 0.054895
0.559041 0.230339 0.059013
0.582685 0.241593 0.063638
0.608385 0.253820 0.068942
0.636345 0.267105 0.074979
0.667613 0.281746 0.082138
0.697809 0.298288 0.090211
0.727491 0.316816 0.098950
0.762520 0.338493 0.109444
0.799651 0.363989 0.121705
0.838977 0.394500 0.136380
0.016343 0.034681 0.004634
0.025692 0.036588 0.005004
0.035053 0.038495 0.005375
0.044429 0.040405 0.005746
0.053797 0.042318 0.006118
0.063972 0.044396 0.006523
0.075660 0.046759 0.006983
0.088719 0.049427 0.007502
0.101932 0.052372 0.008076
0.115446 0.055631 0.008712
0.129095 0.059185 0.009406
0.142818 0.063019 0.010152
0.156715 0.067230 0.010971
0.170690 0.071773 0.011850
0.184716 0.076689 0.012786
0.198855 0.082014 0.013793
0.213023 0.087286 0.014858
0.227323 0.092719 0.015990
0.241639 0.098401 0.017190
0.255898 0.104085 0.018451
0.270234 0.109938 0.019785
0.284645 0.115896 0.021192
0.299035 0.121896 0.022655
0.313445 0.127973 0.024193
0.327903 0.134130 0.025799
0.342393 0.140352 0.027474
0.356871 0.146623 0.029224
0.371352 0.152931 0.031039
0.385861 0.159274 0.032925
0.400389 0.165659 0.034891
0.414963 0.172113 0.036934
0.429494 0.178606 0.039047
0.443989 0.185126 0.041226
0.461776 0.193168 0.043989
0.480906 0.201834 0.047078
0.498948 0.210041 0.050101
0.518274 0.218909 0.053460
0.538849 0.228433 0.057199
0.560722 0.238553 0.061316
0.584294 0.249445 0.065950
0.609919 0.261346 0.071262
0.637848 0.274304 0.077346
0.668987 0.288628 0.084492
0.698853 0.304835 0.092325
0.728478 0.323013 0.101024
0.763403 0.344325 0.111374
0.800374 0.369439 0.123509
0.839555 0.399541 0.138049
0.024530 0.052036 0.006952
0.033884 0.053935 0.007323
0.043243 0.055836 0.007693
0.052594 0.057741 0.008064
0.061954 0.059647 0.008437
0.072168 0.061718 0.008841
0.083973 0.064080 0.009301
0.096302 0.066757 0.009821
0.108990 0.069723 0.010395
0.121971 0.073010 0.011031
0.135167 0.076608 0.011724
0.148473 0.080511 0.012470
0.161986 0.084840 0.013289
0.175637 0.089319 0.014169
0.189385 0.093630 0.015105
0.203254 0.098278 0.016111
0.217198 0.103165 0.017177
0.231286 0.108191 0.018309
0.245379 0.113324 0.019509
0.259453 0.118567 0.020769
0.273620 0.123954 0.022104
0.287884 0.129466 0.023511
0.302135 0.135046 0.024974
0.316417 0.140721 0.026511
0.330751 0.146485 0.028118
0.345127 0.152324 0.029793
0.359502 0.158225 0.031544
0.373886 0.164165 0.033359
0.388302 0.170168 0.035247
0.402742 0.176258 0.037213
0.417231 0.182441 0.039256
0.431687 0.188666 0.041367
0.446111 0.194916 0.043543
0.463819 0.202628 0.046303
0.482870 0.210974 0.049390
0.500840 0.218923 0.052412
0.520089 0.227522 0.055772
0.540596 0.236735 0.059507
0.562401 0.246522 0.063627
0.585901 0.257101 0.068274
0.611453 0.268704 0.073595
0.639355 0.281360 0.079740
0.670351 0.295384 0.086854
0.699890 0.311272 0.094390
0.729466 0.329116 0.103080
0.764284 0.350078 0.113287
0.801096 0.374825 0.125299
0.840135 0.404528 0.139707
0.032738 0.069428 0.009276
0.042092 0.071360 0.009646
0.051429 0.073300 0.010017
0.060768 0.075243 0.010388
0.070166 0.077196 0.010760
0.080572 0.079342 0.011165
0.091925 0.081642 0.011625
0.103550 0.084209 0.012145
0.115748 0.087078 0.012719
0.128269 0.090289 0.013355
0.141048 0.093688 0.014048
0.153968 0.097099 0.014795
0.167122 0.100814 0.015614
0.180487 0.104771 0.016493
0.193965 0.108908 0.017429
0.207579 0.113215 0.018436
0.221317 0.117659 0.019501
0.235189 0.122264 0.020633
0.249070 0.127021 0.021833
0.262968 0.131897 0.023093
0.276974 0.136920 0.024428
0.291095 0.142074 0.025835
0.305210 0.147305 0.027298
0.319365 0.152637 0.028836
0.333582 0.158060 0.030443
0.347845 0.163565 0.032118
0.362118 0.169151 0.033870
0.376408 0.174811 0.035686
0.390732 0.180562 0.037574
0.405083 0.186402 0.039540
0.419489 0.192329 0.041581
0.433873 0.198298 0.043690
0.448225 0.204299 0.045863
0.465857 0.211735 0.048621
0.484830 0.219823 0.051707
0.502728 0.227530 0.054728
0.521901 0.235850 0.058084
0.542340 0.244758 0.061820
0.564078 0.254256 0.065950
0.587507 0.264566 0.070599
0.612986 0.275888 0.075956
0.640866 0.288269 0.082146
0.671705 0.302006 0.089141
0.700922 0.317591 0.096477
0.730455 0.335122 0.105106
0.765161 0.355746 0.115182
0.801817 0.380143 0.127075
0.840712 0.409455 0.141353
0.041662 0.088336 0.011801
0.050990 0.090082 0.012171
0.060309 0.091845 0.012542
0.069677 0.093620 0.012914
0.079229 0.095405 0.013286
0.089320 0.097348 0.013690
0.099875 0.099478 0.014151
0.111156 0.101829 0.014670
0.122827 0.104392 0.015244
0.134895 0.107190 0.015880
0.147254 0.110201 0.016574
0.159775 0.113390 0.017320
0.172580 0.116811 0.018139
0.185656 0.120416 0.019019
0.198847 0.124179 0.019954
0.212207 0.128134 0.020961
0.225727 0.132235 0.022026
0.239365 0.136498 0.023158
0.253028 0.140914 0.024358
0.266743 0.145449 0.025618
0.280582 0.150135 0.026953
0.294551 0.154953 0.028360
0.308523 0.159847 0.029824
0.322543 0.164847 0.031362
0.336635 0.169956 0.032970
0.350777 0.175176 0.034647
0.364941 0.180501 0.036399
0.379131 0.185907 0.038215
0.393358 0.191400 0.040102
0.407614 0.196978 0.042066
0.421931 0.202642 0.044105
0.436238 0.208364 0.046210
0.450513 0.214144 0.048382
0.468063 0.221332 0.051138
0.486952 0.229151 0.054223
0.504771 0.236585 0.057243
0.523863 0.244603 0.060596
0.544230 0.253220 0.064339
0.565895 0.262448 0.068477
0.589248 0.272480 0.073133
0.614648 0.283524 0.078544
0.642508 0.295624 0.084792
0.673161 0.309065 0.091357
0.702035 0.324336 0.098747
0.731529 0.341540 0.107269
0.766110 0.361815 0.117220
0.802597 0.385846 0.128987
0.841337 0.414745 0.143127
0.051787 0.107661 0.014675
0.061102 0.109271 0.015046
0.070462 0.110865 0.015416
0.079981 0.112448 0.015787
0.089267 0.114019 0.016160
0.098568 0.115712 0.016564
0.108703 0.117618 0.017025
0.119390 0.119745 0.017545
0.130559 0.122069 0.018118
0.142160 0.124608 0.018755
0.154077 0.127339 0.019448
0.166173 0.130237 0.020194
0.178642 0.133359 0.021013
0.191402 0.136660 0.021892
0.204278 0.140113 0.022829
0.217382 0.143754 0.023835
0.230656 0.147537 0.024900
0.244028 0.151477 0.026032
0.257467 0.155566 0.027232
0.270979 0.159776 0.028493
0.284639 0.164130 0.029828
0.298440 0.168623 0.031235
0.312254 0.173211 0.032700
0.326123 0.177935 0.034239
0.340075 0.182779 0.035848
0.354084 0.187732 0.037524
0.368130 0.192787 0.039276
0.382206 0.197919 0.041091
0.396323 0.203138 0.042976
0.410472 0.208454 0.044937
0.424694 0.213876 0.046972
0.438912 0.219378 0.049076
0.453102 0.224943 0.051246
0.470561 0.231854 0.054002
0.489354 0.239355 0.057086
0.507084 0.246487 0.060102
0.526087 0.254210 0.063459
0.546372 0.262552 0.067213
0.567956 0.271497 0.071355
0.591221 0.281241 0.076045
0.616533 0.291999 0.081521
0.644373 0.303794 0.087676
0.674798 0.316919 0.093913
0.703294 0.331852 0.101315
0.732750 0.348702 0.109694
0.767183 0.368605 0.119511
0.803480 0.392235 0.131139
0.842046 0.420682 0.145126
0.063203 0.127079 0.017919
0.072587 0.128524 0.018290
0.082133 0.129959 0.018661
0.091215 0.131387 0.019032
0.099661 0.132806 0.019404
0.108539 0.134337 0.019808
0.118074 0.136064 0.020269
0.128242 0.137993 0.020789
0.138911 0.140104 0.021362
0.150035 0.142414 0.021998
0.161488 0.144904 0.022692
0.173175 0.147549 0.023439
0.185304 0.150406 0.024257
0.197714 0.153430 0.025136
0.210269 0.156597 0.026073
0.223109 0.159943 0.027079
0.236100 0.163428 0.028144
0.249189 0.167070 0.029276
0.262394 0.170864 0.030477
0.275690 0.174786 0.031738
0.289158 0.178867 0.033074
0.302774 0.183097 0.034482
0.316413 0.187425 0.035947
0.330118 0.191879 0.037487
0.343917 0.196447 0.039096
0.357781 0.201121 0.040771
0.371698 0.205902 0.042521
0.385648 0.210772 0.044333
0.399643 0.215748 0.046214
0.413674 0.220835 0.048173
0.427791 0.226030 0.050206
0.441909 0.231294 0.052309
0.456007 0.236607 0.054479
0.473364 0.243199 0.057233
0.492051 0.250373 0.060314
0.509682 0.257227 0.063334
0.528584 0.264676 0.066703
0.548781 0.272733 0.070461
0.570271 0.281391 0.074623
0.593439 0.290849 0.079384
0.618655 0.301300 0.084876
0.646475 0.312777 0.090598
0.676619 0.325564 0.096834
0.704704 0.340142 0.104167
0.734126 0.356615 0.112387
0.768386 0.376126 0.122063
0.804473 0.399318 0.133538
0.842842 0.427285 0.147356
0.075903 0.146549 0.021503
0.085403 0.147854 0.021873
0.094183 0.149151 0.022244
0.102591 0.150442 0.022616
0.110607 0.151727 0.022988
0.118920 0.153115 0.023392
0.127930 0.154682 0.023853
0.137591 0.156434 0.024372
0.147762 0.158351 0.024946
0.158401 0.160451 0.025582
0.169394 0.162718 0.026276
0.180704 0.165130 0.027022
0.192466 0.167743 0.027841
0.204510 0.170521 0.028721
0.216756 0.173444 0.029657
0.229308 0.176547 0.030664
0.241984 0.179788 0.031729
0.254788 0.183185 0.032862
0.267751 0.186734 0.034064
0.280820 0.190407 0.035326
0.294082 0.194233 0.036662
0.307501 0.198194 0.038071
0.320952 0.202251 0.039536
0.334485 0.206436 0.041074
0.348118 0.210743 0.042680
0.361828 0.215169 0.044353
0.375605 0.219717 0.046100
0.389417 0.224357 0.047908
0.403280 0.229099 0.049787
0.417185 0.233940 0.051745
0.431189 0.238872 0.053778
0.445198 0.243867 0.055881
0.459197 0.248919 0.058048
0.476444 0.255211 0.060798
0.495014 0.262095 0.063884
0.512537 0.268683 0.066917
0.531330 0.275851 0.070289
0.551431 0.283630 0.074062
0.572820 0.292007 0.078291
0.595879 0.301164 0.083105
0.620990 0.311302 0.088418
0.648790 0.322448 0.093810
0.678599 0.334888 0.100062
0.706252 0.349097 0.107259
0.735643 0.365183 0.115318
0.769705 0.384281 0.124844
0.805564 0.407005 0.136156
0.843717 0.434476 0.149793
0.090077 0.165932 0.025474
0.098352 0.167116 0.025844
0.106571 0.168294 0.026215
0.114413 0.169468 0.026587
0.121899 0.170639 0.026959
0.129724 0.171904 0.027363
0.138241 0.173336 0.027824
0.147409 0.174942 0.028343
0.157089 0.176705 0.028917
0.167246 0.178645 0.029553
0.177832 0.180743 0.030247
0.188763 0.182980 0.030994
0.200136 0.185409 0.031813
0.211824 0.187991 0.032693
0.223766 0.190710 0.033630
0.235991 0.193596 0.034638
0.248336 0.196614 0.035704
0.260862 0.199780 0.036838
0.273568 0.203089 0.038040
0.286407 0.206519 0.039301
0.299448 0.210103 0.040637
0.312657 0.213829 0.042044
0.325908 0.217657 0.043506
0.339256 0.221622 0.045041
0.352712 0.225707 0.046644
0.366261 0.229901 0.048314
0.379884 0.234205 0.050059
0.393549 0.238590 0.051866
0.407267 0.243068 0.053745
0.421038 0.247643 0.055702
0.434922 0.252321 0.057733
0.448812 0.257077 0.059832
0.462707 0.261904 0.061999
0.479833 0.267930 0.064758
0.498274 0.274526 0.067856
0.515678 0.280856 0.070892
0.534357 0.287762 0.074281
0.554351 0.295266 0.078119
0.575628 0.303353 0.082405
0.598567 0.312210 0.087155
0.623568 0.322026 0.092000
0.651340 0.332835 0.097389
0.680748 0.344924 0.103582
0.707956 0.358751 0.110600
0.737319 0.374449 0.118506
0.771151 0.393109 0.127875
0.806765 0.415342 0.139012
0.844681 0.442296 0.152456
0.103612 0.185292 0.029806
0.111549 0.186383 0.030176
0.119146 0.187471 0.030547
0.126455 0.188556 0.030919
0.133481 0.189638 0.031291
0.140849 0.190808 0.031696
0.148898 0.192132 0.032156
0.157585 0.193617 0.032677
0.166780 0.195248 0.033251
0.176517 0.197041 0.033888
0.186717 0.198981 0.034583
0.197251 0.201053 0.035330
0.208238 0.203305 0.036149
0.219596 0.205702 0.037030
0.231213 0.208231 0.037967
0.243081 0.210922 0.038975
0.255104 0.213743 0.040041
0.267351 0.216709 0.041173
0.279794 0.219820 0.042373
0.292394 0.223051 0.043632
0.305204 0.226430 0.044965
0.318194 0.229944 0.046369
0.331236 0.233553 0.047828
0.344391 0.237280 0.049361
0.357660 0.241120 0.050962
0.371040 0.245063 0.052631
0.384500 0.249114 0.054375
0.398007 0.253255 0.056181
0.411570 0.257499 0.058058
0.425202 0.261849 0.060012
0.438956 0.266306 0.062043
0.452722 0.270845 0.064148
0.466506 0.275457 0.066325
0.483501 0.281224 0.069093
0.501806 0.287555 0.072196
0.519081 0.293640 0.075258
0.537639 0.300283 0.078715
0.557519 0.307512 0.082610
0.578675 0.315313 0.086831
0.601485 0.323864 0.091135
0.626378 0.333360 0.095879
0.654106 0.343834 0.101279
0.683040 0.355563 0.107321
0.709806 0.369016 0.114169
0.739141 0.384312 0.121924
0.772713 0.402518 0.131126
0.808066 0.424252 0.142081
0.845726 0.450669 0.155320
0.117413 0.204600 0.034468
0.124740 0.205605 0.034839
0.131813 0.206608 0.035210
0.138650 0.207608 0.035582
0.145248 0.208608 0.035955
0.152185 0.209690 0.036360
0.159782 0.210916 0.036821
0.168006 0.212294 0.037341
0.176787 0.213809 0.037916
0.186140 0.215478 0.038553
0.195940 0.217289 0.039247
0.206070 0.219226 0.039994
0.216709 0.221334 0.040813
0.227739 0.223581 0.041693
0.238996 0.225953 0.042629
0.250507 0.228478 0.043635
0.262226 0.231124 0.044698
0.274185 0.233905 0.045827
0.286370 0.236818 0.047025
0.298721 0.239840 0.048281
0.311296 0.242998 0.049612
0.324058 0.246283 0.051014
0.336887 0.249662 0.052472
0.349838 0.253163 0.054004
0.362918 0.256781 0.055606
0.376120 0.260510 0.057273
0.389409 0.264350 0.059013
0.402749 0.268280 0.060817
0.416151 0.272311 0.062695
0.429642 0.276452 0.064655
0.443257 0.280702 0.066697
0.456894 0.285040 0.068810
0.470564 0.289455 0.070987
0.487420 0.294980 0.073763
0.505577 0.301052 0.076914
0.522718 0.306894 0.080046
0.541149 0.313281 0.083543
0.560908 0.320238 0.087384
0.581935 0.327753 0.091140
0.604607 0.336007 0.095294
0.629403 0.345188 0.100077
0.657061 0.355323 0.105375
0.685445 0.366703 0.111237
0.711790 0.379784 0.117935
0.741094 0.394669 0.125536
0.774378 0.412410 0.134567
0.809456 0.433647 0.145332
0.846843 0.459522 0.158357
0.131282 0.224077 0.039586
0.138099 0.225015 0.039957
0.144702 0.225951 0.040328
0.151105 0.226886 0.040699
0.157299 0.227818 0.041071
0.163825 0.228829 0.041476
0.171009 0.229973 0.041936
0.178857 0.231259 0.042455
0.187264 0.232672 0.043029
0.196217 0.234229 0.043664
0.205616 0.235915 0.044357
0.215385 0.237717 0.045102
0.225691 0.239679 0.045919
0.236353 0.241769 0.046797
0.247227 0.243975 0.047731
0.258409 0.246324 0.048734
0.269823 0.248788 0.049796
0.281497 0.251382 0.050923
0.293419 0.254107 0.052120
0.305513 0.256940 0.053376
0.317841 0.259911 0.054706
0.330366 0.263010 0.056106
0.342974 0.266204 0.057564
0.355711 0.269518 0.059094
0.368597 0.272943 0.060693
0.381611 0.276477 0.062361
0.394718 0.280123 0.064107
0.407879 0.283861 0.065919
0.421114 0.287704 0.067805
0.434456 0.291656 0.069772
0.447923 0.295715 0.071817
0.461426 0.299859 0.073942
0.474973 0.304081 0.076156
0.491679 0.309370 0.078993
0.509677 0.315189 0.082210
0.526674 0.320795 0.085328
0.544974 0.326927 0.088709
0.564599 0.333619 0.092014
0.585487 0.340860 0.095719
0.608010 0.348819 0.099904
0.632721 0.357683 0.104587
0.660263 0.367496 0.109708
0.687998 0.378533 0.115421
0.713962 0.391229 0.121970
0.743226 0.405691 0.129410
0.776189 0.422961 0.138264
0.810968 0.443701 0.148830
0.848060 0.469034 0.161625
0.145186 0.243603 0.045076
0.151537 0.244471 0.045445
0.157702 0.245338 0.045815
0.163693 0.246203 0.046185
0.169517 0.247067 0.046557
0.175697 0.248003 0.046960
0.182540 0.249064 0.047419
0.190029 0.250257 0.047937
0.198049 0.251570 0.048510
0.206611 0.253016 0.049144
0.215651 0.254586 0.049835
0.225089 0.256266 0.050579
0.235029 0.258097 0.051395
0.245299 0.260051 0.052272
0.255816 0.262116 0.053205
0.266682 0.264319 0.054208
0.277792 0.266634 0.055268
0.289187 0.269075 0.056395
0.300835 0.271642 0.057590
0.312669 0.274315 0.058844
0.324743 0.277120 0.060173
0.337028 0.280050 0.061573
0.349405 0.283074 0.063032
0.361926 0.286216 0.064567
0.374612 0.289468 0.066174
0.387429 0.292826 0.067849
0.400346 0.296295 0.069600
0.413320 0.299854 0.071417
0.426387 0.303515 0.073312
0.439572 0.307284 0.075302
0.452885 0.311157 0.077391
0.466252 0.315116 0.079566
0.479668 0.319151 0.081820
0.496214 0.324211 0.084716
0.514043 0.329785 0.087774
0.530893 0.335163 0.090549
0.549058 0.341052 0.093561
0.568539 0.347485 0.096943
0.589277 0.354453 0.100664
0.611645 0.362126 0.104761
0.636279 0.370693 0.109275
0.663657 0.380188 0.114244
0.690663 0.390875 0.119817
0.716292 0.403182 0.126216
0.745503 0.417215 0.133491
0.778117 0.434032 0.142162
0.812580 0.454270 0.152524
0.849357 0.479066 0.165081
0.158994 0.262944 0.050903
0.164910 0.263755 0.051272
0.170682 0.264564 0.051642
0.176336 0.265373 0.052011
0.181866 0.266181 0.052383
0.187741 0.267057 0.052786
0.194250 0.268050 0.053244
0.201376 0.269167 0.053762
0.209029 0.270396 0.054334
0.217254 0.271753 0.054968
0.225969 0.273225 0.055659
0.235052 0.274802 0.056403
0.244601 0.276521 0.057218
0.254504 0.278360 0.058093
0.264699 0.280304 0.059024
0.275249 0.282382 0.060026
0.286068 0.284568 0.061085
0.297181 0.286876 0.062212
0.308557 0.289303 0.063409
0.320125 0.291834 0.064666
0.331945 0.294492 0.066001
0.343988 0.297270 0.067411
0.356129 0.300137 0.068877
0.368437 0.303120 0.070415
0.380916 0.306210 0.072024
0.393531 0.309403 0.073708
0.406250 0.312705 0.075481
0.419035 0.316095 0.077333
0.431933 0.319583 0.079282
0.444953 0.323177 0.081320
0.458110 0.326873 0.083433
0.471339 0.330654 0.085626
0.484617 0.334513 0.087837
0.500997 0.339359 0.090313
0.518647 0.344702 0.093055
0.535347 0.349859 0.095784
0.553370 0.355511 0.098830
0.572702 0.361699 0.102188
0.593281 0.368413 0.105803
0.615490 0.375818 0.109741
0.640052 0.384093 0.114116
0.667204 0.393268 0.118952
0.693418 0.403609 0.124387
0.718764 0.415525 0.130632
0.747906 0.429151 0.137743
0.780149 0.445525 0.146228
0.814279 0.465272 0.156381
0.850727 0.489524 0.168699
0.172765 0.282310 0.057163
0.178345 0.283071 0.057533
0.183814 0.283832 0.057902
0.189173 0.284592 0.058271
0.194414 0.285352 0.058642
0.199985 0.286177 0.059044
0.206170 0.287112 0.059502
0.212977 0.288164 0.060020
0.220325 0.289324 0.060591
0.228232 0.290604 0.061224
0.236589 0.291993 0.061916
0.245291 0.293482 0.062659
0.254482 0.295107 0.063476
0.264061 0.296845 0.064355
0.273935 0.298685 0.065290
0.284188 0.300650 0.066296
0.294719 0.302717 0.067360
0.305549 0.304901 0.068493
0.316650 0.307201 0.069696
0.327950 0.309599 0.070960
0.339516 0.312119 0.072301
0.351310 0.314756 0.073719
0.363218 0.317479 0.075203
0.375310 0.320314 0.076773
0.387573 0.323252 0.078420
0.399979 0.326290 0.080148
0.412491 0.329433 0.081971
0.425089 0.332664 0.083871
0.437813 0.335991 0.085758
0.450661 0.339422 0.087676
0.463662 0.342954 0.089637
0.476745 0.346571 0.091508
0.489878 0.350262 0.093444
0.506081 0.354901 0.095927
0.523545 0.360024 0.098718
0.540094 0.364976 0.101433
0.557968 0.370414 0.104403
0.577140 0.376373 0.107626
0.597550 0.382841 0.111097
0.619597 0.389980 0.114912
0.644089 0.397963 0.119165
0.670919 0.406821 0.123874
0.696290 0.416814 0.129168
0.721415 0.428365 0.135260
0.750464 0.441603 0.142204
0.782311 0.457534 0.150500
0.816088 0.476807 0.160434
0.852186 0.500501 0.172526
0.186572 0.301683 0.063786
0.191845 0.302402 0.064156
0.197010 0.303119 0.064526
0.202076 0.303836 0.064897
0.207043 0.304553 0.065270
0.212345 0.305331 0.065675
0.218260 0.306214 0.066136
0.224788 0.307207 0.066656
0.231830 0.308302 0.067230
0.239388 0.309510 0.067865
0.247377 0.310824 0.068559
0.255734 0.312231 0.069305
0.264607 0.313766 0.070124
0.273867 0.315410 0.071006
0.283440 0.317149 0.071945
0.293404 0.319010 0.072957
0.303646 0.320968 0.074032
0.314196 0.323036 0.075180
0.325021 0.325216 0.076406
0.336058 0.327491 0.077702
0.347366 0.329884 0.079079
0.358911 0.332388 0.080530
0.370592 0.334977 0.082045
0.382460 0.337674 0.083653
0.394504 0.340471 0.085351
0.406693 0.343364 0.087031
0.418998 0.346360 0.088615
0.431411 0.349440 0.090277
0.443953 0.352615 0.091977
0.456629 0.355892 0.093731
0.469474 0.359269 0.095566
0.482404 0.362729 0.097470
0.495386 0.366268 0.099432
0.511403 0.370719 0.101904
0.528680 0.375639 0.104621
0.545077 0.380397 0.107226
0.562793 0.385625 0.110069
0.581799 0.391357 0.113173
0.602032 0.397584 0.116534
0.623922 0.404459 0.120238
0.648354 0.412152 0.124372
0.674741 0.420702 0.128951
0.699257 0.430376 0.134106
0.724215 0.441579 0.140044
0.753142 0.454428 0.146820
0.784575 0.469941 0.154926
0.817983 0.488740 0.164640
0.853716 0.511861 0.176519
0.200406 0.321096 0.070858
0.205379 0.321774 0.071230
0.210269 0.322451 0.071601
0.215087 0.323128 0.071974
0.219831 0.323806 0.072348
0.224904 0.324540 0.072755
0.230557 0.325374 0.073219
0.236784 0.326313 0.073743
0.243492 0.327348 0.074323
0.250710 0.328490 0.074968
0.258382 0.329732 0.075672
0.266435 0.331064 0.076432
0.274997 0.332518 0.077269
0.283960 0.334075 0.078172
0.293245 0.335724 0.079141
0.302918 0.337488 0.080188
0.312877 0.339346 0.081296
0.323145 0.341311 0.082471
0.333699 0.343381 0.083694
0.344473 0.345543 0.084976
0.355523 0.347817 0.086349
0.366828 0.350199 0.087817
0.378276 0.352661 0.089165
0.389916 0.355228 0.090507
0.401736 0.357893 0.091922
0.413701 0.360653 0.093413
0.425806 0.363513 0.094987
0.438029 0.366457 0.096623
0.450384 0.369496 0.098326
0.462890 0.372634 0.100092
0.475576 0.375869 0.101913
0.488346 0.379185 0.103775
0.501170 0.382578 0.105668
0.516992 0.386846 0.108027
0.534081 0.391568 0.110622
0.550324 0.396137 0.113127
0.567873 0.401160 0.115874
0.586704 0.406669 0.118879
0.606755 0.412656 0.122139
0.628494 0.419275 0.125734
0.652868 0.426701 0.129748
0.678654 0.434972 0.134199
0.702339 0.444337 0.139216
0.727190 0.455194 0.145001
0.755948 0.467681 0.151609
0.786952 0.482789 0.159520
0.819975 0.501102 0.169020
0.855326 0.523636 0.180692
0.214241 0.340508 0.078471
0.218975 0.341149 0.078851
0.223639 0.341791 0.079232
0.228236 0.342432 0.079615
0.232754 0.343073 0.079999
0.237576 0.343769 0.080418
0.242949 0.344559 0.080895
0.248875 0.345449 0.081436
0.255287 0.346429 0.082037
0.262219 0.347513 0.082704
0.269602 0.348691 0.083433
0.277362 0.349954 0.084222
0.285640 0.351334 0.085042
0.294320 0.352811 0.085876
0.303319 0.354377 0.086769
0.312711 0.356053 0.087735
0.322388 0.357819 0.088767
0.332381 0.359687 0.089868
0.342669 0.361657 0.090954
0.353178 0.363715 0.092067
0.363979 0.365883 0.093254
0.375045 0.368155 0.094512
0.386257 0.370505 0.095827
0.397666 0.372957 0.097212
