Switch.app/Contents/aces.cube
LUT_3D_SIZE 8
DOMAIN_MIN 0.000000 0.000000 0.000000
DOMAIN_MAX 0.893617 0.893617 0.893617
0.000009 0.000009 0.000009
0.059270 0.012093 0.002358
0.145771 0.032615 0.006344
0.234011 0.064551 0.012563
0.322152 0.106861 0.021172
0.410403 0.150044 0.032301
0.514633 0.200940 0.048849
0.666230 0.274734 0.079736
0.051787 0.107661 0.014675
0.108703 0.117618 0.017025
0.178642 0.133359 0.021013
0.257467 0.155566 0.027232
0.340075 0.182779 0.035848
0.424694 0.213876 0.046972
0.526087 0.254210 0.063459
0.674798 0.316919 0.093913
0.131282 0.224077 0.039586
0.171009 0.229973 0.041936
0.225691 0.239679 0.045919
0.293419 0.254107 0.052120
0.368597 0.272943 0.060693
0.447923 0.295715 0.071817
0.544974 0.326927 0.088709
0.687998 0.378533 0.115421
0.214241 0.340508 0.078471
0.242949 0.344559 0.080895
0.285640 0.351334 0.085042
0.342669 0.361657 0.090954
0.409254 0.375504 0.098658
0.481963 0.392704 0.108391
0.573209 0.416960 0.121826
0.705547 0.458661 0.144485
0.297244 0.456901 0.125619
0.319181 0.459943 0.127412
0.353494 0.465065 0.130416
0.401430 0.472946 0.135007
0.459608 0.483650 0.141185
0.525427 0.497142 0.148887
0.609997 0.516523 0.159805
0.728129 0.550685 0.178691
0.380292 0.573402 0.172626
0.397878 0.575822 0.174043
0.426037 0.579905 0.176431
0.466593 0.586212 0.180108
0.517580 0.594818 0.185107
0.576668 0.605735 0.191415
0.655026 0.621598 0.200490
0.756883 0.650583 0.216539
0.478324 0.705382 0.228316
0.492444 0.706817 0.229454
0.515492 0.709239 0.231375
0.549418 0.712999 0.234342
0.593167 0.718216 0.238387
0.645342 0.725075 0.243514
0.708294 0.735362 0.250957
0.793534 0.753945 0.264311
0.620351 0.844114 0.308731
0.631262 0.844944 0.309597
0.649560 0.846344 0.311064
0.676573 0.848502 0.313339
0.705899 0.851443 0.316462
0.739419 0.855167 0.320456
0.784330 0.860548 0.326312
0.846925 0.870081 0.336950
0.023819 0.012914 0.114286
0.083259 0.025002 0.116193
0.161535 0.045528 0.119383
0.245057 0.077557 0.124251
0.330505 0.117518 0.130788
0.417034 0.158562 0.138912
0.519933 0.207772 0.150394
0.670233 0.279979 0.170101
0.075614 0.118274 0.125876
0.127704 0.127676 0.127667
0.192301 0.142629 0.130668
0.267626 0.163852 0.135254
0.348021 0.190154 0.141426
0.431110 0.220407 0.149121
0.531267 0.259821 0.160031
0.678553 0.321542 0.178905
0.148223 0.230369 0.144040
0.185094 0.236123 0.145669
0.237109 0.245595 0.148402
0.302504 0.259720 0.152588
0.375971 0.278220 0.158238
0.454009 0.300637 0.165307
0.549984 0.331419 0.175410
0.691259 0.382447 0.193152
0.226156 0.344833 0.169346
0.253624 0.348836 0.170781
0.294941 0.355533 0.173199
0.350558 0.365744 0.176924
0.415904 0.379450 0.181989
0.487640 0.396480 0.188381
0.577967 0.420512 0.197577
0.708400 0.461897 0.213801
0.306226 0.460149 0.200231
0.327606 0.463172 0.201493
0.361157 0.468260 0.203620
0.408211 0.476090 0.206902
0.465550 0.486725 0.211379
0.530615 0.500132 0.217065
0.614442 0.519393 0.225320
0.730995 0.553378 0.240005
0.387449 0.575986 0.235260
0.404723 0.578395 0.236367
0.432434 0.582459 0.238233
0.472452 0.588736 0.241116
0.522847 0.597299 0.245051
0.581397 0.608167 0.250050
0.659312 0.623969 0.257326
0.759516 0.652935 0.270402
0.484044 0.706914 0.280101
0.497999 0.708343 0.281046
0.520782 0.710757 0.282644
0.554388 0.714515 0.285121
0.597749 0.719748 0.288521
0.649719 0.726635 0.292861
0.711096 0.736913 0.299212
0.795701 0.755402 0.310712
0.624750 0.845000 0.349736
0.635599 0.845826 0.350506
0.653869 0.847218 0.351811
0.680265 0.849365 0.353837
0.708743 0.852291 0.356623
0.742245 0.855995 0.360194
0.786602 0.861348 0.365445
0.848529 0.870833 0.375029
0.064184 0.034832 0.234469
0.118879 0.046918 0.235580
0.185878 0.067374 0.237454
0.262818 0.098531 0.240348
0.344249 0.134285 0.244300
0.428058 0.172228 0.249319
0.528800 0.219000 0.256618
0.676775 0.288695 0.269727
0.112813 0.134981 0.241324
0.156118 0.143603 0.242404
0.213833 0.157410 0.244228
0.284131 0.177220 0.247046
0.361124 0.202160 0.250898
0.441789 0.231151 0.255797
0.539949 0.269109 0.262935
0.684628 0.329249 0.275778
0.173995 0.240704 0.252551
0.207240 0.246226 0.253586
0.255372 0.255344 0.255335
0.317382 0.269014 0.258042
0.388177 0.286981 0.261748
0.464166 0.308829 0.266473
0.558385 0.338916 0.273365
0.696549 0.389002 0.285790
0.245196 0.352058 0.269213
0.270884 0.355983 0.270192
0.310150 0.362554 0.271846
0.363575 0.372584 0.274409
0.426957 0.386056 0.277921
0.497126 0.402804 0.282404
0.585950 0.426476 0.288961
0.713197 0.467343 0.300818
0.320944 0.465615 0.290879
0.341459 0.468604 0.291794
0.373829 0.473636 0.293341
0.419465 0.481381 0.295739
0.475475 0.491901 0.299030
0.539308 0.505165 0.303236
0.621916 0.524225 0.309394
0.735849 0.557920 0.320559
0.399307 0.580344 0.316917
0.416071 0.582733 0.317763
0.443080 0.586766 0.319195
0.482239 0.592990 0.321415
0.531666 0.601484 0.324465
0.589329 0.612272 0.328368
0.666405 0.627974 0.334094
0.763896 0.656898 0.344506
0.493600 0.709500 0.352323
0.507284 0.710921 0.353088
0.529635 0.713331 0.354383
0.562722 0.717096 0.356396
0.605437 0.722370 0.359163
0.657073 0.729286 0.362710
0.715846 0.739536 0.367928
0.799324 0.757847 0.377452
0.632163 0.846494 0.410404
0.642930 0.847312 0.411063
0.661065 0.848691 0.412180
0.686218 0.850819 0.413915
0.713531 0.853718 0.416304
0.746989 0.857390 0.419373
0.790398 0.862696 0.423897
0.851214 0.872099 0.432188
0.121824 0.068938 0.354592
0.163327 0.081238 0.355353
0.219529 0.100479 0.356642
0.288575 0.126725 0.358642
0.364690 0.157801 0.361395
0.444712 0.192095 0.364922
0.542340 0.235649 0.370111
0.686246 0.301839 0.379583
0.158543 0.158422 0.359319
0.193869 0.166080 0.360071
0.244289 0.178506 0.361344
0.308305 0.196691 0.363320
0.380711 0.219821 0.366039
0.457940 0.247025 0.369525
0.553230 0.283049 0.374653
0.693328 0.340942 0.384017
0.209188 0.256027 0.367212
0.238426 0.261252 0.367948
0.281730 0.269920 0.369195
0.339365 0.282963 0.371132
0.406479 0.300194 0.373797
0.479601 0.321219 0.377215
0.571233 0.350301 0.382244
0.704362 0.399011 0.391429
0.272430 0.363051 0.379209
0.296020 0.366865 0.379923
0.332582 0.373256 0.381132
0.383042 0.383018 0.383011
0.443653 0.396140 0.385596
0.511550 0.412468 0.388913
0.598162 0.435616 0.393794
0.720648 0.475716 0.402712
0.342712 0.474017 0.395229
0.362049 0.476955 0.395914
0.392802 0.481902 0.397075
0.436445 0.489517 0.398878
0.490559 0.499863 0.401360
0.552604 0.512905 0.404545
0.633417 0.531672 0.409235
0.743341 0.564929 0.417814
0.417103 0.587072 0.415004
0.433181 0.589431 0.415656
0.459187 0.593410 0.416760
0.497115 0.599555 0.418477
0.545140 0.607948 0.420840
0.601461 0.618619 0.423877
0.676829 0.634187 0.428356
0.770493 0.662966 0.436563
0.508132 0.713514 0.442782
0.521400 0.714935 0.443393
0.543156 0.717353 0.444429
0.575469 0.721156 0.446039
0.617223 0.726494 0.448258
0.668137 0.733414 0.451111
0.723353 0.743595 0.455322
0.804837 0.761589 0.463058
0.643610 0.848796 0.490339
0.654373 0.849602 0.490893
0.671793 0.850962 0.491830
0.694749 0.853060 0.493289
0.720990 0.855920 0.495302
0.754216 0.859541 0.497891
0.796174 0.864775 0.501715
0.855314 0.874053 0.508747
0.180294 0.113047 0.474713
0.212736 0.122709 0.475285
0.259968 0.138039 0.476253
0.321174 0.159739 0.477760
0.391312 0.186476 0.479839
0.466793 0.217137 0.482512
0.560564 0.257006 0.486461
0.697893 0.319219 0.493721
0.208854 0.187032 0.478271
0.238127 0.193822 0.478839
0.281470 0.204912 0.479800
0.339145 0.221324 0.481297
0.406294 0.242507 0.483360
0.479442 0.267566 0.486014
0.571101 0.301411 0.489934
0.704282 0.356521 0.497142
0.251122 0.275977 0.484252
0.276317 0.280873 0.484813
0.314974 0.289020 0.485763
0.367734 0.301332 0.487240
0.430507 0.317657 0.489278
0.500183 0.337665 0.491899
0.588531 0.365501 0.495772
0.714755 0.412452 0.502893
0.306578 0.377770 0.493433
0.327936 0.381443 0.493983
0.361458 0.387601 0.494915
0.408477 0.397015 0.496365
0.465782 0.409679 0.498364
0.530818 0.425478 0.500937
0.614616 0.447960 0.504737
0.731108 0.487073 0.511722
0.370837 0.485414 0.505857
0.388846 0.488284 0.506392
0.417628 0.493117 0.507300
0.458914 0.500557 0.508712
0.510683 0.510665 0.510659
0.570495 0.523416 0.513165
0.649408 0.541814 0.516867
0.753427 0.574484 0.523678
0.440558 0.596241 0.521442
0.455809 0.598558 0.521960
0.480636 0.602469 0.522839
0.516965 0.608513 0.524206
0.563273 0.616777 0.526092
0.617824 0.627302 0.528520
0.689589 0.642863 0.532111
0.779264 0.671046 0.538728
0.527531 0.719093 0.543771
0.540307 0.720532 0.544268
0.561353 0.722994 0.545112
0.592633 0.726858 0.546424
0.633196 0.732213 0.548235
0.682091 0.739096 0.550568
0.733899 0.749128 0.554020
0.812204 0.766619 0.560383
0.659362 0.851929 0.583035
0.669576 0.852721 0.583498
0.685267 0.854054 0.584283
0.705568 0.856113 0.585505
0.731467 0.858918 0.587191
0.763809 0.862470 0.589362
0.803888 0.867607 0.592575
0.860820 0.876714 0.598499
0.238922 0.157510 0.594961
0.265153 0.165194 0.595413
0.305072 0.177662 0.596180
0.359209 0.195909 0.597374
0.423237 0.219098 0.599022
0.493926 0.246376 0.601144
0.583252 0.282469 0.604287
0.711572 0.340452 0.610084
0.261961 0.219592 0.597778
0.286307 0.225592 0.598229
0.323879 0.235467 0.598991
0.375452 0.250112 0.600179
0.437119 0.269192 0.601819
0.505891 0.292216 0.603930
0.593360 0.323736 0.607057
0.717691 0.375754 0.612827
0.297424 0.300021 0.602528
0.319348 0.304574 0.602974
0.353643 0.312162 0.603730
0.401559 0.323665 0.604907
0.459719 0.338984 0.606533
0.525524 0.357858 0.608627
0.610079 0.384305 0.611728
0.728179 0.429194 0.617454
0.346138 0.396006 0.609854
0.365302 0.399512 0.610294
0.395809 0.405393 0.611041
0.439150 0.414390 0.612203
0.492972 0.426531 0.613809
0.554739 0.441736 0.615877
0.635281 0.463434 0.618941
0.744547 0.501367 0.624604
0.404405 0.499757 0.619847
0.420961 0.502542 0.620281
0.447677 0.507232 0.621015
0.486479 0.514452 0.622159
0.535497 0.524270 0.623740
0.592779 0.536687 0.625777
0.669429 0.554657 0.628797
0.765784 0.586591 0.634395
0.469156 0.607862 0.632545
0.483544 0.610130 0.632973
0.507020 0.613963 0.633699
0.541485 0.619891 0.634834
0.585852 0.628011 0.636409
0.638445 0.638449 0.638450
0.703831 0.654054 0.641492
0.790064 0.680748 0.647148
0.551589 0.726439 0.651486
0.563834 0.727900 0.651915
0.584009 0.730382 0.652641
0.614021 0.734245 0.653771
0.653851 0.739560 0.655330
0.697363 0.746332 0.657334
0.747312 0.756093 0.660288
0.821311 0.772917 0.665677
0.678207 0.855891 0.683648
0.686997 0.856663 0.683989
0.700193 0.857964 0.684565
0.718941 0.859972 0.685455
0.744909 0.862709 0.686672
0.775455 0.866175 0.688220
0.813405 0.871189 0.690472
0.867658 0.880083 0.694520
0.307982 0.209936 0.725040
0.329251 0.216136 0.725324
0.362655 0.226369 0.725806
0.409537 0.241551 0.726558
0.466711 0.261183 0.727598
0.531629 0.284775 0.728944
0.615311 0.316974 0.730945
0.731555 0.369891 0.734661
0.326630 0.261607 0.726813
0.346826 0.266736 0.727097
0.378757 0.275243 0.727579
0.423855 0.288074 0.728331
0.479363 0.305042 0.729373
0.542722 0.325774 0.730718
0.624860 0.354497 0.732717
0.737767 0.402712 0.736425
0.356174 0.332854 0.729824
0.374857 0.336993 0.730108
0.404651 0.343910 0.730590
0.447128 0.354436 0.731342
0.500107 0.368536 0.732382
0.561069 0.386038 0.733725
0.640883 0.410696 0.735718
0.748123 0.452964 0.739408
0.398080 0.421650 0.734513
0.414895 0.424941 0.734795
0.441975 0.430473 0.735275
0.481221 0.438960 0.736024
0.530747 0.450442 0.737058
0.588502 0.464873 0.738391
0.665674 0.485580 0.740367
0.763442 0.521855 0.744018
0.449682 0.520313 0.740951
0.464643 0.522980 0.741231
0.489037 0.527475 0.741705
0.524750 0.534409 0.742443
0.570429 0.543865 0.743461
0.624311 0.555857 0.744773
0.694239 0.573222 0.746714
0.782702 0.604096 0.750287
0.508792 0.624731 0.749114
0.522042 0.626940 0.749386
0.543773 0.630675 0.749847
0.576051 0.636504 0.750563
0.617763 0.644640 0.751551
0.668628 0.655102 0.752822
0.723709 0.670007 0.754698
0.805087 0.693446 0.758137
0.585542 0.737412 0.760740
0.597047 0.738859 0.760995
0.616024 0.741306 0.761428
0.644770 0.745089 0.762100
0.682042 0.750245 0.763025
0.717388 0.756739 0.764212
0.765964 0.765960 0.765959
0.834043 0.781945 0.769164
0.701156 0.861604 0.780478
0.708306 0.862349 0.780708
0.720217 0.863603 0.781097
0.739050 0.865539 0.781702
0.763774 0.868179 0.782538
0.791607 0.871524 0.783612
0.826701 0.876362 0.785200
0.877281 0.884951 0.788118
0.408115 0.285932 0.861710
0.424529 0.290683 0.861855
0.451038 0.298591 0.862101
0.489584 0.310558 0.862482
0.538311 0.326453 0.863010
0.595312 0.345982 0.863689
0.671592 0.373226 0.864692
0.767161 0.419310 0.866543
0.422486 0.326804 0.862612
0.438371 0.331012 0.862756
0.464095 0.338046 0.863000
0.501656 0.348743 0.863380
0.549277 0.363050 0.863904
0.605190 0.380795 0.864578
0.679840 0.405778 0.865577
0.772499 0.448509 0.867416
0.445832 0.386919 0.864130
0.460914 0.390508 0.864273
0.485491 0.396525 0.864515
0.521465 0.405727 0.864891
0.567409 0.418118 0.865409
0.621575 0.433614 0.866078
0.692276 0.455693 0.867066
0.781251 0.494211 0.868887
0.480016 0.465610 0.866469
0.494089 0.468598 0.866609
0.517059 0.473630 0.866847
0.550893 0.481376 0.867218
0.594528 0.491896 0.867728
0.646649 0.505160 0.868387
0.709133 0.524221 0.869360
0.794176 0.557915 0.871154
0.523654 0.556473 0.869647
0.536525 0.558969 0.869785
0.557710 0.563181 0.870018
0.589196 0.569683 0.870380
0.629999 0.578559 0.870881
0.679357 0.589818 0.871525
0.731771 0.606129 0.872478
0.810732 0.635363 0.874235
0.575055 0.655637 0.873657
0.586789 0.657811 0.873791
0.606126 0.661460 0.874018
0.635100 0.667021 0.874371
0.673740 0.674389 0.874858
0.711170 0.683202 0.875485
0.760288 0.694835 0.876413
0.830125 0.713973 0.878123
0.643860 0.757069 0.879426
0.654710 0.758409 0.879554
0.672224 0.760659 0.879772
0.695011 0.764102 0.880111
0.721106 0.768744 0.880579
0.754416 0.774588 0.881181
0.796318 0.782985 0.882073
0.855413 0.797713 0.883717
0.738457 0.871696 0.889569
0.745468 0.872392 0.889689
0.756969 0.873565 0.889892
0.773594 0.875377 0.890207
0.794456 0.877848 0.890643
0.818426 0.880980 0.891204
0.848979 0.885516 0.892034
0.893625 0.893579 0.893565
