Switch.app/Contents/aces.cube
LUT_3D_SIZE 5
DOMAIN_MIN 0.000000 0.000000 0.000000
DOMAIN_MAX 0.851064 0.851064 0.851064
0.000009 0.000009 0.000009
0.116383 0.024562 0.004780
0.263365 0.078003 0.015158
0.410403 0.150044 0.032301
0.606847 0.246112 0.066628
0.103612 0.185292 0.029806
0.186717 0.198981 0.034583
0.305204 0.226430 0.044965
0.438956 0.266306 0.062043
0.626378 0.333360 0.095879
0.241998 0.379332 0.094185
0.292587 0.386730 0.098483
0.381670 0.402348 0.107599
0.495491 0.426864 0.121553
0.667542 0.472255 0.146733
0.380292 0.573402 0.172626
0.415218 0.578307 0.175496
0.482543 0.588822 0.181626
0.576668 0.605735 0.191415
0.718396 0.638358 0.209900
0.565109 0.796382 0.277436
0.589110 0.798583 0.279369
0.638140 0.803284 0.283534
0.705330 0.810797 0.290299
0.799483 0.824989 0.303463
0.048379 0.026229 0.194403
0.151807 0.050775 0.197023
0.283278 0.102773 0.202627
0.423765 0.166965 0.211623
0.615898 0.257715 0.228822
0.141340 0.199883 0.210331
0.212835 0.212805 0.212795
0.322795 0.238936 0.218079
0.451479 0.277157 0.226589
0.635268 0.342266 0.242853
0.263347 0.387227 0.241991
0.310834 0.394477 0.244174
0.396025 0.409794 0.248860
0.506638 0.433889 0.256428
0.675467 0.478630 0.271041
0.394697 0.578638 0.287345
0.428432 0.583496 0.289221
0.493993 0.593908 0.293263
0.586231 0.610664 0.299832
0.724167 0.643175 0.312630
0.574877 0.798731 0.362873
0.598453 0.800906 0.364385
0.646961 0.805550 0.367651
0.711089 0.812972 0.372987
0.803725 0.827000 0.383475
0.141356 0.083489 0.394668
0.212836 0.105932 0.396061
0.322793 0.146679 0.399073
0.451477 0.199911 0.403999
0.635266 0.281480 0.413694
0.204898 0.229006 0.403285
0.262009 0.240616 0.404648
0.358239 0.264216 0.407595
0.477622 0.299559 0.412413
0.654386 0.360904 0.421913
0.305187 0.403863 0.421399
0.347439 0.410813 0.422702
0.425543 0.425528 0.425523
0.530006 0.448786 0.430141
0.690872 0.492208 0.439264
0.424306 0.589853 0.449727
0.455861 0.594607 0.450949
0.517978 0.604802 0.453595
0.606442 0.621248 0.457932
0.736804 0.653613 0.466519
0.595522 0.803743 0.501839
0.618238 0.805861 0.502936
0.665706 0.810383 0.505312
0.723595 0.817615 0.509211
0.812626 0.831294 0.516935
0.238922 0.157510 0.594961
0.289987 0.172843 0.595880
0.379643 0.203117 0.597871
0.493926 0.246376 0.601144
0.666410 0.317253 0.607653
0.283970 0.271022 0.600669
0.328760 0.281044 0.601578
0.410365 0.301825 0.603549
0.517916 0.333549 0.606789
0.683124 0.389834 0.613234
0.364643 0.429900 0.612883
0.400940 0.436438 0.613773
0.470277 0.450322 0.615703
0.566490 0.472384 0.618877
0.712390 0.513819 0.625199
0.469156 0.607862 0.632545
0.497945 0.612462 0.633413
0.555242 0.622349 0.635308
0.638445 0.638449 0.638450
0.756957 0.670135 0.644771
0.628032 0.811736 0.671036
0.650048 0.813763 0.671826
0.692137 0.818095 0.673526
0.744388 0.825030 0.676276
0.826437 0.838156 0.681565
0.369164 0.256441 0.815734
0.405063 0.266947 0.816121
0.473814 0.288623 0.816960
0.569422 0.321551 0.818338
0.714115 0.379538 0.821070
0.400696 0.341281 0.818138
0.433969 0.349446 0.818520
0.498816 0.366601 0.819349
0.590279 0.393373 0.820709
0.726664 0.442189 0.823405
0.461859 0.477922 0.823259
0.491073 0.483825 0.823630
0.549110 0.496416 0.824435
0.633101 0.516505 0.825757
0.753659 0.554530 0.828377
0.548152 0.642638 0.831401
0.572898 0.647148 0.831756
0.623098 0.656866 0.832524
0.695265 0.672128 0.833785
0.792079 0.697445 0.836286
0.687490 0.826777 0.846641
0.703052 0.828641 0.846964
0.734374 0.832627 0.847665
0.781684 0.839011 0.848816
0.851176 0.851118 0.851100
