Switch.app/Contents/lin_cineon.cube
TITLE "Custom LUT"
LUT_1D_SIZE 16384
# Scene Linear IRE - γ1.0 (18% Gray = 0.2) -> Cineon, CineEI Shift 0.00, Black Level 3.54% IRE, Input 100% -> Output 109% - Created with LUTCalc v3.1.2 by Ben Turley September 2017
0.092864 0.092864 0.092864
0.093503 0.093503 0.093503
0.094140 0.094140 0.094140
0.094773 0.094773 0.094773
0.095402 0.095402 0.095402
0.096029 0.096029 0.096029
0.096653 0.096653 0.096653
0.097274 0.097274 0.097274
0.097891 0.097891 0.097891
0.098506 0.098506 0.098506
0.099118 0.099118 0.099118
0.099726 0.099726 0.099726
0.100332 0.100332 0.100332
0.100935 0.100935 0.100935
0.101536 0.101536 0.101536
0.102133 0.102133 0.102133
0.102727 0.102727 0.102727
0.103319 0.103319 0.103319
0.103908 0.103908 0.103908
0.104495 0.104495 0.104495
0.105078 0.105078 0.105078
0.105659 0.105659 0.105659
0.106238 0.106238 0.106238
0.106814 0.106814 0.106814
0.107387 0.107387 0.107387
0.107957 0.107957 0.107957
0.108525 0.108525 0.108525
0.109091 0.109091 0.109091
0.109654 0.109654 0.109654
0.110215 0.110215 0.110215
0.110773 0.110773 0.110773
0.111328 0.111328 0.111328
0.111882 0.111882 0.111882
0.112432 0.112432 0.112432
0.112981 0.112981 0.112981
0.113527 0.113527 0.113527
0.114071 0.114071 0.114071
0.114612 0.114612 0.114612
0.115152 0.115152 0.115152
0.115688 0.115688 0.115688
0.116223 0.116223 0.116223
0.116756 0.116756 0.116756
0.117286 0.117286 0.117286
0.117814 0.117814 0.117814
0.118340 0.118340 0.118340
0.118863 0.118863 0.118863
0.119385 0.119385 0.119385
0.119904 0.119904 0.119904
0.120422 0.120422 0.120422
0.120937 0.120937 0.120937
0.121450 0.121450 0.121450
0.121961 0.121961 0.121961
0.122470 0.122470 0.122470
0.122977 0.122977 0.122977
0.123482 0.123482 0.123482
0.123985 0.123985 0.123985
0.124486 0.124486 0.124486
0.124985 0.124985 0.124985
0.125482 0.125482 0.125482
0.125977 0.125977 0.125977
0.126471 0.126471 0.126471
0.126962 0.126962 0.126962
0.127451 0.127451 0.127451
0.127939 0.127939 0.127939
0.128425 0.128425 0.128425
0.128909 0.128909 0.128909
0.129391 0.129391 0.129391
0.129871 0.129871 0.129871
0.130349 0.130349 0.130349
0.130826 0.130826 0.130826
0.131301 0.131301 0.131301
0.131774 0.131774 0.131774
0.132245 0.132245 0.132245
0.132715 0.132715 0.132715
0.133183 0.133183 0.133183
0.133649 0.133649 0.133649
0.134114 0.134114 0.134114
0.134576 0.134576 0.134576
0.135037 0.135037 0.135037
0.135497 0.135497 0.135497
0.135955 0.135955 0.135955
0.136411 0.136411 0.136411
0.136865 0.136865 0.136865
0.137318 0.137318 0.137318
0.137770 0.137770 0.137770
0.138219 0.138219 0.138219
0.138667 0.138667 0.138667
0.139114 0.139114 0.139114
0.139559 0.139559 0.139559
0.140002 0.140002 0.140002
0.140444 0.140444 0.140444
0.140885 0.140885 0.140885
0.141324 0.141324 0.141324
0.141761 0.141761 0.141761
0.142197 0.142197 0.142197
0.142631 0.142631 0.142631
0.143064 0.143064 0.143064
0.143496 0.143496 0.143496
0.143925 0.143925 0.143925
0.144354 0.144354 0.144354
0.144781 0.144781 0.144781
0.145207 0.145207 0.145207
0.145631 0.145631 0.145631
0.146054 0.146054 0.146054
0.146475 0.146475 0.146475
0.146895 0.146895 0.146895
0.147314 0.147314 0.147314
0.147731 0.147731 0.147731
0.148147 0.148147 0.148147
0.148562 0.148562 0.148562
0.148975 0.148975 0.148975
0.149387 0.149387 0.149387
0.149798 0.149798 0.149798
0.150207 0.150207 0.150207
0.150615 0.150615 0.150615
0.151021 0.151021 0.151021
0.151427 0.151427 0.151427
0.151831 0.151831 0.151831
0.152234 0.152234 0.152234
0.152635 0.152635 0.152635
0.153035 0.153035 0.153035
0.153434 0.153434 0.153434
0.153832 0.153832 0.153832
0.154229 0.154229 0.154229
0.154624 0.154624 0.154624
0.155018 0.155018 0.155018
0.155411 0.155411 0.155411
0.155802 0.155802 0.155802
0.156193 0.156193 0.156193
0.156582 0.156582 0.156582
0.156970 0.156970 0.156970
0.157357 0.157357 0.157357
0.157743 0.157743 0.157743
0.158127 0.158127 0.158127
0.158511 0.158511 0.158511
0.158893 0.158893 0.158893
0.159274 0.159274 0.159274
0.159654 0.159654 0.159654
0.160033 0.160033 0.160033
0.160410 0.160410 0.160410
0.160787 0.160787 0.160787
0.161162 0.161162 0.161162
0.161537 0.161537 0.161537
0.161910 0.161910 0.161910
0.162282 0.162282 0.162282
0.162653 0.162653 0.162653
0.163023 0.163023 0.163023
0.163392 0.163392 0.163392
0.163760 0.163760 0.163760
0.164127 0.164127 0.164127
0.164493 0.164493 0.164493
0.164857 0.164857 0.164857
0.165221 0.165221 0.165221
0.165584 0.165584 0.165584
0.165945 0.165945 0.165945
0.166306 0.166306 0.166306
0.166666 0.166666 0.166666
0.167024 0.167024 0.167024
0.167382 0.167382 0.167382
0.167738 0.167738 0.167738
0.168094 0.168094 0.168094
0.168448 0.168448 0.168448
0.168802 0.168802 0.168802
0.169154 0.169154 0.169154
0.169506 0.169506 0.169506
0.169857 0.169857 0.169857
0.170206 0.170206 0.170206
0.170555 0.170555 0.170555
0.170903 0.170903 0.170903
0.171250 0.171250 0.171250
0.171596 0.171596 0.171596
0.171941 0.171941 0.171941
0.172285 0.172285 0.172285
0.172628 0.172628 0.172628
0.172970 0.172970 0.172970
0.173311 0.173311 0.173311
0.173652 0.173652 0.173652
0.173991 0.173991 0.173991
0.174330 0.174330 0.174330
0.174667 0.174667 0.174667
0.175004 0.175004 0.175004
0.175340 0.175340 0.175340
0.175675 0.175675 0.175675
0.176009 0.176009 0.176009
0.176342 0.176342 0.176342
0.176674 0.176674 0.176674
0.177006 0.177006 0.177006
0.177337 0.177337 0.177337
0.177666 0.177666 0.177666
0.177995 0.177995 0.177995
0.178323 0.178323 0.178323
0.178651 0.178651 0.178651
0.178977 0.178977 0.178977
0.179303 0.179303 0.179303
0.179627 0.179627 0.179627
0.179951 0.179951 0.179951
0.180274 0.180274 0.180274
0.180597 0.180597 0.180597
0.180918 0.180918 0.180918
0.181239 0.181239 0.181239
0.181558 0.181558 0.181558
0.181878 0.181878 0.181878
0.182196 0.182196 0.182196
0.182513 0.182513 0.182513
0.182830 0.182830 0.182830
0.183146 0.183146 0.183146
0.183461 0.183461 0.183461
0.183775 0.183775 0.183775
0.184089 0.184089 0.184089
0.184401 0.184401 0.184401
0.184713 0.184713 0.184713
0.185025 0.185025 0.185025
0.185335 0.185335 0.185335
0.185645 0.185645 0.185645
0.185954 0.185954 0.185954
0.186262 0.186262 0.186262
0.186570 0.186570 0.186570
0.186876 0.186876 0.186876
0.187182 0.187182 0.187182
0.187488 0.187488 0.187488
0.187792 0.187792 0.187792
0.188096 0.188096 0.188096
0.188399 0.188399 0.188399
0.188701 0.188701 0.188701
0.189003 0.189003 0.189003
0.189304 0.189304 0.189304
0.189604 0.189604 0.189604
0.189904 0.189904 0.189904
0.190203 0.190203 0.190203
0.190501 0.190501 0.190501
0.190798 0.190798 0.190798
0.191095 0.191095 0.191095
0.191391 0.191391 0.191391
0.191686 0.191686 0.191686
0.191981 0.191981 0.191981
0.192275 0.192275 0.192275
0.192568 0.192568 0.192568
0.192861 0.192861 0.192861
0.193153 0.193153 0.193153
0.193444 0.193444 0.193444
0.193735 0.193735 0.193735
0.194025 0.194025 0.194025
0.194314 0.194314 0.194314
0.194603 0.194603 0.194603
0.194891 0.194891 0.194891
0.195178 0.195178 0.195178
0.195465 0.195465 0.195465
0.195751 0.195751 0.195751
0.196036 0.196036 0.196036
0.196321 0.196321 0.196321
0.196605 0.196605 0.196605
0.196889 0.196889 0.196889
0.197172 0.197172 0.197172
0.197454 0.197454 0.197454
0.197736 0.197736 0.197736
0.198017 0.198017 0.198017
0.198297 0.198297 0.198297
0.198577 0.198577 0.198577
0.198856 0.198856 0.198856
0.199135 0.199135 0.199135
0.199413 0.199413 0.199413
0.199690 0.199690 0.199690
0.199967 0.199967 0.199967
0.200243 0.200243 0.200243
0.200518 0.200518 0.200518
0.200793 0.200793 0.200793
0.201068 0.201068 0.201068
0.201341 0.201341 0.201341
0.201615 0.201615 0.201615
0.201887 0.201887 0.201887
0.202159 0.202159 0.202159
0.202431 0.202431 0.202431
0.202702 0.202702 0.202702
0.202972 0.202972 0.202972
0.203242 0.203242 0.203242
0.203511 0.203511 0.203511
0.203779 0.203779 0.203779
0.204047 0.204047 0.204047
0.204315 0.204315 0.204315
0.204582 0.204582 0.204582
0.204848 0.204848 0.204848
0.205114 0.205114 0.205114
0.205379 0.205379 0.205379
0.205644 0.205644 0.205644
0.205908 0.205908 0.205908
0.206171 0.206171 0.206171
0.206434 0.206434 0.206434
0.206697 0.206697 0.206697
0.206959 0.206959 0.206959
0.207220 0.207220 0.207220
0.207481 0.207481 0.207481
0.207741 0.207741 0.207741
0.208001 0.208001 0.208001
0.208260 0.208260 0.208260
0.208519 0.208519 0.208519
0.208777 0.208777 0.208777
0.209035 0.209035 0.209035
0.209292 0.209292 0.209292
0.209549 0.209549 0.209549
0.209805 0.209805 0.209805
0.210061 0.210061 0.210061
0.210316 0.210316 0.210316
0.210571 0.210571 0.210571
0.210825 0.210825 0.210825
0.211078 0.211078 0.211078
0.211331 0.211331 0.211331
0.211584 0.211584 0.211584
0.211836 0.211836 0.211836
0.212088 0.212088 0.212088
0.212339 0.212339 0.212339
0.212589 0.212589 0.212589
0.212839 0.212839 0.212839
0.213089 0.213089 0.213089
0.213338 0.213338 0.213338
0.213587 0.213587 0.213587
0.213835 0.213835 0.213835
0.214083 0.214083 0.214083
0.214330 0.214330 0.214330
0.214577 0.214577 0.214577
0.214823 0.214823 0.214823
0.215069 0.215069 0.215069
0.215314 0.215314 0.215314
0.215559 0.215559 0.215559
0.215803 0.215803 0.215803
0.216047 0.216047 0.216047
0.216290 0.216290 0.216290
0.216533 0.216533 0.216533
0.216776 0.216776 0.216776
0.217018 0.217018 0.217018
0.217260 0.217260 0.217260
0.217501 0.217501 0.217501
0.217741 0.217741 0.217741
0.217982 0.217982 0.217982
0.218221 0.218221 0.218221
0.218461 0.218461 0.218461
0.218699 0.218699 0.218699
0.218938 0.218938 0.218938
0.219176 0.219176 0.219176
0.219413 0.219413 0.219413
0.219650 0.219650 0.219650
0.219887 0.219887 0.219887
0.220123 0.220123 0.220123
0.220359 0.220359 0.220359
0.220594 0.220594 0.220594
0.220829 0.220829 0.220829
0.221064 0.221064 0.221064
0.221298 0.221298 0.221298
0.221531 0.221531 0.221531
0.221765 0.221765 0.221765
0.221997 0.221997 0.221997
0.222230 0.222230 0.222230
0.222461 0.222461 0.222461
0.222693 0.222693 0.222693
0.222924 0.222924 0.222924
0.223155 0.223155 0.223155
0.223385 0.223385 0.223385
0.223615 0.223615 0.223615
0.223844 0.223844 0.223844
0.224073 0.224073 0.224073
0.224302 0.224302 0.224302
0.224530 0.224530 0.224530
0.224758 0.224758 0.224758
0.224985 0.224985 0.224985
0.225212 0.225212 0.225212
0.225438 0.225438 0.225438
0.225665 0.225665 0.225665
0.225890 0.225890 0.225890
0.226116 0.226116 0.226116
0.226341 0.226341 0.226341
0.226565 0.226565 0.226565
0.226789 0.226789 0.226789
0.227013 0.227013 0.227013
0.227236 0.227236 0.227236
0.227459 0.227459 0.227459
0.227682 0.227682 0.227682
0.227904 0.227904 0.227904
0.228126 0.228126 0.228126
0.228347 0.228347 0.228347
0.228568 0.228568 0.228568
0.228789 0.228789 0.228789
0.229009 0.229009 0.229009
0.229229 0.229229 0.229229
0.229449 0.229449 0.229449
0.229668 0.229668 0.229668
0.229887 0.229887 0.229887
0.230105 0.230105 0.230105
0.230323 0.230323 0.230323
0.230541 0.230541 0.230541
0.230758 0.230758 0.230758
0.230975 0.230975 0.230975
0.231191 0.231191 0.231191
0.231407 0.231407 0.231407
0.231623 0.231623 0.231623
0.231839 0.231839 0.231839
0.232054 0.232054 0.232054
0.232268 0.232268 0.232268
0.232483 0.232483 0.232483
0.232697 0.232697 0.232697
0.232910 0.232910 0.232910
0.233124 0.233124 0.233124
0.233336 0.233336 0.233336
0.233549 0.233549 0.233549
0.233761 0.233761 0.233761
0.233973 0.233973 0.233973
0.234184 0.234184 0.234184
0.234396 0.234396 0.234396
0.234606 0.234606 0.234606
0.234817 0.234817 0.234817
0.235027 0.235027 0.235027
0.235237 0.235237 0.235237
0.235446 0.235446 0.235446
0.235655 0.235655 0.235655
0.235864 0.235864 0.235864
0.236072 0.236072 0.236072
0.236280 0.236280 0.236280
0.236488 0.236488 0.236488
0.236695 0.236695 0.236695
0.236902 0.236902 0.236902
0.237109 0.237109 0.237109
0.237315 0.237315 0.237315
0.237521 0.237521 0.237521
0.237727 0.237727 0.237727
0.237932 0.237932 0.237932
0.238137 0.238137 0.238137
0.238342 0.238342 0.238342
0.238547 0.238547 0.238547
0.238751 0.238751 0.238751
0.238954 0.238954 0.238954
0.239158 0.239158 0.239158
0.239361 0.239361 0.239361
0.239563 0.239563 0.239563
0.239766 0.239766 0.239766
0.239968 0.239968 0.239968
0.240170 0.240170 0.240170
0.240371 0.240371 0.240371
0.240572 0.240572 0.240572
0.240773 0.240773 0.240773
0.240974 0.240974 0.240974
0.241174 0.241174 0.241174
0.241374 0.241374 0.241374
0.241573 0.241573 0.241573
0.241773 0.241773 0.241773
0.241971 0.241971 0.241971
0.242170 0.242170 0.242170
0.242368 0.242368 0.242368
0.242566 0.242566 0.242566
0.242764 0.242764 0.242764
0.242961 0.242961 0.242961
0.243159 0.243159 0.243159
0.243355 0.243355 0.243355
0.243552 0.243552 0.243552
0.243748 0.243748 0.243748
0.243944 0.243944 0.243944
0.244139 0.244139 0.244139
0.244335 0.244335 0.244335
0.244530 0.244530 0.244530
0.244724 0.244724 0.244724
0.244919 0.244919 0.244919
0.245113 0.245113 0.245113
0.245307 0.245307 0.245307
0.245500 0.245500 0.245500
0.245693 0.245693 0.245693
0.245886 0.245886 0.245886
0.246079 0.246079 0.246079
0.246271 0.246271 0.246271
0.246463 0.246463 0.246463
0.246655 0.246655 0.246655
0.246846 0.246846 0.246846
0.247038 0.247038 0.247038
0.247229 0.247229 0.247229
0.247419 0.247419 0.247419
0.247609 0.247609 0.247609
0.247799 0.247799 0.247799
0.247989 0.247989 0.247989
0.248179 0.248179 0.248179
0.248368 0.248368 0.248368
0.248557 0.248557 0.248557
0.248745 0.248745 0.248745
0.248934 0.248934 0.248934
0.249122 0.249122 0.249122
0.249310 0.249310 0.249310
0.249497 0.249497 0.249497
0.249684 0.249684 0.249684
0.249871 0.249871 0.249871
0.250058 0.250058 0.250058
0.250244 0.250244 0.250244
0.250431 0.250431 0.250431
0.250616 0.250616 0.250616
0.250802 0.250802 0.250802
0.250987 0.250987 0.250987
0.251172 0.251172 0.251172
0.251357 0.251357 0.251357
0.251542 0.251542 0.251542
0.251726 0.251726 0.251726
0.251910 0.251910 0.251910
0.252094 0.252094 0.252094
0.252277 0.252277 0.252277
0.252460 0.252460 0.252460
0.252643 0.252643 0.252643
0.252826 0.252826 0.252826
0.253008 0.253008 0.253008
0.253191 0.253191 0.253191
0.253372 0.253372 0.253372
0.253554 0.253554 0.253554
0.253735 0.253735 0.253735
0.253917 0.253917 0.253917
0.254097 0.254097 0.254097
0.254278 0.254278 0.254278
0.254458 0.254458 0.254458
0.254638 0.254638 0.254638
0.254818 0.254818 0.254818
0.254998 0.254998 0.254998
0.255177 0.255177 0.255177
0.255356 0.255356 0.255356
0.255535 0.255535 0.255535
0.255714 0.255714 0.255714
0.255892 0.255892 0.255892
0.256070 0.256070 0.256070
0.256248 0.256248 0.256248
0.256425 0.256425 0.256425
0.256603 0.256603 0.256603
0.256780 0.256780 0.256780
0.256957 0.256957 0.256957
0.257133 0.257133 0.257133
0.257310 0.257310 0.257310
0.257486 0.257486 0.257486
0.257662 0.257662 0.257662
0.257837 0.257837 0.257837
0.258013 0.258013 0.258013
0.258188 0.258188 0.258188
0.258363 0.258363 0.258363
0.258537 0.258537 0.258537
0.258712 0.258712 0.258712
0.258886 0.258886 0.258886
0.259060 0.259060 0.259060
0.259234 0.259234 0.259234
0.259407 0.259407 0.259407
0.259580 0.259580 0.259580
0.259753 0.259753 0.259753
0.259926 0.259926 0.259926
0.260099 0.260099 0.260099
0.260271 0.260271 0.260271
0.260443 0.260443 0.260443
0.260615 0.260615 0.260615
0.260786 0.260786 0.260786
0.260958 0.260958 0.260958
0.261129 0.261129 0.261129
0.261300 0.261300 0.261300
0.261470 0.261470 0.261470
0.261641 0.261641 0.261641
0.261811 0.261811 0.261811
0.261981 0.261981 0.261981
0.262151 0.262151 0.262151
0.262320 0.262320 0.262320
0.262490 0.262490 0.262490
0.262659 0.262659 0.262659
0.262828 0.262828 0.262828
0.262996 0.262996 0.262996
0.263165 0.263165 0.263165
0.263333 0.263333 0.263333
0.263501 0.263501 0.263501
0.263669 0.263669 0.263669
0.263836 0.263836 0.263836
0.264003 0.264003 0.264003
0.264171 0.264171 0.264171
0.264337 0.264337 0.264337
0.264504 0.264504 0.264504
0.264671 0.264671 0.264671
0.264837 0.264837 0.264837
0.265003 0.265003 0.265003
0.265169 0.265169 0.265169
0.265334 0.265334 0.265334
0.265499 0.265499 0.265499
0.265665 0.265665 0.265665
0.265830 0.265830 0.265830
0.265994 0.265994 0.265994
0.266159 0.266159 0.266159
0.266323 0.266323 0.266323
0.266487 0.266487 0.266487
0.266651 0.266651 0.266651
0.266815 0.266815 0.266815
0.266978 0.266978 0.266978
0.267141 0.267141 0.267141
0.267304 0.267304 0.267304
0.267467 0.267467 0.267467
0.267630 0.267630 0.267630
0.267792 0.267792 0.267792
0.267954 0.267954 0.267954
0.268116 0.268116 0.268116
0.268278 0.268278 0.268278
0.268440 0.268440 0.268440
0.268601 0.268601 0.268601
0.268762 0.268762 0.268762
0.268923 0.268923 0.268923
0.269084 0.269084 0.269084
0.269245 0.269245 0.269245
0.269405 0.269405 0.269405
0.269565 0.269565 0.269565
0.269725 0.269725 0.269725
0.269885 0.269885 0.269885
0.270044 0.270044 0.270044
0.270204 0.270204 0.270204
0.270363 0.270363 0.270363
0.270522 0.270522 0.270522
0.270681 0.270681 0.270681
0.270839 0.270839 0.270839
0.270998 0.270998 0.270998
0.271156 0.271156 0.271156
0.271314 0.271314 0.271314
0.271472 0.271472 0.271472
0.271629 0.271629 0.271629
0.271786 0.271786 0.271786
0.271944 0.271944 0.271944
0.272101 0.272101 0.272101
0.272258 0.272258 0.272258
0.272414 0.272414 0.272414
0.272571 0.272571 0.272571
0.272727 0.272727 0.272727
0.272883 0.272883 0.272883
0.273039 0.273039 0.273039
0.273194 0.273194 0.273194
0.273350 0.273350 0.273350
0.273505 0.273505 0.273505
0.273660 0.273660 0.273660
0.273815 0.273815 0.273815
0.273970 0.273970 0.273970
0.274124 0.274124 0.274124
0.274279 0.274279 0.274279
0.274433 0.274433 0.274433
0.274587 0.274587 0.274587
0.274741 0.274741 0.274741
0.274894 0.274894 0.274894
0.275048 0.275048 0.275048
0.275201 0.275201 0.275201
0.275354 0.275354 0.275354
0.275507 0.275507 0.275507
0.275659 0.275659 0.275659
0.275812 0.275812 0.275812
0.275964 0.275964 0.275964
0.276116 0.276116 0.276116
0.276268 0.276268 0.276268
0.276420 0.276420 0.276420
0.276572 0.276572 0.276572
0.276723 0.276723 0.276723
0.276874 0.276874 0.276874
0.277025 0.277025 0.277025
0.277176 0.277176 0.277176
0.277327 0.277327 0.277327
0.277477 0.277477 0.277477
0.277628 0.277628 0.277628
0.277778 0.277778 0.277778
0.277928 0.277928 0.277928
0.278077 0.278077 0.278077
0.278227 0.278227 0.278227
0.278377 0.278377 0.278377
0.278526 0.278526 0.278526
0.278675 0.278675 0.278675
0.278824 0.278824 0.278824
0.278973 0.278973 0.278973
0.279121 0.279121 0.279121
0.279270 0.279270 0.279270
0.279418 0.279418 0.279418
0.279566 0.279566 0.279566
0.279714 0.279714 0.279714
0.279861 0.279861 0.279861
0.280009 0.280009 0.280009
0.280156 0.280156 0.280156
0.280304 0.280304 0.280304
0.280451 0.280451 0.280451
0.280597 0.280597 0.280597
0.280744 0.280744 0.280744
0.280891 0.280891 0.280891
0.281037 0.281037 0.281037
0.281183 0.281183 0.281183
0.281329 0.281329 0.281329
0.281475 0.281475 0.281475
0.281621 0.281621 0.281621
0.281766 0.281766 0.281766
0.281912 0.281912 0.281912
0.282057 0.282057 0.282057
0.282202 0.282202 0.282202
0.282347 0.282347 0.282347
0.282491 0.282491 0.282491
0.282636 0.282636 0.282636
0.282780 0.282780 0.282780
0.282925 0.282925 0.282925
0.283069 0.283069 0.283069
0.283212 0.283212 0.283212
0.283356 0.283356 0.283356
0.283500 0.283500 0.283500
0.283643 0.283643 0.283643
0.283786 0.283786 0.283786
0.283929 0.283929 0.283929
0.284072 0.284072 0.284072
0.284215 0.284215 0.284215
0.284358 0.284358 0.284358
0.284500 0.284500 0.284500
0.284642 0.284642 0.284642
0.284784 0.284784 0.284784
0.284926 0.284926 0.284926
0.285068 0.285068 0.285068
0.285210 0.285210 0.285210
0.285351 0.285351 0.285351
0.285493 0.285493 0.285493
0.285634 0.285634 0.285634
0.285775 0.285775 0.285775
0.285916 0.285916 0.285916
0.286056 0.286056 0.286056
0.286197 0.286197 0.286197
0.286337 0.286337 0.286337
0.286478 0.286478 0.286478
0.286618 0.286618 0.286618
0.286758 0.286758 0.286758
0.286897 0.286897 0.286897
0.287037 0.287037 0.287037
0.287176 0.287176 0.287176
0.287316 0.287316 0.287316
0.287455 0.287455 0.287455
0.287594 0.287594 0.287594
0.287733 0.287733 0.287733
0.287871 0.287871 0.287871
0.288010 0.288010 0.288010
0.288148 0.288148 0.288148
0.288287 0.288287 0.288287
0.288425 0.288425 0.288425
0.288563 0.288563 0.288563
0.288700 0.288700 0.288700
0.288838 0.288838 0.288838
0.288976 0.288976 0.288976
0.289113 0.289113 0.289113
0.289250 0.289250 0.289250
0.289387 0.289387 0.289387
0.289524 0.289524 0.289524
0.289661 0.289661 0.289661
0.289798 0.289798 0.289798
0.289934 0.289934 0.289934
0.290070 0.290070 0.290070
0.290207 0.290207 0.290207
0.290343 0.290343 0.290343
0.290479 0.290479 0.290479
0.290614 0.290614 0.290614
0.290750 0.290750 0.290750
0.290885 0.290885 0.290885
0.291021 0.291021 0.291021
0.291156 0.291156 0.291156
0.291291 0.291291 0.291291
0.291426 0.291426 0.291426
0.291560 0.291560 0.291560
0.291695 0.291695 0.291695
0.291830 0.291830 0.291830
0.291964 0.291964 0.291964
0.292098 0.292098 0.292098
0.292232 0.292232 0.292232
0.292366 0.292366 0.292366
0.292500 0.292500 0.292500
0.292633 0.292633 0.292633
0.292767 0.292767 0.292767
0.292900 0.292900 0.292900
0.293033 0.293033 0.293033
0.293166 0.293166 0.293166
0.293299 0.293299 0.293299
0.293432 0.293432 0.293432
0.293565 0.293565 0.293565
0.293697 0.293697 0.293697
0.293830 0.293830 0.293830
0.293962 0.293962 0.293962
0.294094 0.294094 0.294094
0.294226 0.294226 0.294226
0.294358 0.294358 0.294358
0.294489 0.294489 0.294489
0.294621 0.294621 0.294621
0.294752 0.294752 0.294752
0.294884 0.294884 0.294884
0.295015 0.295015 0.295015
0.295146 0.295146 0.295146
0.295277 0.295277 0.295277
0.295407 0.295407 0.295407
0.295538 0.295538 0.295538
0.295668 0.295668 0.295668
0.295799 0.295799 0.295799
0.295929 0.295929 0.295929
0.296059 0.296059 0.296059
0.296189 0.296189 0.296189
0.296319 0.296319 0.296319
0.296448 0.296448 0.296448
0.296578 0.296578 0.296578
0.296707 0.296707 0.296707
0.296837 0.296837 0.296837
0.296966 0.296966 0.296966
0.297095 0.297095 0.297095
0.297224 0.297224 0.297224
0.297352 0.297352 0.297352
0.297481 0.297481 0.297481
0.297609 0.297609 0.297609
0.297738 0.297738 0.297738
0.297866 0.297866 0.297866
0.297994 0.297994 0.297994
0.298122 0.298122 0.298122
0.298250 0.298250 0.298250
0.298378 0.298378 0.298378
0.298505 0.298505 0.298505
0.298633 0.298633 0.298633
0.298760 0.298760 0.298760
0.298887 0.298887 0.298887
0.299014 0.299014 0.299014
0.299141 0.299141 0.299141
0.299268 0.299268 0.299268
0.299395 0.299395 0.299395
0.299521 0.299521 0.299521
0.299648 0.299648 0.299648
0.299774 0.299774 0.299774
0.299900 0.299900 0.299900
0.300026 0.300026 0.300026
0.300152 0.300152 0.300152
0.300278 0.300278 0.300278
0.300404 0.300404 0.300404
0.300529 0.300529 0.300529
0.300655 0.300655 0.300655
0.300780 0.300780 0.300780
0.300905 0.300905 0.300905
0.301031 0.301031 0.301031
0.301155 0.301155 0.301155
0.301280 0.301280 0.301280
0.301405 0.301405 0.301405
0.301530 0.301530 0.301530
0.301654 0.301654 0.301654
0.301778 0.301778 0.301778
0.301903 0.301903 0.301903
0.302027 0.302027 0.302027
0.302151 0.302151 0.302151
0.302275 0.302275 0.302275
0.302398 0.302398 0.302398
0.302522 0.302522 0.302522
0.302646 0.302646 0.302646
0.302769 0.302769 0.302769
0.302892 0.302892 0.302892
0.303015 0.303015 0.303015
0.303138 0.303138 0.303138
0.303261 0.303261 0.303261
0.303384 0.303384 0.303384
0.303507 0.303507 0.303507
0.303629 0.303629 0.303629
0.303752 0.303752 0.303752
0.303874 0.303874 0.303874
0.303996 0.303996 0.303996
0.304118 0.304118 0.304118
0.304240 0.304240 0.304240
0.304362 0.304362 0.304362
0.304484 0.304484 0.304484
0.304605 0.304605 0.304605
0.304727 0.304727 0.304727
0.304848 0.304848 0.304848
0.304970 0.304970 0.304970
0.305091 0.305091 0.305091
0.305212 0.305212 0.305212
0.305333 0.305333 0.305333
0.305454 0.305454 0.305454
0.305574 0.305574 0.305574
0.305695 0.305695 0.305695
0.305815 0.305815 0.305815
0.305936 0.305936 0.305936
0.306056 0.306056 0.306056
0.306176 0.306176 0.306176
0.306296 0.306296 0.306296
0.306416 0.306416 0.306416
0.306536 0.306536 0.306536
0.306655 0.306655 0.306655
0.306775 0.306775 0.306775
0.306894 0.306894 0.306894
0.307014 0.307014 0.307014
0.307133 0.307133 0.307133
0.307252 0.307252 0.307252
0.307371 0.307371 0.307371
0.307490 0.307490 0.307490
0.307609 0.307609 0.307609
0.307727 0.307727 0.307727
0.307846 0.307846 0.307846
0.307964 0.307964 0.307964
0.308083 0.308083 0.308083
0.308201 0.308201 0.308201
