Switch.app/Contents/lin_logC.cube
TITLE "Custom LUT"
LUT_1D_SIZE 16384
# Scene Linear IRE - γ1.0 (18% Gray = 0.2) -> LogC (Sup 3.x & 4.x), CineEI Shift 0.00, Black Level 3.53% IRE, Input 100% -> Output 109% - Created with LUTCalc v3.1.2 by Ben Turley September 2017
0.092809 0.092809 0.092809
0.093104 0.093104 0.093104
0.093399 0.093399 0.093399
0.093694 0.093694 0.093694
0.093989 0.093989 0.093989
0.094284 0.094284 0.094284
0.094579 0.094579 0.094579
0.094873 0.094873 0.094873
0.095168 0.095168 0.095168
0.095463 0.095463 0.095463
0.095758 0.095758 0.095758
0.096053 0.096053 0.096053
0.096348 0.096348 0.096348
0.096643 0.096643 0.096643
0.096938 0.096938 0.096938
0.097232 0.097232 0.097232
0.097527 0.097527 0.097527
0.097822 0.097822 0.097822
0.098117 0.098117 0.098117
0.098412 0.098412 0.098412
0.098707 0.098707 0.098707
0.099002 0.099002 0.099002
0.099297 0.099297 0.099297
0.099591 0.099591 0.099591
0.099886 0.099886 0.099886
0.100181 0.100181 0.100181
0.100476 0.100476 0.100476
0.100771 0.100771 0.100771
0.101066 0.101066 0.101066
0.101361 0.101361 0.101361
0.101656 0.101656 0.101656
0.101950 0.101950 0.101950
0.102245 0.102245 0.102245
0.102540 0.102540 0.102540
0.102835 0.102835 0.102835
0.103130 0.103130 0.103130
0.103425 0.103425 0.103425
0.103720 0.103720 0.103720
0.104014 0.104014 0.104014
0.104309 0.104309 0.104309
0.104604 0.104604 0.104604
0.104899 0.104899 0.104899
0.105194 0.105194 0.105194
0.105489 0.105489 0.105489
0.105784 0.105784 0.105784
0.106079 0.106079 0.106079
0.106373 0.106373 0.106373
0.106668 0.106668 0.106668
0.106963 0.106963 0.106963
0.107258 0.107258 0.107258
0.107553 0.107553 0.107553
0.107848 0.107848 0.107848
0.108143 0.108143 0.108143
0.108438 0.108438 0.108438
0.108732 0.108732 0.108732
0.109027 0.109027 0.109027
0.109322 0.109322 0.109322
0.109617 0.109617 0.109617
0.109912 0.109912 0.109912
0.110207 0.110207 0.110207
0.110502 0.110502 0.110502
0.110797 0.110797 0.110797
0.111091 0.111091 0.111091
0.111386 0.111386 0.111386
0.111681 0.111681 0.111681
0.111976 0.111976 0.111976
0.112271 0.112271 0.112271
0.112566 0.112566 0.112566
0.112861 0.112861 0.112861
0.113156 0.113156 0.113156
0.113450 0.113450 0.113450
0.113745 0.113745 0.113745
0.114040 0.114040 0.114040
0.114335 0.114335 0.114335
0.114630 0.114630 0.114630
0.114925 0.114925 0.114925
0.115220 0.115220 0.115220
0.115514 0.115514 0.115514
0.115809 0.115809 0.115809
0.116104 0.116104 0.116104
0.116399 0.116399 0.116399
0.116694 0.116694 0.116694
0.116989 0.116989 0.116989
0.117284 0.117284 0.117284
0.117579 0.117579 0.117579
0.117873 0.117873 0.117873
0.118168 0.118168 0.118168
0.118463 0.118463 0.118463
0.118758 0.118758 0.118758
0.119053 0.119053 0.119053
0.119348 0.119348 0.119348
0.119643 0.119643 0.119643
0.119938 0.119938 0.119938
0.120232 0.120232 0.120232
0.120527 0.120527 0.120527
0.120822 0.120822 0.120822
0.121117 0.121117 0.121117
0.121412 0.121412 0.121412
0.121707 0.121707 0.121707
0.122002 0.122002 0.122002
0.122297 0.122297 0.122297
0.122591 0.122591 0.122591
0.122886 0.122886 0.122886
0.123181 0.123181 0.123181
0.123476 0.123476 0.123476
0.123771 0.123771 0.123771
0.124066 0.124066 0.124066
0.124361 0.124361 0.124361
0.124656 0.124656 0.124656
0.124950 0.124950 0.124950
0.125245 0.125245 0.125245
0.125540 0.125540 0.125540
0.125835 0.125835 0.125835
0.126130 0.126130 0.126130
0.126425 0.126425 0.126425
0.126720 0.126720 0.126720
0.127014 0.127014 0.127014
0.127309 0.127309 0.127309
0.127604 0.127604 0.127604
0.127899 0.127899 0.127899
0.128194 0.128194 0.128194
0.128489 0.128489 0.128489
0.128784 0.128784 0.128784
0.129079 0.129079 0.129079
0.129373 0.129373 0.129373
0.129668 0.129668 0.129668
0.129963 0.129963 0.129963
0.130258 0.130258 0.130258
0.130553 0.130553 0.130553
0.130848 0.130848 0.130848
0.131143 0.131143 0.131143
0.131438 0.131438 0.131438
0.131732 0.131732 0.131732
0.132027 0.132027 0.132027
0.132322 0.132322 0.132322
0.132617 0.132617 0.132617
0.132912 0.132912 0.132912
0.133207 0.133207 0.133207
0.133502 0.133502 0.133502
0.133797 0.133797 0.133797
0.134091 0.134091 0.134091
0.134386 0.134386 0.134386
0.134681 0.134681 0.134681
0.134976 0.134976 0.134976
0.135271 0.135271 0.135271
0.135566 0.135566 0.135566
0.135861 0.135861 0.135861
0.136156 0.136156 0.136156
0.136450 0.136450 0.136450
0.136745 0.136745 0.136745
0.137040 0.137040 0.137040
0.137335 0.137335 0.137335
0.137630 0.137630 0.137630
0.137925 0.137925 0.137925
0.138220 0.138220 0.138220
0.138514 0.138514 0.138514
0.138809 0.138809 0.138809
0.139104 0.139104 0.139104
0.139399 0.139399 0.139399
0.139694 0.139694 0.139694
0.139989 0.139989 0.139989
0.140284 0.140284 0.140284
0.140579 0.140579 0.140579
0.140873 0.140873 0.140873
0.141168 0.141168 0.141168
0.141463 0.141463 0.141463
0.141758 0.141758 0.141758
0.142053 0.142053 0.142053
0.142348 0.142348 0.142348
0.142643 0.142643 0.142643
0.142938 0.142938 0.142938
0.143232 0.143232 0.143232
0.143527 0.143527 0.143527
0.143822 0.143822 0.143822
0.144117 0.144117 0.144117
0.144412 0.144412 0.144412
0.144707 0.144707 0.144707
0.145002 0.145002 0.145002
0.145297 0.145297 0.145297
0.145591 0.145591 0.145591
0.145886 0.145886 0.145886
0.146181 0.146181 0.146181
0.146476 0.146476 0.146476
0.146771 0.146771 0.146771
0.147066 0.147066 0.147066
0.147361 0.147361 0.147361
0.147656 0.147656 0.147656
0.147950 0.147950 0.147950
0.148245 0.148245 0.148245
0.148540 0.148540 0.148540
0.148835 0.148835 0.148835
0.149130 0.149130 0.149130
0.149425 0.149425 0.149425
0.149720 0.149720 0.149720
0.150014 0.150014 0.150014
0.150307 0.150307 0.150307
0.150600 0.150600 0.150600
0.150892 0.150892 0.150892
0.151183 0.151183 0.151183
0.151473 0.151473 0.151473
0.151763 0.151763 0.151763
0.152052 0.152052 0.152052
0.152340 0.152340 0.152340
0.152627 0.152627 0.152627
0.152913 0.152913 0.152913
0.153199 0.153199 0.153199
0.153484 0.153484 0.153484
0.153768 0.153768 0.153768
0.154052 0.154052 0.154052
0.154334 0.154334 0.154334
0.154616 0.154616 0.154616
0.154897 0.154897 0.154897
0.155178 0.155178 0.155178
0.155458 0.155458 0.155458
0.155737 0.155737 0.155737
0.156015 0.156015 0.156015
0.156292 0.156292 0.156292
0.156569 0.156569 0.156569
0.156845 0.156845 0.156845
0.157121 0.157121 0.157121
0.157396 0.157396 0.157396
0.157670 0.157670 0.157670
0.157943 0.157943 0.157943
0.158215 0.158215 0.158215
0.158487 0.158487 0.158487
0.158759 0.158759 0.158759
0.159029 0.159029 0.159029
0.159299 0.159299 0.159299
0.159568 0.159568 0.159568
0.159837 0.159837 0.159837
0.160105 0.160105 0.160105
0.160372 0.160372 0.160372
0.160638 0.160638 0.160638
0.160904 0.160904 0.160904
0.161170 0.161170 0.161170
0.161434 0.161434 0.161434
0.161698 0.161698 0.161698
0.161961 0.161961 0.161961
0.162224 0.162224 0.162224
0.162486 0.162486 0.162486
0.162747 0.162747 0.162747
0.163008 0.163008 0.163008
0.163268 0.163268 0.163268
0.163527 0.163527 0.163527
0.163786 0.163786 0.163786
0.164045 0.164045 0.164045
0.164302 0.164302 0.164302
0.164559 0.164559 0.164559
0.164815 0.164815 0.164815
0.165071 0.165071 0.165071
0.165326 0.165326 0.165326
0.165581 0.165581 0.165581
0.165835 0.165835 0.165835
0.166088 0.166088 0.166088
0.166341 0.166341 0.166341
0.166593 0.166593 0.166593
0.166844 0.166844 0.166844
0.167095 0.167095 0.167095
0.167346 0.167346 0.167346
0.167596 0.167596 0.167596
0.167845 0.167845 0.167845
0.168093 0.168093 0.168093
0.168341 0.168341 0.168341
0.168589 0.168589 0.168589
0.168836 0.168836 0.168836
0.169082 0.169082 0.169082
0.169328 0.169328 0.169328
0.169573 0.169573 0.169573
0.169818 0.169818 0.169818
0.170062 0.170062 0.170062
0.170306 0.170306 0.170306
0.170549 0.170549 0.170549
0.170791 0.170791 0.170791
0.171033 0.171033 0.171033
0.171274 0.171274 0.171274
0.171515 0.171515 0.171515
0.171755 0.171755 0.171755
0.171995 0.171995 0.171995
0.172234 0.172234 0.172234
0.172473 0.172473 0.172473
0.172711 0.172711 0.172711
0.172949 0.172949 0.172949
0.173186 0.173186 0.173186
0.173423 0.173423 0.173423
0.173659 0.173659 0.173659
0.173894 0.173894 0.173894
0.174129 0.174129 0.174129
0.174364 0.174364 0.174364
0.174598 0.174598 0.174598
0.174831 0.174831 0.174831
0.175064 0.175064 0.175064
0.175297 0.175297 0.175297
0.175529 0.175529 0.175529
0.175760 0.175760 0.175760
0.175991 0.175991 0.175991
0.176222 0.176222 0.176222
0.176452 0.176452 0.176452
0.176681 0.176681 0.176681
0.176910 0.176910 0.176910
0.177139 0.177139 0.177139
0.177367 0.177367 0.177367
0.177594 0.177594 0.177594
0.177821 0.177821 0.177821
0.178048 0.178048 0.178048
0.178274 0.178274 0.178274
0.178500 0.178500 0.178500
0.178725 0.178725 0.178725
0.178949 0.178949 0.178949
0.179174 0.179174 0.179174
0.179397 0.179397 0.179397
0.179621 0.179621 0.179621
0.179844 0.179844 0.179844
0.180066 0.180066 0.180066
0.180288 0.180288 0.180288
0.180509 0.180509 0.180509
0.180730 0.180730 0.180730
0.180951 0.180951 0.180951
0.181171 0.181171 0.181171
0.181391 0.181391 0.181391
0.181610 0.181610 0.181610
0.181828 0.181828 0.181828
0.182047 0.182047 0.182047
0.182265 0.182265 0.182265
0.182482 0.182482 0.182482
0.182699 0.182699 0.182699
0.182916 0.182916 0.182916
0.183132 0.183132 0.183132
0.183347 0.183347 0.183347
0.183563 0.183563 0.183563
0.183777 0.183777 0.183777
0.183992 0.183992 0.183992
0.184206 0.184206 0.184206
0.184419 0.184419 0.184419
0.184632 0.184632 0.184632
0.184845 0.184845 0.184845
0.185057 0.185057 0.185057
0.185269 0.185269 0.185269
0.185480 0.185480 0.185480
0.185691 0.185691 0.185691
0.185902 0.185902 0.185902
0.186112 0.186112 0.186112
0.186322 0.186322 0.186322
0.186531 0.186531 0.186531
0.186740 0.186740 0.186740
0.186949 0.186949 0.186949
0.187157 0.187157 0.187157
0.187365 0.187365 0.187365
0.187572 0.187572 0.187572
0.187779 0.187779 0.187779
0.187986 0.187986 0.187986
0.188192 0.188192 0.188192
0.188397 0.188397 0.188397
0.188603 0.188603 0.188603
0.188808 0.188808 0.188808
0.189012 0.189012 0.189012
0.189216 0.189216 0.189216
0.189420 0.189420 0.189420
0.189624 0.189624 0.189624
0.189827 0.189827 0.189827
0.190029 0.190029 0.190029
0.190232 0.190232 0.190232
0.190433 0.190433 0.190433
0.190635 0.190635 0.190635
0.190836 0.190836 0.190836
0.191037 0.191037 0.191037
0.191237 0.191237 0.191237
0.191437 0.191437 0.191437
0.191637 0.191637 0.191637
0.191836 0.191836 0.191836
0.192035 0.192035 0.192035
0.192233 0.192233 0.192233
0.192432 0.192432 0.192432
0.192629 0.192629 0.192629
0.192827 0.192827 0.192827
0.193024 0.193024 0.193024
0.193221 0.193221 0.193221
0.193417 0.193417 0.193417
0.193613 0.193613 0.193613
0.193809 0.193809 0.193809
0.194004 0.194004 0.194004
0.194199 0.194199 0.194199
0.194393 0.194393 0.194393
0.194587 0.194587 0.194587
0.194781 0.194781 0.194781
0.194975 0.194975 0.194975
0.195168 0.195168 0.195168
0.195361 0.195361 0.195361
0.195553 0.195553 0.195553
0.195745 0.195745 0.195745
0.195937 0.195937 0.195937
0.196129 0.196129 0.196129
0.196320 0.196320 0.196320
0.196510 0.196510 0.196510
0.196701 0.196701 0.196701
0.196891 0.196891 0.196891
0.197081 0.197081 0.197081
0.197270 0.197270 0.197270
0.197459 0.197459 0.197459
0.197648 0.197648 0.197648
0.197836 0.197836 0.197836
0.198024 0.198024 0.198024
0.198212 0.198212 0.198212
0.198400 0.198400 0.198400
0.198587 0.198587 0.198587
0.198774 0.198774 0.198774
0.198960 0.198960 0.198960
0.199146 0.199146 0.199146
0.199332 0.199332 0.199332
0.199517 0.199517 0.199517
0.199703 0.199703 0.199703
0.199887 0.199887 0.199887
0.200072 0.200072 0.200072
0.200256 0.200256 0.200256
0.200440 0.200440 0.200440
0.200624 0.200624 0.200624
0.200807 0.200807 0.200807
0.200990 0.200990 0.200990
0.201172 0.201172 0.201172
0.201355 0.201355 0.201355
0.201537 0.201537 0.201537
0.201719 0.201719 0.201719
0.201900 0.201900 0.201900
0.202081 0.202081 0.202081
0.202262 0.202262 0.202262
0.202442 0.202442 0.202442
0.202623 0.202623 0.202623
0.202802 0.202802 0.202802
0.202982 0.202982 0.202982
0.203161 0.203161 0.203161
0.203340 0.203340 0.203340
0.203519 0.203519 0.203519
0.203697 0.203697 0.203697
0.203875 0.203875 0.203875
0.204053 0.204053 0.204053
0.204231 0.204231 0.204231
0.204408 0.204408 0.204408
0.204585 0.204585 0.204585
0.204762 0.204762 0.204762
0.204938 0.204938 0.204938
0.205114 0.205114 0.205114
0.205290 0.205290 0.205290
0.205465 0.205465 0.205465
0.205640 0.205640 0.205640
0.205815 0.205815 0.205815
0.205990 0.205990 0.205990
0.206164 0.206164 0.206164
0.206338 0.206338 0.206338
0.206512 0.206512 0.206512
0.206686 0.206686 0.206686
0.206859 0.206859 0.206859
0.207032 0.207032 0.207032
0.207204 0.207204 0.207204
0.207377 0.207377 0.207377
0.207549 0.207549 0.207549
0.207721 0.207721 0.207721
0.207892 0.207892 0.207892
0.208064 0.208064 0.208064
0.208235 0.208235 0.208235
0.208405 0.208405 0.208405
0.208576 0.208576 0.208576
0.208746 0.208746 0.208746
0.208916 0.208916 0.208916
0.209086 0.209086 0.209086
0.209255 0.209255 0.209255
0.209424 0.209424 0.209424
0.209593 0.209593 0.209593
0.209761 0.209761 0.209761
0.209930 0.209930 0.209930
0.210098 0.210098 0.210098
0.210266 0.210266 0.210266
0.210433 0.210433 0.210433
0.210600 0.210600 0.210600
0.210767 0.210767 0.210767
0.210934 0.210934 0.210934
0.211101 0.211101 0.211101
0.211267 0.211267 0.211267
0.211433 0.211433 0.211433
0.211599 0.211599 0.211599
0.211764 0.211764 0.211764
0.211929 0.211929 0.211929
0.212094 0.212094 0.212094
0.212259 0.212259 0.212259
0.212423 0.212423 0.212423
0.212588 0.212588 0.212588
0.212752 0.212752 0.212752
0.212915 0.212915 0.212915
0.213079 0.213079 0.213079
0.213242 0.213242 0.213242
0.213405 0.213405 0.213405
0.213568 0.213568 0.213568
0.213730 0.213730 0.213730
0.213892 0.213892 0.213892
0.214054 0.214054 0.214054
0.214216 0.214216 0.214216
0.214378 0.214378 0.214378
0.214539 0.214539 0.214539
0.214700 0.214700 0.214700
0.214861 0.214861 0.214861
0.215021 0.215021 0.215021
0.215181 0.215181 0.215181
0.215341 0.215341 0.215341
0.215501 0.215501 0.215501
0.215661 0.215661 0.215661
0.215820 0.215820 0.215820
0.215979 0.215979 0.215979
0.216138 0.216138 0.216138
0.216297 0.216297 0.216297
0.216455 0.216455 0.216455
0.216613 0.216613 0.216613
0.216771 0.216771 0.216771
0.216929 0.216929 0.216929
0.217086 0.217086 0.217086
0.217244 0.217244 0.217244
0.217401 0.217401 0.217401
0.217557 0.217557 0.217557
0.217714 0.217714 0.217714
0.217870 0.217870 0.217870
0.218026 0.218026 0.218026
0.218182 0.218182 0.218182
0.218338 0.218338 0.218338
0.218493 0.218493 0.218493
0.218648 0.218648 0.218648
0.218803 0.218803 0.218803
0.218958 0.218958 0.218958
0.219113 0.219113 0.219113
0.219267 0.219267 0.219267
0.219421 0.219421 0.219421
0.219575 0.219575 0.219575
0.219728 0.219728 0.219728
0.219882 0.219882 0.219882
0.220035 0.220035 0.220035
0.220188 0.220188 0.220188
0.220341 0.220341 0.220341
0.220493 0.220493 0.220493
0.220646 0.220646 0.220646
0.220798 0.220798 0.220798
0.220950 0.220950 0.220950
0.221101 0.221101 0.221101
0.221253 0.221253 0.221253
0.221404 0.221404 0.221404
0.221555 0.221555 0.221555
0.221706 0.221706 0.221706
0.221856 0.221856 0.221856
0.222007 0.222007 0.222007
0.222157 0.222157 0.222157
0.222307 0.222307 0.222307
0.222457 0.222457 0.222457
0.222606 0.222606 0.222606
0.222756 0.222756 0.222756
0.222905 0.222905 0.222905
0.223054 0.223054 0.223054
0.223203 0.223203 0.223203
0.223351 0.223351 0.223351
0.223499 0.223499 0.223499
0.223648 0.223648 0.223648
0.223795 0.223795 0.223795
0.223943 0.223943 0.223943
0.224091 0.224091 0.224091
0.224238 0.224238 0.224238
0.224385 0.224385 0.224385
0.224532 0.224532 0.224532
0.224679 0.224679 0.224679
0.224825 0.224825 0.224825
0.224972 0.224972 0.224972
0.225118 0.225118 0.225118
0.225264 0.225264 0.225264
0.225409 0.225409 0.225409
0.225555 0.225555 0.225555
0.225700 0.225700 0.225700
0.225845 0.225845 0.225845
0.225990 0.225990 0.225990
0.226135 0.226135 0.226135
0.226279 0.226279 0.226279
0.226424 0.226424 0.226424
0.226568 0.226568 0.226568
0.226712 0.226712 0.226712
0.226856 0.226856 0.226856
0.226999 0.226999 0.226999
0.227142 0.227142 0.227142
0.227286 0.227286 0.227286
0.227429 0.227429 0.227429
0.227571 0.227571 0.227571
0.227714 0.227714 0.227714
0.227856 0.227856 0.227856
0.227999 0.227999 0.227999
0.228141 0.228141 0.228141
0.228283 0.228283 0.228283
0.228424 0.228424 0.228424
0.228566 0.228566 0.228566
0.228707 0.228707 0.228707
0.228848 0.228848 0.228848
0.228989 0.228989 0.228989
0.229130 0.229130 0.229130
0.229270 0.229270 0.229270
0.229411 0.229411 0.229411
0.229551 0.229551 0.229551
0.229691 0.229691 0.229691
0.229831 0.229831 0.229831
0.229970 0.229970 0.229970
0.230110 0.230110 0.230110
0.230249 0.230249 0.230249
0.230388 0.230388 0.230388
0.230527 0.230527 0.230527
0.230666 0.230666 0.230666
0.230804 0.230804 0.230804
0.230943 0.230943 0.230943
0.231081 0.231081 0.231081
0.231219 0.231219 0.231219
0.231357 0.231357 0.231357
0.231495 0.231495 0.231495
0.231632 0.231632 0.231632
0.231769 0.231769 0.231769
0.231907 0.231907 0.231907
0.232044 0.232044 0.232044
0.232180 0.232180 0.232180
0.232317 0.232317 0.232317
0.232453 0.232453 0.232453
0.232590 0.232590 0.232590
0.232726 0.232726 0.232726
0.232862 0.232862 0.232862
0.232997 0.232997 0.232997
0.233133 0.233133 0.233133
0.233268 0.233268 0.233268
0.233404 0.233404 0.233404
0.233539 0.233539 0.233539
0.233674 0.233674 0.233674
0.233808 0.233808 0.233808
0.233943 0.233943 0.233943
0.234077 0.234077 0.234077
0.234212 0.234212 0.234212
0.234346 0.234346 0.234346
0.234480 0.234480 0.234480
0.234613 0.234613 0.234613
0.234747 0.234747 0.234747
0.234880 0.234880 0.234880
0.235013 0.235013 0.235013
0.235147 0.235147 0.235147
0.235279 0.235279 0.235279
0.235412 0.235412 0.235412
0.235545 0.235545 0.235545
0.235677 0.235677 0.235677
0.235809 0.235809 0.235809
0.235941 0.235941 0.235941
0.236073 0.236073 0.236073
0.236205 0.236205 0.236205
0.236337 0.236337 0.236337
0.236468 0.236468 0.236468
0.236599 0.236599 0.236599
0.236731 0.236731 0.236731
0.236862 0.236862 0.236862
0.236992 0.236992 0.236992
0.237123 0.237123 0.237123
0.237253 0.237253 0.237253
0.237384 0.237384 0.237384
0.237514 0.237514 0.237514
0.237644 0.237644 0.237644
0.237774 0.237774 0.237774
0.237903 0.237903 0.237903
0.238033 0.238033 0.238033
0.238162 0.238162 0.238162
0.238292 0.238292 0.238292
0.238421 0.238421 0.238421
0.238550 0.238550 0.238550
0.238678 0.238678 0.238678
0.238807 0.238807 0.238807
0.238935 0.238935 0.238935
0.239064 0.239064 0.239064
0.239192 0.239192 0.239192
0.239320 0.239320 0.239320
0.239448 0.239448 0.239448
0.239575 0.239575 0.239575
0.239703 0.239703 0.239703
0.239830 0.239830 0.239830
0.239957 0.239957 0.239957
0.240085 0.240085 0.240085
0.240211 0.240211 0.240211
0.240338 0.240338 0.240338
0.240465 0.240465 0.240465
0.240591 0.240591 0.240591
0.240718 0.240718 0.240718
0.240844 0.240844 0.240844
0.240970 0.240970 0.240970
0.241096 0.241096 0.241096
0.241222 0.241222 0.241222
0.241347 0.241347 0.241347
0.241473 0.241473 0.241473
0.241598 0.241598 0.241598
0.241723 0.241723 0.241723
0.241848 0.241848 0.241848
0.241973 0.241973 0.241973
0.242098 0.242098 0.242098
0.242222 0.242222 0.242222
0.242347 0.242347 0.242347
0.242471 0.242471 0.242471
0.242595 0.242595 0.242595
0.242719 0.242719 0.242719
0.242843 0.242843 0.242843
0.242967 0.242967 0.242967
0.243090 0.243090 0.243090
0.243214 0.243214 0.243214
0.243337 0.243337 0.243337
0.243460 0.243460 0.243460
0.243583 0.243583 0.243583
0.243706 0.243706 0.243706
0.243829 0.243829 0.243829
0.243951 0.243951 0.243951
0.244074 0.244074 0.244074
0.244196 0.244196 0.244196
0.244318 0.244318 0.244318
0.244440 0.244440 0.244440
0.244562 0.244562 0.244562
0.244684 0.244684 0.244684
0.244805 0.244805 0.244805
0.244927 0.244927 0.244927
0.245048 0.245048 0.245048
0.245169 0.245169 0.245169
0.245290 0.245290 0.245290
0.245411 0.245411 0.245411
0.245532 0.245532 0.245532
0.245653 0.245653 0.245653
0.245773 0.245773 0.245773
0.245894 0.245894 0.245894
0.246014 0.246014 0.246014
0.246134 0.246134 0.246134
0.246254 0.246254 0.246254
0.246374 0.246374 0.246374
0.246494 0.246494 0.246494
0.246613 0.246613 0.246613
0.246733 0.246733 0.246733
0.246852 0.246852 0.246852
0.246971 0.246971 0.246971
0.247090 0.247090 0.247090
0.247209 0.247209 0.247209
0.247328 0.247328 0.247328
0.247446 0.247446 0.247446
0.247565 0.247565 0.247565
0.247683 0.247683 0.247683
0.247802 0.247802 0.247802
0.247920 0.247920 0.247920
0.248038 0.248038 0.248038
0.248156 0.248156 0.248156
0.248273 0.248273 0.248273
0.248391 0.248391 0.248391
0.248508 0.248508 0.248508
0.248626 0.248626 0.248626
0.248743 0.248743 0.248743
0.248860 0.248860 0.248860
0.248977 0.248977 0.248977
0.249094 0.249094 0.249094
0.249211 0.249211 0.249211
0.249327 0.249327 0.249327
0.249444 0.249444 0.249444
0.249560 0.249560 0.249560
0.249676 0.249676 0.249676
0.249792 0.249792 0.249792
0.249908 0.249908 0.249908
0.250024 0.250024 0.250024
0.250140 0.250140 0.250140
0.250255 0.250255 0.250255
0.250371 0.250371 0.250371
0.250486 0.250486 0.250486
0.250601 0.250601 0.250601
0.250717 0.250717 0.250717
0.250832 0.250832 0.250832
0.250946 0.250946 0.250946
0.251061 0.251061 0.251061
0.251176 0.251176 0.251176
0.251290 0.251290 0.251290
0.251405 0.251405 0.251405
0.251519 0.251519 0.251519
0.251633 0.251633 0.251633
0.251747 0.251747 0.251747
0.251861 0.251861 0.251861
0.251974 0.251974 0.251974
0.252088 0.252088 0.252088
0.252202 0.252202 0.252202
0.252315 0.252315 0.252315
0.252428 0.252428 0.252428
0.252541 0.252541 0.252541
0.252654 0.252654 0.252654
0.252767 0.252767 0.252767
0.252880 0.252880 0.252880
0.252993 0.252993 0.252993
0.253105 0.253105 0.253105
0.253218 0.253218 0.253218
0.253330 0.253330 0.253330
0.253442 0.253442 0.253442
0.253554 0.253554 0.253554
0.253666 0.253666 0.253666
0.253778 0.253778 0.253778
0.253890 0.253890 0.253890
0.254002 0.254002 0.254002
0.254113 0.254113 0.254113
0.254224 0.254224 0.254224
0.254336 0.254336 0.254336
0.254447 0.254447 0.254447
0.254558 0.254558 0.254558
0.254669 0.254669 0.254669
0.254780 0.254780 0.254780
0.254890 0.254890 0.254890
0.255001 0.255001 0.255001
0.255111 0.255111 0.255111
0.255222 0.255222 0.255222
0.255332 0.255332 0.255332
0.255442 0.255442 0.255442
0.255552 0.255552 0.255552
0.255662 0.255662 0.255662
0.255772 0.255772 0.255772
0.255882 0.255882 0.255882
0.255991 0.255991 0.255991
0.256101 0.256101 0.256101
0.256210 0.256210 0.256210
0.256319 0.256319 0.256319
0.256428 0.256428 0.256428
0.256537 0.256537 0.256537
0.256646 0.256646 0.256646
0.256755 0.256755 0.256755
0.256864 0.256864 0.256864
0.256972 0.256972 0.256972
0.257081 0.257081 0.257081
0.257189 0.257189 0.257189
0.257297 0.257297 0.257297
0.257405 0.257405 0.257405
0.257513 0.257513 0.257513
0.257621 0.257621 0.257621
0.257729 0.257729 0.257729
0.257837 0.257837 0.257837
0.257945 0.257945 0.257945
0.258052 0.258052 0.258052
0.258159 0.258159 0.258159
0.258267 0.258267 0.258267
0.258374 0.258374 0.258374
0.258481 0.258481 0.258481
0.258588 0.258588 0.258588
0.258695 0.258695 0.258695
0.258801 0.258801 0.258801
0.258908 0.258908 0.258908
0.259015 0.259015 0.259015
0.259121 0.259121 0.259121
0.259227 0.259227 0.259227
0.259333 0.259333 0.259333
0.259440 0.259440 0.259440
0.259546 0.259546 0.259546
0.259651 0.259651 0.259651
0.259757 0.259757 0.259757
0.259863 0.259863 0.259863
0.259969 0.259969 0.259969
0.260074 0.260074 0.260074
0.260179 0.260179 0.260179
0.260285 0.260285 0.260285
0.260390 0.260390 0.260390
0.260495 0.260495 0.260495
0.260600 0.260600 0.260600
0.260705 0.260705 0.260705
0.260809 0.260809 0.260809
0.260914 0.260914 0.260914
0.261019 0.261019 0.261019
0.261123 0.261123 0.261123
0.261227 0.261227 0.261227
0.261332 0.261332 0.261332
0.261436 0.261436 0.261436
0.261540 0.261540 0.261540
0.261644 0.261644 0.261644
0.261748 0.261748 0.261748
0.261851 0.261851 0.261851
0.261955 0.261955 0.261955
0.262059 0.262059 0.262059
0.262162 0.262162 0.262162
0.262265 0.262265 0.262265
0.262369 0.262369 0.262369
0.262472 0.262472 0.262472
0.262575 0.262575 0.262575
0.262678 0.262678 0.262678
0.262781 0.262781 0.262781
0.262883 0.262883 0.262883
0.262986 0.262986 0.262986
0.263089 0.263089 0.263089
0.263191 0.263191 0.263191
0.263293 0.263293 0.263293
0.263396 0.263396 0.263396
