Switch.app/Contents/rec709_logC.cube
LUT_3D_SIZE 48
0.062561 0.062561 0.062561
0.082564 0.062561 0.062561
0.105407 0.062561 0.062561
0.128295 0.062561 0.062561
0.150962 0.062561 0.062561
0.173104 0.062561 0.062561
0.193834 0.062561 0.062561
0.213058 0.062561 0.062561
0.231124 0.062561 0.062561
0.248061 0.062561 0.062561
0.263852 0.062561 0.062561
0.278741 0.062561 0.062561
0.292873 0.062561 0.062561
0.306244 0.062561 0.062561
0.318934 0.062561 0.062561
0.331013 0.062561 0.062561
0.342486 0.062561 0.062561
0.353490 0.062561 0.062561
0.364020 0.062561 0.062561
0.374084 0.062561 0.062561
0.383799 0.062561 0.062561
0.393158 0.062561 0.062561
0.402119 0.062561 0.062561
0.410772 0.062561 0.062561
0.419133 0.062561 0.062561
0.427214 0.062561 0.062561
0.435041 0.062561 0.062561
0.442601 0.062561 0.062561
0.449932 0.062561 0.062561
0.457068 0.062561 0.062561
0.464018 0.062561 0.062561
0.470727 0.062561 0.062561
0.477300 0.062561 0.062561
0.485075 0.062561 0.062561
0.493042 0.062561 0.062561
0.500494 0.062561 0.062561
0.508163 0.062561 0.062561
0.516027 0.062561 0.062561
0.524112 0.062561 0.062561
0.532555 0.062561 0.062561
0.541369 0.062561 0.062561
0.550593 0.062561 0.062561
0.560373 0.062561 0.062561
0.570859 0.062561 0.062561
0.582097 0.062561 0.062561
0.594569 0.062561 0.062561
0.608399 0.062561 0.062561
0.624005 0.062561 0.062561
0.062561 0.082564 0.062561
0.082564 0.082564 0.062561
0.105407 0.082564 0.062561
0.128295 0.082564 0.062561
0.150962 0.082564 0.062561
0.173104 0.082564 0.062561
0.193834 0.082564 0.062561
0.213058 0.082564 0.062561
0.231124 0.082564 0.062561
0.248061 0.082564 0.062561
0.263852 0.082564 0.062561
0.278741 0.082564 0.062561
0.292873 0.082564 0.062561
0.306244 0.082564 0.062561
0.318934 0.082564 0.062561
0.331013 0.082564 0.062561
0.342486 0.082564 0.062561
0.353490 0.082564 0.062561
0.364020 0.082564 0.062561
0.374084 0.082564 0.062561
0.383799 0.082564 0.062561
0.393158 0.082564 0.062561
0.402119 0.082564 0.062561
0.410772 0.082564 0.062561
0.419133 0.082564 0.062561
0.427214 0.082564 0.062561
0.435041 0.082564 0.062561
0.442601 0.082564 0.062561
0.449932 0.082564 0.062561
0.457068 0.082564 0.062561
0.464018 0.082564 0.062561
0.470727 0.082564 0.062561
0.477300 0.082564 0.062561
0.485075 0.082564 0.062561
0.493042 0.082564 0.062561
0.500494 0.082564 0.062561
0.508163 0.082564 0.062561
0.516027 0.082564 0.062561
0.524112 0.082564 0.062561
0.532555 0.082564 0.062561
0.541369 0.082564 0.062561
0.550593 0.082564 0.062561
0.560373 0.082564 0.062561
0.570859 0.082564 0.062561
0.582097 0.082564 0.062561
0.594569 0.082564 0.062561
0.608399 0.082564 0.062561
0.624005 0.082564 0.062561
0.062561 0.105407 0.062561
0.082564 0.105407 0.062561
0.105407 0.105407 0.062561
0.128295 0.105407 0.062561
0.150962 0.105407 0.062561
0.173104 0.105407 0.062561
0.193834 0.105407 0.062561
0.213058 0.105407 0.062561
0.231124 0.105407 0.062561
0.248061 0.105407 0.062561
0.263852 0.105407 0.062561
0.278741 0.105407 0.062561
0.292873 0.105407 0.062561
0.306244 0.105407 0.062561
0.318934 0.105407 0.062561
0.331013 0.105407 0.062561
0.342486 0.105407 0.062561
0.353490 0.105407 0.062561
0.364020 0.105407 0.062561
0.374084 0.105407 0.062561
0.383799 0.105407 0.062561
0.393158 0.105407 0.062561
0.402119 0.105407 0.062561
0.410772 0.105407 0.062561
0.419133 0.105407 0.062561
0.427214 0.105407 0.062561
0.435041 0.105407 0.062561
0.442601 0.105407 0.062561
0.449932 0.105407 0.062561
0.457068 0.105407 0.062561
0.464018 0.105407 0.062561
0.470727 0.105407 0.062561
0.477300 0.105407 0.062561
0.485075 0.105407 0.062561
0.493042 0.105407 0.062561
0.500494 0.105407 0.062561
0.508163 0.105407 0.062561
0.516027 0.105407 0.062561
0.524112 0.105407 0.062561
0.532555 0.105407 0.062561
0.541369 0.105407 0.062561
0.550593 0.105407 0.062561
0.560373 0.105407 0.062561
0.570859 0.105407 0.062561
0.582097 0.105407 0.062561
0.594569 0.105407 0.062561
0.608399 0.105407 0.062561
0.624005 0.105407 0.062561
0.062561 0.128295 0.062561
0.082564 0.128295 0.062561
0.105407 0.128295 0.062561
0.128295 0.128295 0.062561
0.150962 0.128295 0.062561
0.173104 0.128295 0.062561
0.193834 0.128295 0.062561
0.213058 0.128295 0.062561
0.231124 0.128295 0.062561
0.248061 0.128295 0.062561
0.263852 0.128295 0.062561
0.278741 0.128295 0.062561
0.292873 0.128295 0.062561
0.306244 0.128295 0.062561
0.318934 0.128295 0.062561
0.331013 0.128295 0.062561
0.342486 0.128295 0.062561
0.353490 0.128295 0.062561
0.364020 0.128295 0.062561
0.374084 0.128295 0.062561
0.383799 0.128295 0.062561
0.393158 0.128295 0.062561
0.402119 0.128295 0.062561
0.410772 0.128295 0.062561
0.419133 0.128295 0.062561
0.427214 0.128295 0.062561
0.435041 0.128295 0.062561
0.442601 0.128295 0.062561
0.449932 0.128295 0.062561
0.457068 0.128295 0.062561
0.464018 0.128295 0.062561
0.470727 0.128295 0.062561
0.477300 0.128295 0.062561
0.485075 0.128295 0.062561
0.493042 0.128295 0.062561
0.500494 0.128295 0.062561
0.508163 0.128295 0.062561
0.516027 0.128295 0.062561
0.524112 0.128295 0.062561
0.532555 0.128295 0.062561
0.541369 0.128295 0.062561
0.550593 0.128295 0.062561
0.560373 0.128295 0.062561
0.570859 0.128295 0.062561
0.582097 0.128295 0.062561
0.594569 0.128295 0.062561
0.608399 0.128295 0.062561
0.624005 0.128295 0.062561
0.062561 0.150962 0.062561
0.082564 0.150962 0.062561
0.105407 0.150962 0.062561
0.128295 0.150962 0.062561
0.150962 0.150962 0.062561
0.173104 0.150962 0.062561
0.193834 0.150962 0.062561
0.213058 0.150962 0.062561
0.231124 0.150962 0.062561
0.248061 0.150962 0.062561
0.263852 0.150962 0.062561
0.278741 0.150962 0.062561
0.292873 0.150962 0.062561
0.306244 0.150962 0.062561
0.318934 0.150962 0.062561
0.331013 0.150962 0.062561
0.342486 0.150962 0.062561
0.353490 0.150962 0.062561
0.364020 0.150962 0.062561
0.374084 0.150962 0.062561
0.383799 0.150962 0.062561
0.393158 0.150962 0.062561
0.402119 0.150962 0.062561
0.410772 0.150962 0.062561
0.419133 0.150962 0.062561
0.427214 0.150962 0.062561
0.435041 0.150962 0.062561
0.442601 0.150962 0.062561
0.449932 0.150962 0.062561
0.457068 0.150962 0.062561
0.464018 0.150962 0.062561
0.470727 0.150962 0.062561
0.477300 0.150962 0.062561
0.485075 0.150962 0.062561
0.493042 0.150962 0.062561
0.500494 0.150962 0.062561
0.508163 0.150962 0.062561
0.516027 0.150962 0.062561
0.524112 0.150962 0.062561
0.532555 0.150962 0.062561
0.541369 0.150962 0.062561
0.550593 0.150962 0.062561
0.560373 0.150962 0.062561
0.570859 0.150962 0.062561
0.582097 0.150962 0.062561
0.594569 0.150962 0.062561
0.608399 0.150962 0.062561
0.624005 0.150962 0.062561
0.062561 0.173104 0.062561
0.082564 0.173104 0.062561
0.105407 0.173104 0.062561
0.128295 0.173104 0.062561
0.150962 0.173104 0.062561
0.173104 0.173104 0.062561
0.193834 0.173104 0.062561
0.213058 0.173104 0.062561
0.231124 0.173104 0.062561
0.248061 0.173104 0.062561
0.263852 0.173104 0.062561
0.278741 0.173104 0.062561
0.292873 0.173104 0.062561
0.306244 0.173104 0.062561
0.318934 0.173104 0.062561
0.331013 0.173104 0.062561
0.342486 0.173104 0.062561
0.353490 0.173104 0.062561
0.364020 0.173104 0.062561
0.374084 0.173104 0.062561
0.383799 0.173104 0.062561
0.393158 0.173104 0.062561
0.402119 0.173104 0.062561
0.410772 0.173104 0.062561
0.419133 0.173104 0.062561
0.427214 0.173104 0.062561
0.435041 0.173104 0.062561
0.442601 0.173104 0.062561
0.449932 0.173104 0.062561
0.457068 0.173104 0.062561
0.464018 0.173104 0.062561
0.470727 0.173104 0.062561
0.477300 0.173104 0.062561
0.485075 0.173104 0.062561
0.493042 0.173104 0.062561
0.500494 0.173104 0.062561
0.508163 0.173104 0.062561
0.516027 0.173104 0.062561
0.524112 0.173104 0.062561
0.532555 0.173104 0.062561
0.541369 0.173104 0.062561
0.550593 0.173104 0.062561
0.560373 0.173104 0.062561
0.570859 0.173104 0.062561
0.582097 0.173104 0.062561
0.594569 0.173104 0.062561
0.608399 0.173104 0.062561
0.624005 0.173104 0.062561
0.062561 0.193834 0.062561
0.082564 0.193834 0.062561
0.105407 0.193834 0.062561
0.128295 0.193834 0.062561
0.150962 0.193834 0.062561
0.173104 0.193834 0.062561
0.193834 0.193834 0.062561
0.213058 0.193834 0.062561
0.231124 0.193834 0.062561
0.248061 0.193834 0.062561
0.263852 0.193834 0.062561
0.278741 0.193834 0.062561
0.292873 0.193834 0.062561
0.306244 0.193834 0.062561
0.318934 0.193834 0.062561
0.331013 0.193834 0.062561
0.342486 0.193834 0.062561
0.353490 0.193834 0.062561
0.364020 0.193834 0.062561
0.374084 0.193834 0.062561
0.383799 0.193834 0.062561
0.393158 0.193834 0.062561
0.402119 0.193834 0.062561
0.410772 0.193834 0.062561
0.419133 0.193834 0.062561
0.427214 0.193834 0.062561
0.435041 0.193834 0.062561
0.442601 0.193834 0.062561
0.449932 0.193834 0.062561
0.457068 0.193834 0.062561
0.464018 0.193834 0.062561
0.470727 0.193834 0.062561
0.477300 0.193834 0.062561
0.485075 0.193834 0.062561
0.493042 0.193834 0.062561
0.500494 0.193834 0.062561
0.508163 0.193834 0.062561
0.516027 0.193834 0.062561
0.524112 0.193834 0.062561
0.532555 0.193834 0.062561
0.541369 0.193834 0.062561
0.550593 0.193834 0.062561
0.560373 0.193834 0.062561
0.570859 0.193834 0.062561
0.582097 0.193834 0.062561
0.594569 0.193834 0.062561
0.608399 0.193834 0.062561
0.624005 0.193834 0.062561
0.062561 0.213058 0.062561
0.082564 0.213058 0.062561
0.105407 0.213058 0.062561
0.128295 0.213058 0.062561
0.150962 0.213058 0.062561
0.173104 0.213058 0.062561
0.193834 0.213058 0.062561
0.213058 0.213058 0.062561
0.231124 0.213058 0.062561
0.248061 0.213058 0.062561
0.263852 0.213058 0.062561
0.278741 0.213058 0.062561
0.292873 0.213058 0.062561
0.306244 0.213058 0.062561
0.318934 0.213058 0.062561
0.331013 0.213058 0.062561
0.342486 0.213058 0.062561
0.353490 0.213058 0.062561
0.364020 0.213058 0.062561
0.374084 0.213058 0.062561
0.383799 0.213058 0.062561
0.393158 0.213058 0.062561
0.402119 0.213058 0.062561
0.410772 0.213058 0.062561
0.419133 0.213058 0.062561
0.427214 0.213058 0.062561
0.435041 0.213058 0.062561
0.442601 0.213058 0.062561
0.449932 0.213058 0.062561
0.457068 0.213058 0.062561
0.464018 0.213058 0.062561
0.470727 0.213058 0.062561
0.477300 0.213058 0.062561
0.485075 0.213058 0.062561
0.493042 0.213058 0.062561
0.500494 0.213058 0.062561
0.508163 0.213058 0.062561
0.516027 0.213058 0.062561
0.524112 0.213058 0.062561
0.532555 0.213058 0.062561
0.541369 0.213058 0.062561
0.550593 0.213058 0.062561
0.560373 0.213058 0.062561
0.570859 0.213058 0.062561
0.582097 0.213058 0.062561
0.594569 0.213058 0.062561
0.608399 0.213058 0.062561
0.624005 0.213058 0.062561
0.062561 0.231124 0.062561
0.082564 0.231124 0.062561
0.105407 0.231124 0.062561
0.128295 0.231124 0.062561
0.150962 0.231124 0.062561
0.173104 0.231124 0.062561
0.193834 0.231124 0.062561
0.213058 0.231124 0.062561
0.231124 0.231124 0.062561
0.248061 0.231124 0.062561
0.263852 0.231124 0.062561
0.278741 0.231124 0.062561
0.292873 0.231124 0.062561
0.306244 0.231124 0.062561
0.318934 0.231124 0.062561
0.331013 0.231124 0.062561
0.342486 0.231124 0.062561
0.353490 0.231124 0.062561
0.364020 0.231124 0.062561
0.374084 0.231124 0.062561
0.383799 0.231124 0.062561
0.393158 0.231124 0.062561
0.402119 0.231124 0.062561
0.410772 0.231124 0.062561
0.419133 0.231124 0.062561
0.427214 0.231124 0.062561
0.435041 0.231124 0.062561
0.442601 0.231124 0.062561
0.449932 0.231124 0.062561
0.457068 0.231124 0.062561
0.464018 0.231124 0.062561
0.470727 0.231124 0.062561
0.477300 0.231124 0.062561
0.485075 0.231124 0.062561
0.493042 0.231124 0.062561
0.500494 0.231124 0.062561
0.508163 0.231124 0.062561
0.516027 0.231124 0.062561
0.524112 0.231124 0.062561
0.532555 0.231124 0.062561
0.541369 0.231124 0.062561
0.550593 0.231124 0.062561
0.560373 0.231124 0.062561
0.570859 0.231124 0.062561
0.582097 0.231124 0.062561
0.594569 0.231124 0.062561
0.608399 0.231124 0.062561
0.624005 0.231124 0.062561
0.062561 0.248061 0.062561
0.082564 0.248061 0.062561
0.105407 0.248061 0.062561
0.128295 0.248061 0.062561
0.150962 0.248061 0.062561
0.173104 0.248061 0.062561
0.193834 0.248061 0.062561
0.213058 0.248061 0.062561
0.231124 0.248061 0.062561
0.248061 0.248061 0.062561
0.263852 0.248061 0.062561
0.278741 0.248061 0.062561
0.292873 0.248061 0.062561
0.306244 0.248061 0.062561
0.318934 0.248061 0.062561
0.331013 0.248061 0.062561
0.342486 0.248061 0.062561
0.353490 0.248061 0.062561
0.364020 0.248061 0.062561
0.374084 0.248061 0.062561
0.383799 0.248061 0.062561
0.393158 0.248061 0.062561
0.402119 0.248061 0.062561
0.410772 0.248061 0.062561
0.419133 0.248061 0.062561
0.427214 0.248061 0.062561
0.435041 0.248061 0.062561
0.442601 0.248061 0.062561
0.449932 0.248061 0.062561
0.457068 0.248061 0.062561
0.464018 0.248061 0.062561
0.470727 0.248061 0.062561
0.477300 0.248061 0.062561
0.485075 0.248061 0.062561
0.493042 0.248061 0.062561
0.500494 0.248061 0.062561
0.508163 0.248061 0.062561
0.516027 0.248061 0.062561
0.524112 0.248061 0.062561
0.532555 0.248061 0.062561
0.541369 0.248061 0.062561
0.550593 0.248061 0.062561
0.560373 0.248061 0.062561
0.570859 0.248061 0.062561
0.582097 0.248061 0.062561
0.594569 0.248061 0.062561
0.608399 0.248061 0.062561
0.624005 0.248061 0.062561
0.062561 0.263852 0.062561
0.082564 0.263852 0.062561
0.105407 0.263852 0.062561
0.128295 0.263852 0.062561
0.150962 0.263852 0.062561
0.173104 0.263852 0.062561
0.193834 0.263852 0.062561
0.213058 0.263852 0.062561
0.231124 0.263852 0.062561
0.248061 0.263852 0.062561
0.263852 0.263852 0.062561
0.278741 0.263852 0.062561
0.292873 0.263852 0.062561
0.306244 0.263852 0.062561
0.318934 0.263852 0.062561
0.331013 0.263852 0.062561
0.342486 0.263852 0.062561
0.353490 0.263852 0.062561
0.364020 0.263852 0.062561
0.374084 0.263852 0.062561
0.383799 0.263852 0.062561
0.393158 0.263852 0.062561
0.402119 0.263852 0.062561
0.410772 0.263852 0.062561
0.419133 0.263852 0.062561
0.427214 0.263852 0.062561
0.435041 0.263852 0.062561
0.442601 0.263852 0.062561
0.449932 0.263852 0.062561
0.457068 0.263852 0.062561
0.464018 0.263852 0.062561
0.470727 0.263852 0.062561
0.477300 0.263852 0.062561
0.485075 0.263852 0.062561
0.493042 0.263852 0.062561
0.500494 0.263852 0.062561
0.508163 0.263852 0.062561
0.516027 0.263852 0.062561
0.524112 0.263852 0.062561
0.532555 0.263852 0.062561
0.541369 0.263852 0.062561
0.550593 0.263852 0.062561
0.560373 0.263852 0.062561
0.570859 0.263852 0.062561
0.582097 0.263852 0.062561
0.594569 0.263852 0.062561
0.608399 0.263852 0.062561
0.624005 0.263852 0.062561
0.062561 0.278741 0.062561
0.082564 0.278741 0.062561
0.105407 0.278741 0.062561
0.128295 0.278741 0.062561
0.150962 0.278741 0.062561
0.173104 0.278741 0.062561
0.193834 0.278741 0.062561
0.213058 0.278741 0.062561
0.231124 0.278741 0.062561
0.248061 0.278741 0.062561
0.263852 0.278741 0.062561
0.278741 0.278741 0.062561
0.292873 0.278741 0.062561
0.306244 0.278741 0.062561
0.318934 0.278741 0.062561
0.331013 0.278741 0.062561
0.342486 0.278741 0.062561
0.353490 0.278741 0.062561
0.364020 0.278741 0.062561
0.374084 0.278741 0.062561
0.383799 0.278741 0.062561
0.393158 0.278741 0.062561
0.402119 0.278741 0.062561
0.410772 0.278741 0.062561
0.419133 0.278741 0.062561
0.427214 0.278741 0.062561
0.435041 0.278741 0.062561
0.442601 0.278741 0.062561
0.449932 0.278741 0.062561
0.457068 0.278741 0.062561
0.464018 0.278741 0.062561
0.470727 0.278741 0.062561
0.477300 0.278741 0.062561
0.485075 0.278741 0.062561
0.493042 0.278741 0.062561
0.500494 0.278741 0.062561
0.508163 0.278741 0.062561
0.516027 0.278741 0.062561
0.524112 0.278741 0.062561
0.532555 0.278741 0.062561
0.541369 0.278741 0.062561
0.550593 0.278741 0.062561
0.560373 0.278741 0.062561
0.570859 0.278741 0.062561
0.582097 0.278741 0.062561
0.594569 0.278741 0.062561
0.608399 0.278741 0.062561
0.624005 0.278741 0.062561
0.062561 0.292873 0.062561
0.082564 0.292873 0.062561
0.105407 0.292873 0.062561
0.128295 0.292873 0.062561
0.150962 0.292873 0.062561
0.173104 0.292873 0.062561
0.193834 0.292873 0.062561
0.213058 0.292873 0.062561
0.231124 0.292873 0.062561
0.248061 0.292873 0.062561
0.263852 0.292873 0.062561
0.278741 0.292873 0.062561
0.292873 0.292873 0.062561
0.306244 0.292873 0.062561
0.318934 0.292873 0.062561
0.331013 0.292873 0.062561
0.342486 0.292873 0.062561
0.353490 0.292873 0.062561
0.364020 0.292873 0.062561
0.374084 0.292873 0.062561
0.383799 0.292873 0.062561
0.393158 0.292873 0.062561
0.402119 0.292873 0.062561
0.410772 0.292873 0.062561
0.419133 0.292873 0.062561
0.427214 0.292873 0.062561
0.435041 0.292873 0.062561
0.442601 0.292873 0.062561
0.449932 0.292873 0.062561
0.457068 0.292873 0.062561
0.464018 0.292873 0.062561
0.470727 0.292873 0.062561
0.477300 0.292873 0.062561
0.485075 0.292873 0.062561
0.493042 0.292873 0.062561
0.500494 0.292873 0.062561
0.508163 0.292873 0.062561
0.516027 0.292873 0.062561
0.524112 0.292873 0.062561
0.532555 0.292873 0.062561
0.541369 0.292873 0.062561
0.550593 0.292873 0.062561
0.560373 0.292873 0.062561
0.570859 0.292873 0.062561
0.582097 0.292873 0.062561
0.594569 0.292873 0.062561
0.608399 0.292873 0.062561
0.624005 0.292873 0.062561
0.062561 0.306244 0.062561
0.082564 0.306244 0.062561
0.105407 0.306244 0.062561
0.128295 0.306244 0.062561
0.150962 0.306244 0.062561
0.173104 0.306244 0.062561
0.193834 0.306244 0.062561
0.213058 0.306244 0.062561
0.231124 0.306244 0.062561
0.248061 0.306244 0.062561
0.263852 0.306244 0.062561
0.278741 0.306244 0.062561
0.292873 0.306244 0.062561
0.306244 0.306244 0.062561
0.318934 0.306244 0.062561
0.331013 0.306244 0.062561
0.342486 0.306244 0.062561
0.353490 0.306244 0.062561
0.364020 0.306244 0.062561
0.374084 0.306244 0.062561
0.383799 0.306244 0.062561
0.393158 0.306244 0.062561
0.402119 0.306244 0.062561
0.410772 0.306244 0.062561
0.419133 0.306244 0.062561
0.427214 0.306244 0.062561
0.435041 0.306244 0.062561
0.442601 0.306244 0.062561
0.449932 0.306244 0.062561
0.457068 0.306244 0.062561
0.464018 0.306244 0.062561
0.470727 0.306244 0.062561
0.477300 0.306244 0.062561
0.485075 0.306244 0.062561
0.493042 0.306244 0.062561
0.500494 0.306244 0.062561
0.508163 0.306244 0.062561
0.516027 0.306244 0.062561
0.524112 0.306244 0.062561
0.532555 0.306244 0.062561
0.541369 0.306244 0.062561
0.550593 0.306244 0.062561
0.560373 0.306244 0.062561
0.570859 0.306244 0.062561
0.582097 0.306244 0.062561
0.594569 0.306244 0.062561
0.608399 0.306244 0.062561
0.624005 0.306244 0.062561
0.062561 0.318934 0.062561
0.082564 0.318934 0.062561
0.105407 0.318934 0.062561
0.128295 0.318934 0.062561
0.150962 0.318934 0.062561
0.173104 0.318934 0.062561
0.193834 0.318934 0.062561
0.213058 0.318934 0.062561
0.231124 0.318934 0.062561
0.248061 0.318934 0.062561
0.263852 0.318934 0.062561
0.278741 0.318934 0.062561
0.292873 0.318934 0.062561
0.306244 0.318934 0.062561
0.318934 0.318934 0.062561
0.331013 0.318934 0.062561
0.342486 0.318934 0.062561
0.353490 0.318934 0.062561
0.364020 0.318934 0.062561
0.374084 0.318934 0.062561
0.383799 0.318934 0.062561
0.393158 0.318934 0.062561
0.402119 0.318934 0.062561
0.410772 0.318934 0.062561
0.419133 0.318934 0.062561
0.427214 0.318934 0.062561
0.435041 0.318934 0.062561
0.442601 0.318934 0.062561
0.449932 0.318934 0.062561
0.457068 0.318934 0.062561
0.464018 0.318934 0.062561
0.470727 0.318934 0.062561
0.477300 0.318934 0.062561
0.485075 0.318934 0.062561
0.493042 0.318934 0.062561
0.500494 0.318934 0.062561
0.508163 0.318934 0.062561
0.516027 0.318934 0.062561
0.524112 0.318934 0.062561
0.532555 0.318934 0.062561
0.541369 0.318934 0.062561
0.550593 0.318934 0.062561
0.560373 0.318934 0.062561
0.570859 0.318934 0.062561
0.582097 0.318934 0.062561
0.594569 0.318934 0.062561
0.608399 0.318934 0.062561
0.624005 0.318934 0.062561
0.062561 0.331013 0.062561
0.082564 0.331013 0.062561
0.105407 0.331013 0.062561
0.128295 0.331013 0.062561
0.150962 0.331013 0.062561
0.173104 0.331013 0.062561
0.193834 0.331013 0.062561
0.213058 0.331013 0.062561
0.231124 0.331013 0.062561
0.248061 0.331013 0.062561
0.263852 0.331013 0.062561
0.278741 0.331013 0.062561
0.292873 0.331013 0.062561
0.306244 0.331013 0.062561
0.318934 0.331013 0.062561
0.331013 0.331013 0.062561
0.342486 0.331013 0.062561
0.353490 0.331013 0.062561
0.364020 0.331013 0.062561
0.374084 0.331013 0.062561
0.383799 0.331013 0.062561
0.393158 0.331013 0.062561
0.402119 0.331013 0.062561
0.410772 0.331013 0.062561
0.419133 0.331013 0.062561
0.427214 0.331013 0.062561
0.435041 0.331013 0.062561
0.442601 0.331013 0.062561
0.449932 0.331013 0.062561
0.457068 0.331013 0.062561
0.464018 0.331013 0.062561
0.470727 0.331013 0.062561
0.477300 0.331013 0.062561
0.485075 0.331013 0.062561
0.493042 0.331013 0.062561
0.500494 0.331013 0.062561
0.508163 0.331013 0.062561
0.516027 0.331013 0.062561
0.524112 0.331013 0.062561
0.532555 0.331013 0.062561
0.541369 0.331013 0.062561
0.550593 0.331013 0.062561
0.560373 0.331013 0.062561
0.570859 0.331013 0.062561
0.582097 0.331013 0.062561
0.594569 0.331013 0.062561
0.608399 0.331013 0.062561
0.624005 0.331013 0.062561
0.062561 0.342486 0.062561
0.082564 0.342486 0.062561
0.105407 0.342486 0.062561
0.128295 0.342486 0.062561
0.150962 0.342486 0.062561
0.173104 0.342486 0.062561
0.193834 0.342486 0.062561
0.213058 0.342486 0.062561
0.231124 0.342486 0.062561
0.248061 0.342486 0.062561
0.263852 0.342486 0.062561
0.278741 0.342486 0.062561
0.292873 0.342486 0.062561
0.306244 0.342486 0.062561
0.318934 0.342486 0.062561
0.331013 0.342486 0.062561
0.342486 0.342486 0.062561
0.353490 0.342486 0.062561
0.364020 0.342486 0.062561
0.374084 0.342486 0.062561
0.383799 0.342486 0.062561
0.393158 0.342486 0.062561
0.402119 0.342486 0.062561
0.410772 0.342486 0.062561
0.419133 0.342486 0.062561
0.427214 0.342486 0.062561
0.435041 0.342486 0.062561
0.442601 0.342486 0.062561
0.449932 0.342486 0.062561
0.457068 0.342486 0.062561
0.464018 0.342486 0.062561
0.470727 0.342486 0.062561
0.477300 0.342486 0.062561
0.485075 0.342486 0.062561
0.493042 0.342486 0.062561
0.500494 0.342486 0.062561
0.508163 0.342486 0.062561
0.516027 0.342486 0.062561
0.524112 0.342486 0.062561
0.532555 0.342486 0.062561
0.541369 0.342486 0.062561
0.550593 0.342486 0.062561
0.560373 0.342486 0.062561
0.570859 0.342486 0.062561
0.582097 0.342486 0.062561
0.594569 0.342486 0.062561
0.608399 0.342486 0.062561
0.624005 0.342486 0.062561
0.062561 0.353490 0.062561
0.082564 0.353490 0.062561
0.105407 0.353490 0.062561
0.128295 0.353490 0.062561
0.150962 0.353490 0.062561
0.173104 0.353490 0.062561
0.193834 0.353490 0.062561
0.213058 0.353490 0.062561
0.231124 0.353490 0.062561
0.248061 0.353490 0.062561
0.263852 0.353490 0.062561
0.278741 0.353490 0.062561
0.292873 0.353490 0.062561
0.306244 0.353490 0.062561
0.318934 0.353490 0.062561
0.331013 0.353490 0.062561
0.342486 0.353490 0.062561
0.353490 0.353490 0.062561
0.364020 0.353490 0.062561
0.374084 0.353490 0.062561
0.383799 0.353490 0.062561
0.393158 0.353490 0.062561
0.402119 0.353490 0.062561
0.410772 0.353490 0.062561
0.419133 0.353490 0.062561
0.427214 0.353490 0.062561
0.435041 0.353490 0.062561
0.442601 0.353490 0.062561
0.449932 0.353490 0.062561
0.457068 0.353490 0.062561
0.464018 0.353490 0.062561
0.470727 0.353490 0.062561
0.477300 0.353490 0.062561
0.485075 0.353490 0.062561
0.493042 0.353490 0.062561
0.500494 0.353490 0.062561
0.508163 0.353490 0.062561
0.516027 0.353490 0.062561
0.524112 0.353490 0.062561
0.532555 0.353490 0.062561
0.541369 0.353490 0.062561
0.550593 0.353490 0.062561
0.560373 0.353490 0.062561
0.570859 0.353490 0.062561
0.582097 0.353490 0.062561
0.594569 0.353490 0.062561
0.608399 0.353490 0.062561
0.624005 0.353490 0.062561
0.062561 0.364020 0.062561
0.082564 0.364020 0.062561
0.105407 0.364020 0.062561
0.128295 0.364020 0.062561
0.150962 0.364020 0.062561
0.173104 0.364020 0.062561
0.193834 0.364020 0.062561
0.213058 0.364020 0.062561
0.231124 0.364020 0.062561
0.248061 0.364020 0.062561
0.263852 0.364020 0.062561
0.278741 0.364020 0.062561
0.292873 0.364020 0.062561
0.306244 0.364020 0.062561
0.318934 0.364020 0.062561
0.331013 0.364020 0.062561
0.342486 0.364020 0.062561
0.353490 0.364020 0.062561
0.364020 0.364020 0.062561
0.374084 0.364020 0.062561
0.383799 0.364020 0.062561
0.393158 0.364020 0.062561
0.402119 0.364020 0.062561
0.410772 0.364020 0.062561
