Switch.app/Contents/rec709_logC.cube
LUT_3D_SIZE 8
DOMAIN_MIN 0.000000 0.000000 0.000000
DOMAIN_MAX 0.893617 0.893617 0.893617
0.062561 0.062561 0.062561
0.193834 0.062561 0.062561
0.292873 0.062561 0.062561
0.364020 0.062561 0.062561
0.419133 0.062561 0.062561
0.464018 0.062561 0.062561
0.508163 0.062561 0.062561
0.560373 0.062561 0.062561
0.062561 0.193834 0.062561
0.193834 0.193834 0.062561
0.292873 0.193834 0.062561
0.364020 0.193834 0.062561
0.419133 0.193834 0.062561
0.464018 0.193834 0.062561
0.508163 0.193834 0.062561
0.560373 0.193834 0.062561
0.062561 0.292873 0.062561
0.193834 0.292873 0.062561
0.292873 0.292873 0.062561
0.364020 0.292873 0.062561
0.419133 0.292873 0.062561
0.464018 0.292873 0.062561
0.508163 0.292873 0.062561
0.560373 0.292873 0.062561
0.062561 0.364020 0.062561
0.193834 0.364020 0.062561
0.292873 0.364020 0.062561
0.364020 0.364020 0.062561
0.419133 0.364020 0.062561
0.464018 0.364020 0.062561
0.508163 0.364020 0.062561
0.560373 0.364020 0.062561
0.062561 0.419133 0.062561
0.193834 0.419133 0.062561
0.292873 0.419133 0.062561
0.364020 0.419133 0.062561
0.419133 0.419133 0.062561
0.464018 0.419133 0.062561
0.508163 0.419133 0.062561
0.560373 0.419133 0.062561
0.062561 0.464018 0.062561
0.193834 0.464018 0.062561
0.292873 0.464018 0.062561
0.364020 0.464018 0.062561
0.419133 0.464018 0.062561
0.464018 0.464018 0.062561
0.508163 0.464018 0.062561
0.560373 0.464018 0.062561
0.062561 0.508163 0.062561
0.193834 0.508163 0.062561
0.292873 0.508163 0.062561
0.364020 0.508163 0.062561
0.419133 0.508163 0.062561
0.464018 0.508163 0.062561
0.508163 0.508163 0.062561
0.560373 0.508163 0.062561
0.062561 0.560373 0.062561
0.193834 0.560373 0.062561
0.292873 0.560373 0.062561
0.364020 0.560373 0.062561
0.419133 0.560373 0.062561
0.464018 0.560373 0.062561
0.508163 0.560373 0.062561
0.560373 0.560373 0.062561
0.062561 0.062561 0.193834
0.193834 0.062561 0.193834
0.292873 0.062561 0.193834
0.364020 0.062561 0.193834
0.419133 0.062561 0.193834
0.464018 0.062561 0.193834
0.508163 0.062561 0.193834
0.560373 0.062561 0.193834
0.062561 0.193834 0.193834
0.193834 0.193834 0.193834
0.292873 0.193834 0.193834
0.364020 0.193834 0.193834
0.419133 0.193834 0.193834
0.464018 0.193834 0.193834
0.508163 0.193834 0.193834
0.560373 0.193834 0.193834
0.062561 0.292873 0.193834
0.193834 0.292873 0.193834
0.292873 0.292873 0.193834
0.364020 0.292873 0.193834
0.419133 0.292873 0.193834
0.464018 0.292873 0.193834
0.508163 0.292873 0.193834
0.560373 0.292873 0.193834
0.062561 0.364020 0.193834
0.193834 0.364020 0.193834
0.292873 0.364020 0.193834
0.364020 0.364020 0.193834
0.419133 0.364020 0.193834
0.464018 0.364020 0.193834
0.508163 0.364020 0.193834
0.560373 0.364020 0.193834
0.062561 0.419133 0.193834
0.193834 0.419133 0.193834
0.292873 0.419133 0.193834
0.364020 0.419133 0.193834
0.419133 0.419133 0.193834
0.464018 0.419133 0.193834
0.508163 0.419133 0.193834
0.560373 0.419133 0.193834
0.062561 0.464018 0.193834
0.193834 0.464018 0.193834
0.292873 0.464018 0.193834
0.364020 0.464018 0.193834
0.419133 0.464018 0.193834
0.464018 0.464018 0.193834
0.508163 0.464018 0.193834
0.560373 0.464018 0.193834
0.062561 0.508163 0.193834
0.193834 0.508163 0.193834
0.292873 0.508163 0.193834
0.364020 0.508163 0.193834
0.419133 0.508163 0.193834
0.464018 0.508163 0.193834
0.508163 0.508163 0.193834
0.560373 0.508163 0.193834
0.062561 0.560373 0.193834
0.193834 0.560373 0.193834
0.292873 0.560373 0.193834
0.364020 0.560373 0.193834
0.419133 0.560373 0.193834
0.464018 0.560373 0.193834
0.508163 0.560373 0.193834
0.560373 0.560373 0.193834
0.062561 0.062561 0.292873
0.193834 0.062561 0.292873
0.292873 0.062561 0.292873
0.364020 0.062561 0.292873
0.419133 0.062561 0.292873
0.464018 0.062561 0.292873
0.508163 0.062561 0.292873
0.560373 0.062561 0.292873
0.062561 0.193834 0.292873
0.193834 0.193834 0.292873
0.292873 0.193834 0.292873
0.364020 0.193834 0.292873
0.419133 0.193834 0.292873
0.464018 0.193834 0.292873
0.508163 0.193834 0.292873
0.560373 0.193834 0.292873
0.062561 0.292873 0.292873
0.193834 0.292873 0.292873
0.292873 0.292873 0.292873
0.364020 0.292873 0.292873
0.419133 0.292873 0.292873
0.464018 0.292873 0.292873
0.508163 0.292873 0.292873
0.560373 0.292873 0.292873
0.062561 0.364020 0.292873
0.193834 0.364020 0.292873
0.292873 0.364020 0.292873
0.364020 0.364020 0.292873
0.419133 0.364020 0.292873
0.464018 0.364020 0.292873
0.508163 0.364020 0.292873
0.560373 0.364020 0.292873
0.062561 0.419133 0.292873
0.193834 0.419133 0.292873
0.292873 0.419133 0.292873
0.364020 0.419133 0.292873
0.419133 0.419133 0.292873
0.464018 0.419133 0.292873
0.508163 0.419133 0.292873
0.560373 0.419133 0.292873
0.062561 0.464018 0.292873
0.193834 0.464018 0.292873
0.292873 0.464018 0.292873
0.364020 0.464018 0.292873
0.419133 0.464018 0.292873
0.464018 0.464018 0.292873
0.508163 0.464018 0.292873
0.560373 0.464018 0.292873
0.062561 0.508163 0.292873
0.193834 0.508163 0.292873
0.292873 0.508163 0.292873
0.364020 0.508163 0.292873
0.419133 0.508163 0.292873
0.464018 0.508163 0.292873
0.508163 0.508163 0.292873
0.560373 0.508163 0.292873
0.062561 0.560373 0.292873
0.193834 0.560373 0.292873
0.292873 0.560373 0.292873
0.364020 0.560373 0.292873
0.419133 0.560373 0.292873
0.464018 0.560373 0.292873
0.508163 0.560373 0.292873
0.560373 0.560373 0.292873
0.062561 0.062561 0.364020
0.193834 0.062561 0.364020
0.292873 0.062561 0.364020
0.364020 0.062561 0.364020
0.419133 0.062561 0.364020
0.464018 0.062561 0.364020
0.508163 0.062561 0.364020
0.560373 0.062561 0.364020
0.062561 0.193834 0.364020
0.193834 0.193834 0.364020
0.292873 0.193834 0.364020
0.364020 0.193834 0.364020
0.419133 0.193834 0.364020
0.464018 0.193834 0.364020
0.508163 0.193834 0.364020
0.560373 0.193834 0.364020
0.062561 0.292873 0.364020
0.193834 0.292873 0.364020
0.292873 0.292873 0.364020
0.364020 0.292873 0.364020
0.419133 0.292873 0.364020
0.464018 0.292873 0.364020
0.508163 0.292873 0.364020
0.560373 0.292873 0.364020
0.062561 0.364020 0.364020
0.193834 0.364020 0.364020
0.292873 0.364020 0.364020
0.364020 0.364020 0.364020
0.419133 0.364020 0.364020
0.464018 0.364020 0.364020
0.508163 0.364020 0.364020
0.560373 0.364020 0.364020
0.062561 0.419133 0.364020
0.193834 0.419133 0.364020
0.292873 0.419133 0.364020
0.364020 0.419133 0.364020
0.419133 0.419133 0.364020
0.464018 0.419133 0.364020
0.508163 0.419133 0.364020
0.560373 0.419133 0.364020
0.062561 0.464018 0.364020
0.193834 0.464018 0.364020
0.292873 0.464018 0.364020
0.364020 0.464018 0.364020
0.419133 0.464018 0.364020
0.464018 0.464018 0.364020
0.508163 0.464018 0.364020
0.560373 0.464018 0.364020
0.062561 0.508163 0.364020
0.193834 0.508163 0.364020
0.292873 0.508163 0.364020
0.364020 0.508163 0.364020
0.419133 0.508163 0.364020
0.464018 0.508163 0.364020
0.508163 0.508163 0.364020
0.560373 0.508163 0.364020
0.062561 0.560373 0.364020
0.193834 0.560373 0.364020
0.292873 0.560373 0.364020
0.364020 0.560373 0.364020
0.419133 0.560373 0.364020
0.464018 0.560373 0.364020
0.508163 0.560373 0.364020
0.560373 0.560373 0.364020
0.062561 0.062561 0.419133
0.193834 0.062561 0.419133
0.292873 0.062561 0.419133
0.364020 0.062561 0.419133
0.419133 0.062561 0.419133
0.464018 0.062561 0.419133
0.508163 0.062561 0.419133
0.560373 0.062561 0.419133
0.062561 0.193834 0.419133
0.193834 0.193834 0.419133
0.292873 0.193834 0.419133
0.364020 0.193834 0.419133
0.419133 0.193834 0.419133
0.464018 0.193834 0.419133
0.508163 0.193834 0.419133
0.560373 0.193834 0.419133
0.062561 0.292873 0.419133
0.193834 0.292873 0.419133
0.292873 0.292873 0.419133
0.364020 0.292873 0.419133
0.419133 0.292873 0.419133
0.464018 0.292873 0.419133
0.508163 0.292873 0.419133
0.560373 0.292873 0.419133
0.062561 0.364020 0.419133
0.193834 0.364020 0.419133
0.292873 0.364020 0.419133
0.364020 0.364020 0.419133
0.419133 0.364020 0.419133
0.464018 0.364020 0.419133
0.508163 0.364020 0.419133
0.560373 0.364020 0.419133
0.062561 0.419133 0.419133
0.193834 0.419133 0.419133
0.292873 0.419133 0.419133
0.364020 0.419133 0.419133
0.419133 0.419133 0.419133
0.464018 0.419133 0.419133
0.508163 0.419133 0.419133
0.560373 0.419133 0.419133
0.062561 0.464018 0.419133
0.193834 0.464018 0.419133
0.292873 0.464018 0.419133
0.364020 0.464018 0.419133
0.419133 0.464018 0.419133
0.464018 0.464018 0.419133
0.508163 0.464018 0.419133
0.560373 0.464018 0.419133
0.062561 0.508163 0.419133
0.193834 0.508163 0.419133
0.292873 0.508163 0.419133
0.364020 0.508163 0.419133
0.419133 0.508163 0.419133
0.464018 0.508163 0.419133
0.508163 0.508163 0.419133
0.560373 0.508163 0.419133
0.062561 0.560373 0.419133
0.193834 0.560373 0.419133
0.292873 0.560373 0.419133
0.364020 0.560373 0.419133
0.419133 0.560373 0.419133
0.464018 0.560373 0.419133
0.508163 0.560373 0.419133
0.560373 0.560373 0.419133
0.062561 0.062561 0.464018
0.193834 0.062561 0.464018
0.292873 0.062561 0.464018
0.364020 0.062561 0.464018
0.419133 0.062561 0.464018
0.464018 0.062561 0.464018
0.508163 0.062561 0.464018
0.560373 0.062561 0.464018
0.062561 0.193834 0.464018
0.193834 0.193834 0.464018
0.292873 0.193834 0.464018
0.364020 0.193834 0.464018
0.419133 0.193834 0.464018
0.464018 0.193834 0.464018
0.508163 0.193834 0.464018
0.560373 0.193834 0.464018
0.062561 0.292873 0.464018
0.193834 0.292873 0.464018
0.292873 0.292873 0.464018
0.364020 0.292873 0.464018
0.419133 0.292873 0.464018
0.464018 0.292873 0.464018
0.508163 0.292873 0.464018
0.560373 0.292873 0.464018
0.062561 0.364020 0.464018
0.193834 0.364020 0.464018
0.292873 0.364020 0.464018
0.364020 0.364020 0.464018
0.419133 0.364020 0.464018
0.464018 0.364020 0.464018
0.508163 0.364020 0.464018
0.560373 0.364020 0.464018
0.062561 0.419133 0.464018
0.193834 0.419133 0.464018
0.292873 0.419133 0.464018
0.364020 0.419133 0.464018
0.419133 0.419133 0.464018
0.464018 0.419133 0.464018
0.508163 0.419133 0.464018
0.560373 0.419133 0.464018
0.062561 0.464018 0.464018
0.193834 0.464018 0.464018
0.292873 0.464018 0.464018
0.364020 0.464018 0.464018
0.419133 0.464018 0.464018
0.464018 0.464018 0.464018
0.508163 0.464018 0.464018
0.560373 0.464018 0.464018
0.062561 0.508163 0.464018
0.193834 0.508163 0.464018
0.292873 0.508163 0.464018
0.364020 0.508163 0.464018
0.419133 0.508163 0.464018
0.464018 0.508163 0.464018
0.508163 0.508163 0.464018
0.560373 0.508163 0.464018
0.062561 0.560373 0.464018
0.193834 0.560373 0.464018
0.292873 0.560373 0.464018
0.364020 0.560373 0.464018
0.419133 0.560373 0.464018
0.464018 0.560373 0.464018
0.508163 0.560373 0.464018
0.560373 0.560373 0.464018
0.062561 0.062561 0.508163
0.193834 0.062561 0.508163
0.292873 0.062561 0.508163
0.364020 0.062561 0.508163
0.419133 0.062561 0.508163
0.464018 0.062561 0.508163
0.508163 0.062561 0.508163
0.560373 0.062561 0.508163
0.062561 0.193834 0.508163
0.193834 0.193834 0.508163
0.292873 0.193834 0.508163
0.364020 0.193834 0.508163
0.419133 0.193834 0.508163
0.464018 0.193834 0.508163
0.508163 0.193834 0.508163
0.560373 0.193834 0.508163
0.062561 0.292873 0.508163
0.193834 0.292873 0.508163
0.292873 0.292873 0.508163
0.364020 0.292873 0.508163
0.419133 0.292873 0.508163
0.464018 0.292873 0.508163
0.508163 0.292873 0.508163
0.560373 0.292873 0.508163
0.062561 0.364020 0.508163
0.193834 0.364020 0.508163
0.292873 0.364020 0.508163
0.364020 0.364020 0.508163
0.419133 0.364020 0.508163
0.464018 0.364020 0.508163
0.508163 0.364020 0.508163
0.560373 0.364020 0.508163
0.062561 0.419133 0.508163
0.193834 0.419133 0.508163
0.292873 0.419133 0.508163
0.364020 0.419133 0.508163
0.419133 0.419133 0.508163
0.464018 0.419133 0.508163
0.508163 0.419133 0.508163
0.560373 0.419133 0.508163
0.062561 0.464018 0.508163
0.193834 0.464018 0.508163
0.292873 0.464018 0.508163
0.364020 0.464018 0.508163
0.419133 0.464018 0.508163
0.464018 0.464018 0.508163
0.508163 0.464018 0.508163
0.560373 0.464018 0.508163
0.062561 0.508163 0.508163
0.193834 0.508163 0.508163
0.292873 0.508163 0.508163
0.364020 0.508163 0.508163
0.419133 0.508163 0.508163
0.464018 0.508163 0.508163
0.508163 0.508163 0.508163
0.560373 0.508163 0.508163
0.062561 0.560373 0.508163
0.193834 0.560373 0.508163
0.292873 0.560373 0.508163
0.364020 0.560373 0.508163
0.419133 0.560373 0.508163
0.464018 0.560373 0.508163
0.508163 0.560373 0.508163
0.560373 0.560373 0.508163
0.062561 0.062561 0.560373
0.193834 0.062561 0.560373
0.292873 0.062561 0.560373
0.364020 0.062561 0.560373
0.419133 0.062561 0.560373
0.464018 0.062561 0.560373
0.508163 0.062561 0.560373
0.560373 0.062561 0.560373
0.062561 0.193834 0.560373
0.193834 0.193834 0.560373
0.292873 0.193834 0.560373
0.364020 0.193834 0.560373
0.419133 0.193834 0.560373
0.464018 0.193834 0.560373
0.508163 0.193834 0.560373
0.560373 0.193834 0.560373
0.062561 0.292873 0.560373
0.193834 0.292873 0.560373
0.292873 0.292873 0.560373
0.364020 0.292873 0.560373
0.419133 0.292873 0.560373
0.464018 0.292873 0.560373
0.508163 0.292873 0.560373
0.560373 0.292873 0.560373
0.062561 0.364020 0.560373
0.193834 0.364020 0.560373
0.292873 0.364020 0.560373
0.364020 0.364020 0.560373
0.419133 0.364020 0.560373
0.464018 0.364020 0.560373
0.508163 0.364020 0.560373
0.560373 0.364020 0.560373
0.062561 0.419133 0.560373
0.193834 0.419133 0.560373
0.292873 0.419133 0.560373
0.364020 0.419133 0.560373
0.419133 0.419133 0.560373
0.464018 0.419133 0.560373
0.508163 0.419133 0.560373
0.560373 0.419133 0.560373
0.062561 0.464018 0.560373
0.193834 0.464018 0.560373
0.292873 0.464018 0.560373
0.364020 0.464018 0.560373
0.419133 0.464018 0.560373
0.464018 0.464018 0.560373
0.508163 0.464018 0.560373
0.560373 0.464018 0.560373
0.062561 0.508163 0.560373
0.193834 0.508163 0.560373
0.292873 0.508163 0.560373
0.364020 0.508163 0.560373
0.419133 0.508163 0.560373
0.464018 0.508163 0.560373
0.508163 0.508163 0.560373
0.560373 0.508163 0.560373
0.062561 0.560373 0.560373
0.193834 0.560373 0.560373
0.292873 0.560373 0.560373
0.364020 0.560373 0.560373
0.419133 0.560373 0.560373
0.464018 0.560373 0.560373
0.508163 0.560373 0.560373
0.560373 0.560373 0.560373
