Switch.app/Contents/rec709_logC.cube
LUT_3D_SIZE 5
DOMAIN_MIN 0.000000 0.000000 0.000000
DOMAIN_MAX 0.851064 0.851064 0.851064
0.062561 0.062561 0.062561
0.263852 0.062561 0.062561
0.383799 0.062561 0.062561
0.464018 0.062561 0.062561
0.541369 0.062561 0.062561
0.062561 0.263852 0.062561
0.263852 0.263852 0.062561
0.383799 0.263852 0.062561
0.464018 0.263852 0.062561
0.541369 0.263852 0.062561
0.062561 0.383799 0.062561
0.263852 0.383799 0.062561
0.383799 0.383799 0.062561
0.464018 0.383799 0.062561
0.541369 0.383799 0.062561
0.062561 0.464018 0.062561
0.263852 0.464018 0.062561
0.383799 0.464018 0.062561
0.464018 0.464018 0.062561
0.541369 0.464018 0.062561
0.062561 0.541369 0.062561
0.263852 0.541369 0.062561
0.383799 0.541369 0.062561
0.464018 0.541369 0.062561
0.541369 0.541369 0.062561
0.062561 0.062561 0.263852
0.263852 0.062561 0.263852
0.383799 0.062561 0.263852
0.464018 0.062561 0.263852
0.541369 0.062561 0.263852
0.062561 0.263852 0.263852
0.263852 0.263852 0.263852
0.383799 0.263852 0.263852
0.464018 0.263852 0.263852
0.541369 0.263852 0.263852
0.062561 0.383799 0.263852
0.263852 0.383799 0.263852
0.383799 0.383799 0.263852
0.464018 0.383799 0.263852
0.541369 0.383799 0.263852
0.062561 0.464018 0.263852
0.263852 0.464018 0.263852
0.383799 0.464018 0.263852
0.464018 0.464018 0.263852
0.541369 0.464018 0.263852
0.062561 0.541369 0.263852
0.263852 0.541369 0.263852
0.383799 0.541369 0.263852
0.464018 0.541369 0.263852
0.541369 0.541369 0.263852
0.062561 0.062561 0.383799
0.263852 0.062561 0.383799
0.383799 0.062561 0.383799
0.464018 0.062561 0.383799
0.541369 0.062561 0.383799
0.062561 0.263852 0.383799
0.263852 0.263852 0.383799
0.383799 0.263852 0.383799
0.464018 0.263852 0.383799
0.541369 0.263852 0.383799
0.062561 0.383799 0.383799
0.263852 0.383799 0.383799
0.383799 0.383799 0.383799
0.464018 0.383799 0.383799
0.541369 0.383799 0.383799
0.062561 0.464018 0.383799
0.263852 0.464018 0.383799
0.383799 0.464018 0.383799
0.464018 0.464018 0.383799
0.541369 0.464018 0.383799
0.062561 0.541369 0.383799
0.263852 0.541369 0.383799
0.383799 0.541369 0.383799
0.464018 0.541369 0.383799
0.541369 0.541369 0.383799
0.062561 0.062561 0.464018
0.263852 0.062561 0.464018
0.383799 0.062561 0.464018
0.464018 0.062561 0.464018
0.541369 0.062561 0.464018
0.062561 0.263852 0.464018
0.263852 0.263852 0.464018
0.383799 0.263852 0.464018
0.464018 0.263852 0.464018
0.541369 0.263852 0.464018
0.062561 0.383799 0.464018
0.263852 0.383799 0.464018
0.383799 0.383799 0.464018
0.464018 0.383799 0.464018
0.541369 0.383799 0.464018
0.062561 0.464018 0.464018
0.263852 0.464018 0.464018
0.383799 0.464018 0.464018
0.464018 0.464018 0.464018
0.541369 0.464018 0.464018
0.062561 0.541369 0.464018
0.263852 0.541369 0.464018
0.383799 0.541369 0.464018
0.464018 0.541369 0.464018
0.541369 0.541369 0.464018
0.062561 0.062561 0.541369
0.263852 0.062561 0.541369
0.383799 0.062561 0.541369
0.464018 0.062561 0.541369
0.541369 0.062561 0.541369
0.062561 0.263852 0.541369
0.263852 0.263852 0.541369
0.383799 0.263852 0.541369
0.464018 0.263852 0.541369
0.541369 0.263852 0.541369
0.062561 0.383799 0.541369
0.263852 0.383799 0.541369
0.383799 0.383799 0.541369
0.464018 0.383799 0.541369
0.541369 0.383799 0.541369
0.062561 0.464018 0.541369
0.263852 0.464018 0.541369
0.383799 0.464018 0.541369
0.464018 0.464018 0.541369
0.541369 0.464018 0.541369
0.062561 0.541369 0.541369
0.263852 0.541369 0.541369
0.383799 0.541369 0.541369
0.464018 0.541369 0.541369
0.541369 0.541369 0.541369
