Switch/bin/lin_logC.cube
LUT_3D_SIZE 8
DOMAIN_MIN 0.000000 0.000000 0.000000
DOMAIN_MAX 0.893617 0.893617 0.893617
0.092809 0.092809 0.092809
0.356185 0.092809 0.092809
0.426899 0.092809 0.092809
0.469167 0.092809 0.092809
0.499415 0.092809 0.092809
0.522988 0.092809 0.092809
0.542305 0.092809 0.092809
0.558670 0.092809 0.092809
0.092809 0.356185 0.092809
0.356185 0.356185 0.092809
0.426899 0.356185 0.092809
0.469167 0.356185 0.092809
0.499415 0.356185 0.092809
0.522988 0.356185 0.092809
0.542305 0.356185 0.092809
0.558670 0.356185 0.092809
0.092809 0.426899 0.092809
0.356185 0.426899 0.092809
0.426899 0.426899 0.092809
0.469167 0.426899 0.092809
0.499415 0.426899 0.092809
0.522988 0.426899 0.092809
0.542305 0.426899 0.092809
0.558670 0.426899 0.092809
0.092809 0.469167 0.092809
0.356185 0.469167 0.092809
0.426899 0.469167 0.092809
0.469167 0.469167 0.092809
0.499415 0.469167 0.092809
0.522988 0.469167 0.092809
0.542305 0.469167 0.092809
0.558670 0.469167 0.092809
0.092809 0.499415 0.092809
0.356185 0.499415 0.092809
0.426899 0.499415 0.092809
0.469167 0.499415 0.092809
0.499415 0.499415 0.092809
0.522988 0.499415 0.092809
0.542305 0.499415 0.092809
0.558670 0.499415 0.092809
0.092809 0.522988 0.092809
0.356185 0.522988 0.092809
0.426899 0.522988 0.092809
0.469167 0.522988 0.092809
0.499415 0.522988 0.092809
0.522988 0.522988 0.092809
0.542305 0.522988 0.092809
0.558670 0.522988 0.092809
0.092809 0.542305 0.092809
0.356185 0.542305 0.092809
0.426899 0.542305 0.092809
0.469167 0.542305 0.092809
0.499415 0.542305 0.092809
0.522988 0.542305 0.092809
0.542305 0.542305 0.092809
0.558670 0.542305 0.092809
0.092809 0.558670 0.092809
0.356185 0.558670 0.092809
0.426899 0.558670 0.092809
0.469167 0.558670 0.092809
0.499415 0.558670 0.092809
0.522988 0.558670 0.092809
0.542305 0.558670 0.092809
0.558670 0.558670 0.092809
0.092809 0.092809 0.356185
0.356185 0.092809 0.356185
0.426899 0.092809 0.356185
0.469167 0.092809 0.356185
0.499415 0.092809 0.356185
0.522988 0.092809 0.356185
0.542305 0.092809 0.356185
0.558670 0.092809 0.356185
0.092809 0.356185 0.356185
0.356185 0.356185 0.356185
0.426899 0.356185 0.356185
0.469167 0.356185 0.356185
0.499415 0.356185 0.356185
0.522988 0.356185 0.356185
0.542305 0.356185 0.356185
0.558670 0.356185 0.356185
0.092809 0.426899 0.356185
0.356185 0.426899 0.356185
0.426899 0.426899 0.356185
0.469167 0.426899 0.356185
0.499415 0.426899 0.356185
0.522988 0.426899 0.356185
0.542305 0.426899 0.356185
0.558670 0.426899 0.356185
0.092809 0.469167 0.356185
0.356185 0.469167 0.356185
0.426899 0.469167 0.356185
0.469167 0.469167 0.356185
0.499415 0.469167 0.356185
0.522988 0.469167 0.356185
0.542305 0.469167 0.356185
0.558670 0.469167 0.356185
0.092809 0.499415 0.356185
0.356185 0.499415 0.356185
0.426899 0.499415 0.356185
0.469167 0.499415 0.356185
0.499415 0.499415 0.356185
0.522988 0.499415 0.356185
0.542305 0.499415 0.356185
0.558670 0.499415 0.356185
0.092809 0.522988 0.356185
0.356185 0.522988 0.356185
0.426899 0.522988 0.356185
0.469167 0.522988 0.356185
0.499415 0.522988 0.356185
0.522988 0.522988 0.356185
0.542305 0.522988 0.356185
0.558670 0.522988 0.356185
0.092809 0.542305 0.356185
0.356185 0.542305 0.356185
0.426899 0.542305 0.356185
0.469167 0.542305 0.356185
0.499415 0.542305 0.356185
0.522988 0.542305 0.356185
0.542305 0.542305 0.356185
0.558670 0.542305 0.356185
0.092809 0.558670 0.356185
0.356185 0.558670 0.356185
0.426899 0.558670 0.356185
0.469167 0.558670 0.356185
0.499415 0.558670 0.356185
0.522988 0.558670 0.356185
0.542305 0.558670 0.356185
0.558670 0.558670 0.356185
0.092809 0.092809 0.426899
0.356185 0.092809 0.426899
0.426899 0.092809 0.426899
0.469167 0.092809 0.426899
0.499415 0.092809 0.426899
0.522988 0.092809 0.426899
0.542305 0.092809 0.426899
0.558670 0.092809 0.426899
0.092809 0.356185 0.426899
0.356185 0.356185 0.426899
0.426899 0.356185 0.426899
0.469167 0.356185 0.426899
0.499415 0.356185 0.426899
0.522988 0.356185 0.426899
0.542305 0.356185 0.426899
0.558670 0.356185 0.426899
0.092809 0.426899 0.426899
0.356185 0.426899 0.426899
0.426899 0.426899 0.426899
0.469167 0.426899 0.426899
0.499415 0.426899 0.426899
0.522988 0.426899 0.426899
0.542305 0.426899 0.426899
0.558670 0.426899 0.426899
0.092809 0.469167 0.426899
0.356185 0.469167 0.426899
0.426899 0.469167 0.426899
0.469167 0.469167 0.426899
0.499415 0.469167 0.426899
0.522988 0.469167 0.426899
0.542305 0.469167 0.426899
0.558670 0.469167 0.426899
0.092809 0.499415 0.426899
0.356185 0.499415 0.426899
0.426899 0.499415 0.426899
0.469167 0.499415 0.426899
0.499415 0.499415 0.426899
0.522988 0.499415 0.426899
0.542305 0.499415 0.426899
0.558670 0.499415 0.426899
0.092809 0.522988 0.426899
0.356185 0.522988 0.426899
0.426899 0.522988 0.426899
0.469167 0.522988 0.426899
0.499415 0.522988 0.426899
0.522988 0.522988 0.426899
0.542305 0.522988 0.426899
0.558670 0.522988 0.426899
0.092809 0.542305 0.426899
0.356185 0.542305 0.426899
0.426899 0.542305 0.426899
0.469167 0.542305 0.426899
0.499415 0.542305 0.426899
0.522988 0.542305 0.426899
0.542305 0.542305 0.426899
0.558670 0.542305 0.426899
0.092809 0.558670 0.426899
0.356185 0.558670 0.426899
0.426899 0.558670 0.426899
0.469167 0.558670 0.426899
0.499415 0.558670 0.426899
0.522988 0.558670 0.426899
0.542305 0.558670 0.426899
0.558670 0.558670 0.426899
0.092809 0.092809 0.469167
0.356185 0.092809 0.469167
0.426899 0.092809 0.469167
0.469167 0.092809 0.469167
0.499415 0.092809 0.469167
0.522988 0.092809 0.469167
0.542305 0.092809 0.469167
0.558670 0.092809 0.469167
0.092809 0.356185 0.469167
0.356185 0.356185 0.469167
0.426899 0.356185 0.469167
0.469167 0.356185 0.469167
0.499415 0.356185 0.469167
0.522988 0.356185 0.469167
0.542305 0.356185 0.469167
0.558670 0.356185 0.469167
0.092809 0.426899 0.469167
0.356185 0.426899 0.469167
0.426899 0.426899 0.469167
0.469167 0.426899 0.469167
0.499415 0.426899 0.469167
0.522988 0.426899 0.469167
0.542305 0.426899 0.469167
0.558670 0.426899 0.469167
0.092809 0.469167 0.469167
0.356185 0.469167 0.469167
0.426899 0.469167 0.469167
0.469167 0.469167 0.469167
0.499415 0.469167 0.469167
0.522988 0.469167 0.469167
0.542305 0.469167 0.469167
0.558670 0.469167 0.469167
0.092809 0.499415 0.469167
0.356185 0.499415 0.469167
0.426899 0.499415 0.469167
0.469167 0.499415 0.469167
0.499415 0.499415 0.469167
0.522988 0.499415 0.469167
0.542305 0.499415 0.469167
0.558670 0.499415 0.469167
0.092809 0.522988 0.469167
0.356185 0.522988 0.469167
0.426899 0.522988 0.469167
0.469167 0.522988 0.469167
0.499415 0.522988 0.469167
0.522988 0.522988 0.469167
0.542305 0.522988 0.469167
0.558670 0.522988 0.469167
0.092809 0.542305 0.469167
0.356185 0.542305 0.469167
0.426899 0.542305 0.469167
0.469167 0.542305 0.469167
0.499415 0.542305 0.469167
0.522988 0.542305 0.469167
0.542305 0.542305 0.469167
0.558670 0.542305 0.469167
0.092809 0.558670 0.469167
0.356185 0.558670 0.469167
0.426899 0.558670 0.469167
0.469167 0.558670 0.469167
0.499415 0.558670 0.469167
0.522988 0.558670 0.469167
0.542305 0.558670 0.469167
0.558670 0.558670 0.469167
0.092809 0.092809 0.499415
0.356185 0.092809 0.499415
0.426899 0.092809 0.499415
0.469167 0.092809 0.499415
0.499415 0.092809 0.499415
0.522988 0.092809 0.499415
0.542305 0.092809 0.499415
0.558670 0.092809 0.499415
0.092809 0.356185 0.499415
0.356185 0.356185 0.499415
0.426899 0.356185 0.499415
0.469167 0.356185 0.499415
0.499415 0.356185 0.499415
0.522988 0.356185 0.499415
0.542305 0.356185 0.499415
0.558670 0.356185 0.499415
0.092809 0.426899 0.499415
0.356185 0.426899 0.499415
0.426899 0.426899 0.499415
0.469167 0.426899 0.499415
0.499415 0.426899 0.499415
0.522988 0.426899 0.499415
0.542305 0.426899 0.499415
0.558670 0.426899 0.499415
0.092809 0.469167 0.499415
0.356185 0.469167 0.499415
0.426899 0.469167 0.499415
0.469167 0.469167 0.499415
0.499415 0.469167 0.499415
0.522988 0.469167 0.499415
0.542305 0.469167 0.499415
0.558670 0.469167 0.499415
0.092809 0.499415 0.499415
0.356185 0.499415 0.499415
0.426899 0.499415 0.499415
0.469167 0.499415 0.499415
0.499415 0.499415 0.499415
0.522988 0.499415 0.499415
0.542305 0.499415 0.499415
0.558670 0.499415 0.499415
0.092809 0.522988 0.499415
0.356185 0.522988 0.499415
0.426899 0.522988 0.499415
0.469167 0.522988 0.499415
0.499415 0.522988 0.499415
0.522988 0.522988 0.499415
0.542305 0.522988 0.499415
0.558670 0.522988 0.499415
0.092809 0.542305 0.499415
0.356185 0.542305 0.499415
0.426899 0.542305 0.499415
0.469167 0.542305 0.499415
0.499415 0.542305 0.499415
0.522988 0.542305 0.499415
0.542305 0.542305 0.499415
0.558670 0.542305 0.499415
0.092809 0.558670 0.499415
0.356185 0.558670 0.499415
0.426899 0.558670 0.499415
0.469167 0.558670 0.499415
0.499415 0.558670 0.499415
0.522988 0.558670 0.499415
0.542305 0.558670 0.499415
0.558670 0.558670 0.499415
0.092809 0.092809 0.522988
0.356185 0.092809 0.522988
0.426899 0.092809 0.522988
0.469167 0.092809 0.522988
0.499415 0.092809 0.522988
0.522988 0.092809 0.522988
0.542305 0.092809 0.522988
0.558670 0.092809 0.522988
0.092809 0.356185 0.522988
0.356185 0.356185 0.522988
0.426899 0.356185 0.522988
0.469167 0.356185 0.522988
0.499415 0.356185 0.522988
0.522988 0.356185 0.522988
0.542305 0.356185 0.522988
0.558670 0.356185 0.522988
0.092809 0.426899 0.522988
0.356185 0.426899 0.522988
0.426899 0.426899 0.522988
0.469167 0.426899 0.522988
0.499415 0.426899 0.522988
0.522988 0.426899 0.522988
0.542305 0.426899 0.522988
0.558670 0.426899 0.522988
0.092809 0.469167 0.522988
0.356185 0.469167 0.522988
0.426899 0.469167 0.522988
0.469167 0.469167 0.522988
0.499415 0.469167 0.522988
0.522988 0.469167 0.522988
0.542305 0.469167 0.522988
0.558670 0.469167 0.522988
0.092809 0.499415 0.522988
0.356185 0.499415 0.522988
0.426899 0.499415 0.522988
0.469167 0.499415 0.522988
0.499415 0.499415 0.522988
0.522988 0.499415 0.522988
0.542305 0.499415 0.522988
0.558670 0.499415 0.522988
0.092809 0.522988 0.522988
0.356185 0.522988 0.522988
0.426899 0.522988 0.522988
0.469167 0.522988 0.522988
0.499415 0.522988 0.522988
0.522988 0.522988 0.522988
0.542305 0.522988 0.522988
0.558670 0.522988 0.522988
0.092809 0.542305 0.522988
0.356185 0.542305 0.522988
0.426899 0.542305 0.522988
0.469167 0.542305 0.522988
0.499415 0.542305 0.522988
0.522988 0.542305 0.522988
0.542305 0.542305 0.522988
0.558670 0.542305 0.522988
0.092809 0.558670 0.522988
0.356185 0.558670 0.522988
0.426899 0.558670 0.522988
0.469167 0.558670 0.522988
0.499415 0.558670 0.522988
0.522988 0.558670 0.522988
0.542305 0.558670 0.522988
0.558670 0.558670 0.522988
0.092809 0.092809 0.542305
0.356185 0.092809 0.542305
0.426899 0.092809 0.542305
0.469167 0.092809 0.542305
0.499415 0.092809 0.542305
0.522988 0.092809 0.542305
0.542305 0.092809 0.542305
0.558670 0.092809 0.542305
0.092809 0.356185 0.542305
0.356185 0.356185 0.542305
0.426899 0.356185 0.542305
0.469167 0.356185 0.542305
0.499415 0.356185 0.542305
0.522988 0.356185 0.542305
0.542305 0.356185 0.542305
0.558670 0.356185 0.542305
0.092809 0.426899 0.542305
0.356185 0.426899 0.542305
0.426899 0.426899 0.542305
0.469167 0.426899 0.542305
0.499415 0.426899 0.542305
0.522988 0.426899 0.542305
0.542305 0.426899 0.542305
0.558670 0.426899 0.542305
0.092809 0.469167 0.542305
0.356185 0.469167 0.542305
0.426899 0.469167 0.542305
0.469167 0.469167 0.542305
0.499415 0.469167 0.542305
0.522988 0.469167 0.542305
0.542305 0.469167 0.542305
0.558670 0.469167 0.542305
0.092809 0.499415 0.542305
0.356185 0.499415 0.542305
0.426899 0.499415 0.542305
0.469167 0.499415 0.542305
0.499415 0.499415 0.542305
0.522988 0.499415 0.542305
0.542305 0.499415 0.542305
0.558670 0.499415 0.542305
0.092809 0.522988 0.542305
0.356185 0.522988 0.542305
0.426899 0.522988 0.542305
0.469167 0.522988 0.542305
0.499415 0.522988 0.542305
0.522988 0.522988 0.542305
0.542305 0.522988 0.542305
0.558670 0.522988 0.542305
0.092809 0.542305 0.542305
0.356185 0.542305 0.542305
0.426899 0.542305 0.542305
0.469167 0.542305 0.542305
0.499415 0.542305 0.542305
0.522988 0.542305 0.542305
0.542305 0.542305 0.542305
0.558670 0.542305 0.542305
0.092809 0.558670 0.542305
0.356185 0.558670 0.542305
0.426899 0.558670 0.542305
0.469167 0.558670 0.542305
0.499415 0.558670 0.542305
0.522988 0.558670 0.542305
0.542305 0.558670 0.542305
0.558670 0.558670 0.542305
0.092809 0.092809 0.558670
0.356185 0.092809 0.558670
0.426899 0.092809 0.558670
0.469167 0.092809 0.558670
0.499415 0.092809 0.558670
0.522988 0.092809 0.558670
0.542305 0.092809 0.558670
0.558670 0.092809 0.558670
0.092809 0.356185 0.558670
0.356185 0.356185 0.558670
0.426899 0.356185 0.558670
0.469167 0.356185 0.558670
0.499415 0.356185 0.558670
0.522988 0.356185 0.558670
0.542305 0.356185 0.558670
0.558670 0.356185 0.558670
0.092809 0.426899 0.558670
0.356185 0.426899 0.558670
0.426899 0.426899 0.558670
0.469167 0.426899 0.558670
0.499415 0.426899 0.558670
0.522988 0.426899 0.558670
0.542305 0.426899 0.558670
0.558670 0.426899 0.558670
0.092809 0.469167 0.558670
0.356185 0.469167 0.558670
0.426899 0.469167 0.558670
0.469167 0.469167 0.558670
0.499415 0.469167 0.558670
0.522988 0.469167 0.558670
0.542305 0.469167 0.558670
0.558670 0.469167 0.558670
0.092809 0.499415 0.558670
0.356185 0.499415 0.558670
0.426899 0.499415 0.558670
0.469167 0.499415 0.558670
0.499415 0.499415 0.558670
0.522988 0.499415 0.558670
0.542305 0.499415 0.558670
0.558670 0.499415 0.558670
0.092809 0.522988 0.558670
0.356185 0.522988 0.558670
0.426899 0.522988 0.558670
0.469167 0.522988 0.558670
0.499415 0.522988 0.558670
0.522988 0.522988 0.558670
0.542305 0.522988 0.558670
0.558670 0.522988 0.558670
0.092809 0.542305 0.558670
0.356185 0.542305 0.558670
0.426899 0.542305 0.558670
0.469167 0.542305 0.558670
0.499415 0.542305 0.558670
0.522988 0.542305 0.558670
0.542305 0.542305 0.558670
0.558670 0.542305 0.558670
0.092809 0.558670 0.558670
0.356185 0.558670 0.558670
0.426899 0.558670 0.558670
0.469167 0.558670 0.558670
0.499415 0.558670 0.558670
0.522988 0.558670 0.558670
0.542305 0.558670 0.558670
0.558670 0.558670 0.558670
