Switch/bin/lin_logC.cube
LUT_3D_SIZE 5
DOMAIN_MIN 0.000000 0.000000 0.000000
DOMAIN_MAX 0.851064 0.851064 0.851064
0.092809 0.092809 0.092809
0.408027 0.092809 0.092809
0.480222 0.092809 0.092809
0.522988 0.092809 0.092809
0.553487 0.092809 0.092809
0.092809 0.408027 0.092809
0.408027 0.408027 0.092809
0.480222 0.408027 0.092809
0.522988 0.408027 0.092809
0.553487 0.408027 0.092809
0.092809 0.480222 0.092809
0.408027 0.480222 0.092809
0.480222 0.480222 0.092809
0.522988 0.480222 0.092809
0.553487 0.480222 0.092809
0.092809 0.522988 0.092809
0.408027 0.522988 0.092809
0.480222 0.522988 0.092809
0.522988 0.522988 0.092809
0.553487 0.522988 0.092809
0.092809 0.553487 0.092809
0.408027 0.553487 0.092809
0.480222 0.553487 0.092809
0.522988 0.553487 0.092809
0.553487 0.553487 0.092809
0.092809 0.092809 0.408027
0.408027 0.092809 0.408027
0.480222 0.092809 0.408027
0.522988 0.092809 0.408027
0.553487 0.092809 0.408027
0.092809 0.408027 0.408027
0.408027 0.408027 0.408027
0.480222 0.408027 0.408027
0.522988 0.408027 0.408027
0.553487 0.408027 0.408027
0.092809 0.480222 0.408027
0.408027 0.480222 0.408027
0.480222 0.480222 0.408027
0.522988 0.480222 0.408027
0.553487 0.480222 0.408027
0.092809 0.522988 0.408027
0.408027 0.522988 0.408027
0.480222 0.522988 0.408027
0.522988 0.522988 0.408027
0.553487 0.522988 0.408027
0.092809 0.553487 0.408027
0.408027 0.553487 0.408027
0.480222 0.553487 0.408027
0.522988 0.553487 0.408027
0.553487 0.553487 0.408027
0.092809 0.092809 0.480222
0.408027 0.092809 0.480222
0.480222 0.092809 0.480222
0.522988 0.092809 0.480222
0.553487 0.092809 0.480222
0.092809 0.408027 0.480222
0.408027 0.408027 0.480222
0.480222 0.408027 0.480222
0.522988 0.408027 0.480222
0.553487 0.408027 0.480222
0.092809 0.480222 0.480222
0.408027 0.480222 0.480222
0.480222 0.480222 0.480222
0.522988 0.480222 0.480222
0.553487 0.480222 0.480222
0.092809 0.522988 0.480222
0.408027 0.522988 0.480222
0.480222 0.522988 0.480222
0.522988 0.522988 0.480222
0.553487 0.522988 0.480222
0.092809 0.553487 0.480222
0.408027 0.553487 0.480222
0.480222 0.553487 0.480222
0.522988 0.553487 0.480222
0.553487 0.553487 0.480222
0.092809 0.092809 0.522988
0.408027 0.092809 0.522988
0.480222 0.092809 0.522988
0.522988 0.092809 0.522988
0.553487 0.092809 0.522988
0.092809 0.408027 0.522988
0.408027 0.408027 0.522988
0.480222 0.408027 0.522988
0.522988 0.408027 0.522988
0.553487 0.408027 0.522988
0.092809 0.480222 0.522988
0.408027 0.480222 0.522988
0.480222 0.480222 0.522988
0.522988 0.480222 0.522988
0.553487 0.480222 0.522988
0.092809 0.522988 0.522988
0.408027 0.522988 0.522988
0.480222 0.522988 0.522988
0.522988 0.522988 0.522988
0.553487 0.522988 0.522988
0.092809 0.553487 0.522988
0.408027 0.553487 0.522988
0.480222 0.553487 0.522988
0.522988 0.553487 0.522988
0.553487 0.553487 0.522988
0.092809 0.092809 0.553487
0.408027 0.092809 0.553487
0.480222 0.092809 0.553487
0.522988 0.092809 0.553487
0.553487 0.092809 0.553487
0.092809 0.408027 0.553487
0.408027 0.408027 0.553487
0.480222 0.408027 0.553487
0.522988 0.408027 0.553487
0.553487 0.408027 0.553487
0.092809 0.480222 0.553487
0.408027 0.480222 0.553487
0.480222 0.480222 0.553487
0.522988 0.480222 0.553487
0.553487 0.480222 0.553487
0.092809 0.522988 0.553487
0.408027 0.522988 0.553487
0.480222 0.522988 0.553487
0.522988 0.522988 0.553487
0.553487 0.522988 0.553487
0.092809 0.553487 0.553487
0.408027 0.553487 0.553487
0.480222 0.553487 0.553487
0.522988 0.553487 0.553487
0.553487 0.553487 0.553487
