Switch/bin/lin_logC.cube
LUT_3D_SIZE 48
0.092809 0.092809 0.092809
0.192405 0.092809 0.092809
0.250799 0.092809 0.092809
0.288825 0.092809 0.092809
0.315935 0.092809 0.092809
0.337870 0.092809 0.092809
0.356185 0.092809 0.092809
0.371587 0.092809 0.092809
0.385170 0.092809 0.092809
0.397261 0.092809 0.092809
0.408027 0.092809 0.092809
0.417870 0.092809 0.092809
0.426899 0.092809 0.092809
0.435175 0.092809 0.092809
0.442895 0.092809 0.092809
0.450100 0.092809 0.092809
0.456822 0.092809 0.092809
0.463173 0.092809 0.092809
0.469167 0.092809 0.092809
0.474828 0.092809 0.092809
0.480222 0.092809 0.092809
0.485354 0.092809 0.092809
0.490242 0.092809 0.092809
0.494929 0.092809 0.092809
0.499415 0.092809 0.092809
0.503717 0.092809 0.092809
0.507862 0.092809 0.092809
0.511847 0.092809 0.092809
0.515687 0.092809 0.092809
0.519403 0.092809 0.092809
0.522988 0.092809 0.092809
0.526457 0.092809 0.092809
0.529823 0.092809 0.092809
0.533080 0.092809 0.092809
0.536243 0.092809 0.092809
0.539320 0.092809 0.092809
0.542305 0.092809 0.092809
0.545211 0.092809 0.092809
0.548045 0.092809 0.092809
0.550799 0.092809 0.092809
0.553487 0.092809 0.092809
0.556113 0.092809 0.092809
0.558670 0.092809 0.092809
0.561171 0.092809 0.092809
0.563618 0.092809 0.092809
0.566004 0.092809 0.092809
0.568341 0.092809 0.092809
0.570631 0.092809 0.092809
0.092809 0.192405 0.092809
0.192405 0.192405 0.092809
0.250799 0.192405 0.092809
0.288825 0.192405 0.092809
0.315935 0.192405 0.092809
0.337870 0.192405 0.092809
0.356185 0.192405 0.092809
0.371587 0.192405 0.092809
0.385170 0.192405 0.092809
0.397261 0.192405 0.092809
0.408027 0.192405 0.092809
0.417870 0.192405 0.092809
0.426899 0.192405 0.092809
0.435175 0.192405 0.092809
0.442895 0.192405 0.092809
0.450100 0.192405 0.092809
0.456822 0.192405 0.092809
0.463173 0.192405 0.092809
0.469167 0.192405 0.092809
0.474828 0.192405 0.092809
0.480222 0.192405 0.092809
0.485354 0.192405 0.092809
0.490242 0.192405 0.092809
0.494929 0.192405 0.092809
0.499415 0.192405 0.092809
0.503717 0.192405 0.092809
0.507862 0.192405 0.092809
0.511847 0.192405 0.092809
0.515687 0.192405 0.092809
0.519403 0.192405 0.092809
0.522988 0.192405 0.092809
0.526457 0.192405 0.092809
0.529823 0.192405 0.092809
0.533080 0.192405 0.092809
0.536243 0.192405 0.092809
0.539320 0.192405 0.092809
0.542305 0.192405 0.092809
0.545211 0.192405 0.092809
0.548045 0.192405 0.092809
0.550799 0.192405 0.092809
0.553487 0.192405 0.092809
0.556113 0.192405 0.092809
0.558670 0.192405 0.092809
0.561171 0.192405 0.092809
0.563618 0.192405 0.092809
0.566004 0.192405 0.092809
0.568341 0.192405 0.092809
0.570631 0.192405 0.092809
0.092809 0.250799 0.092809
0.192405 0.250799 0.092809
0.250799 0.250799 0.092809
0.288825 0.250799 0.092809
0.315935 0.250799 0.092809
0.337870 0.250799 0.092809
0.356185 0.250799 0.092809
0.371587 0.250799 0.092809
0.385170 0.250799 0.092809
0.397261 0.250799 0.092809
0.408027 0.250799 0.092809
0.417870 0.250799 0.092809
0.426899 0.250799 0.092809
0.435175 0.250799 0.092809
0.442895 0.250799 0.092809
0.450100 0.250799 0.092809
0.456822 0.250799 0.092809
0.463173 0.250799 0.092809
0.469167 0.250799 0.092809
0.474828 0.250799 0.092809
0.480222 0.250799 0.092809
0.485354 0.250799 0.092809
0.490242 0.250799 0.092809
0.494929 0.250799 0.092809
0.499415 0.250799 0.092809
0.503717 0.250799 0.092809
0.507862 0.250799 0.092809
0.511847 0.250799 0.092809
0.515687 0.250799 0.092809
0.519403 0.250799 0.092809
0.522988 0.250799 0.092809
0.526457 0.250799 0.092809
0.529823 0.250799 0.092809
0.533080 0.250799 0.092809
0.536243 0.250799 0.092809
0.539320 0.250799 0.092809
0.542305 0.250799 0.092809
0.545211 0.250799 0.092809
0.548045 0.250799 0.092809
0.550799 0.250799 0.092809
0.553487 0.250799 0.092809
0.556113 0.250799 0.092809
0.558670 0.250799 0.092809
0.561171 0.250799 0.092809
0.563618 0.250799 0.092809
0.566004 0.250799 0.092809
0.568341 0.250799 0.092809
0.570631 0.250799 0.092809
0.092809 0.288825 0.092809
0.192405 0.288825 0.092809
0.250799 0.288825 0.092809
0.288825 0.288825 0.092809
0.315935 0.288825 0.092809
0.337870 0.288825 0.092809
0.356185 0.288825 0.092809
0.371587 0.288825 0.092809
0.385170 0.288825 0.092809
0.397261 0.288825 0.092809
0.408027 0.288825 0.092809
0.417870 0.288825 0.092809
0.426899 0.288825 0.092809
0.435175 0.288825 0.092809
0.442895 0.288825 0.092809
0.450100 0.288825 0.092809
0.456822 0.288825 0.092809
0.463173 0.288825 0.092809
0.469167 0.288825 0.092809
0.474828 0.288825 0.092809
0.480222 0.288825 0.092809
0.485354 0.288825 0.092809
0.490242 0.288825 0.092809
0.494929 0.288825 0.092809
0.499415 0.288825 0.092809
0.503717 0.288825 0.092809
0.507862 0.288825 0.092809
0.511847 0.288825 0.092809
0.515687 0.288825 0.092809
0.519403 0.288825 0.092809
0.522988 0.288825 0.092809
0.526457 0.288825 0.092809
0.529823 0.288825 0.092809
0.533080 0.288825 0.092809
0.536243 0.288825 0.092809
0.539320 0.288825 0.092809
0.542305 0.288825 0.092809
0.545211 0.288825 0.092809
0.548045 0.288825 0.092809
0.550799 0.288825 0.092809
0.553487 0.288825 0.092809
0.556113 0.288825 0.092809
0.558670 0.288825 0.092809
0.561171 0.288825 0.092809
0.563618 0.288825 0.092809
0.566004 0.288825 0.092809
0.568341 0.288825 0.092809
0.570631 0.288825 0.092809
0.092809 0.315935 0.092809
0.192405 0.315935 0.092809
0.250799 0.315935 0.092809
0.288825 0.315935 0.092809
0.315935 0.315935 0.092809
0.337870 0.315935 0.092809
0.356185 0.315935 0.092809
0.371587 0.315935 0.092809
0.385170 0.315935 0.092809
0.397261 0.315935 0.092809
0.408027 0.315935 0.092809
0.417870 0.315935 0.092809
0.426899 0.315935 0.092809
0.435175 0.315935 0.092809
0.442895 0.315935 0.092809
0.450100 0.315935 0.092809
0.456822 0.315935 0.092809
0.463173 0.315935 0.092809
0.469167 0.315935 0.092809
0.474828 0.315935 0.092809
0.480222 0.315935 0.092809
0.485354 0.315935 0.092809
0.490242 0.315935 0.092809
0.494929 0.315935 0.092809
0.499415 0.315935 0.092809
0.503717 0.315935 0.092809
0.507862 0.315935 0.092809
0.511847 0.315935 0.092809
0.515687 0.315935 0.092809
0.519403 0.315935 0.092809
0.522988 0.315935 0.092809
0.526457 0.315935 0.092809
0.529823 0.315935 0.092809
0.533080 0.315935 0.092809
0.536243 0.315935 0.092809
0.539320 0.315935 0.092809
0.542305 0.315935 0.092809
0.545211 0.315935 0.092809
0.548045 0.315935 0.092809
0.550799 0.315935 0.092809
0.553487 0.315935 0.092809
0.556113 0.315935 0.092809
0.558670 0.315935 0.092809
0.561171 0.315935 0.092809
0.563618 0.315935 0.092809
0.566004 0.315935 0.092809
0.568341 0.315935 0.092809
0.570631 0.315935 0.092809
0.092809 0.337870 0.092809
0.192405 0.337870 0.092809
0.250799 0.337870 0.092809
0.288825 0.337870 0.092809
0.315935 0.337870 0.092809
0.337870 0.337870 0.092809
0.356185 0.337870 0.092809
0.371587 0.337870 0.092809
0.385170 0.337870 0.092809
0.397261 0.337870 0.092809
0.408027 0.337870 0.092809
0.417870 0.337870 0.092809
0.426899 0.337870 0.092809
0.435175 0.337870 0.092809
0.442895 0.337870 0.092809
0.450100 0.337870 0.092809
0.456822 0.337870 0.092809
0.463173 0.337870 0.092809
0.469167 0.337870 0.092809
0.474828 0.337870 0.092809
0.480222 0.337870 0.092809
0.485354 0.337870 0.092809
0.490242 0.337870 0.092809
0.494929 0.337870 0.092809
0.499415 0.337870 0.092809
0.503717 0.337870 0.092809
0.507862 0.337870 0.092809
0.511847 0.337870 0.092809
0.515687 0.337870 0.092809
0.519403 0.337870 0.092809
0.522988 0.337870 0.092809
0.526457 0.337870 0.092809
0.529823 0.337870 0.092809
0.533080 0.337870 0.092809
0.536243 0.337870 0.092809
0.539320 0.337870 0.092809
0.542305 0.337870 0.092809
0.545211 0.337870 0.092809
0.548045 0.337870 0.092809
0.550799 0.337870 0.092809
0.553487 0.337870 0.092809
0.556113 0.337870 0.092809
0.558670 0.337870 0.092809
0.561171 0.337870 0.092809
0.563618 0.337870 0.092809
0.566004 0.337870 0.092809
0.568341 0.337870 0.092809
0.570631 0.337870 0.092809
0.092809 0.356185 0.092809
0.192405 0.356185 0.092809
0.250799 0.356185 0.092809
0.288825 0.356185 0.092809
0.315935 0.356185 0.092809
0.337870 0.356185 0.092809
0.356185 0.356185 0.092809
0.371587 0.356185 0.092809
0.385170 0.356185 0.092809
0.397261 0.356185 0.092809
0.408027 0.356185 0.092809
0.417870 0.356185 0.092809
0.426899 0.356185 0.092809
0.435175 0.356185 0.092809
0.442895 0.356185 0.092809
0.450100 0.356185 0.092809
0.456822 0.356185 0.092809
0.463173 0.356185 0.092809
0.469167 0.356185 0.092809
0.474828 0.356185 0.092809
0.480222 0.356185 0.092809
0.485354 0.356185 0.092809
0.490242 0.356185 0.092809
0.494929 0.356185 0.092809
0.499415 0.356185 0.092809
0.503717 0.356185 0.092809
0.507862 0.356185 0.092809
0.511847 0.356185 0.092809
0.515687 0.356185 0.092809
0.519403 0.356185 0.092809
0.522988 0.356185 0.092809
0.526457 0.356185 0.092809
0.529823 0.356185 0.092809
0.533080 0.356185 0.092809
0.536243 0.356185 0.092809
0.539320 0.356185 0.092809
0.542305 0.356185 0.092809
0.545211 0.356185 0.092809
0.548045 0.356185 0.092809
0.550799 0.356185 0.092809
0.553487 0.356185 0.092809
0.556113 0.356185 0.092809
0.558670 0.356185 0.092809
0.561171 0.356185 0.092809
0.563618 0.356185 0.092809
0.566004 0.356185 0.092809
0.568341 0.356185 0.092809
0.570631 0.356185 0.092809
0.092809 0.371587 0.092809
0.192405 0.371587 0.092809
0.250799 0.371587 0.092809
0.288825 0.371587 0.092809
0.315935 0.371587 0.092809
0.337870 0.371587 0.092809
0.356185 0.371587 0.092809
0.371587 0.371587 0.092809
0.385170 0.371587 0.092809
0.397261 0.371587 0.092809
0.408027 0.371587 0.092809
0.417870 0.371587 0.092809
0.426899 0.371587 0.092809
0.435175 0.371587 0.092809
0.442895 0.371587 0.092809
0.450100 0.371587 0.092809
0.456822 0.371587 0.092809
0.463173 0.371587 0.092809
0.469167 0.371587 0.092809
0.474828 0.371587 0.092809
0.480222 0.371587 0.092809
0.485354 0.371587 0.092809
0.490242 0.371587 0.092809
0.494929 0.371587 0.092809
0.499415 0.371587 0.092809
0.503717 0.371587 0.092809
0.507862 0.371587 0.092809
0.511847 0.371587 0.092809
0.515687 0.371587 0.092809
0.519403 0.371587 0.092809
0.522988 0.371587 0.092809
0.526457 0.371587 0.092809
0.529823 0.371587 0.092809
0.533080 0.371587 0.092809
0.536243 0.371587 0.092809
0.539320 0.371587 0.092809
0.542305 0.371587 0.092809
0.545211 0.371587 0.092809
0.548045 0.371587 0.092809
0.550799 0.371587 0.092809
0.553487 0.371587 0.092809
0.556113 0.371587 0.092809
0.558670 0.371587 0.092809
0.561171 0.371587 0.092809
0.563618 0.371587 0.092809
0.566004 0.371587 0.092809
0.568341 0.371587 0.092809
0.570631 0.371587 0.092809
0.092809 0.385170 0.092809
0.192405 0.385170 0.092809
0.250799 0.385170 0.092809
0.288825 0.385170 0.092809
0.315935 0.385170 0.092809
0.337870 0.385170 0.092809
0.356185 0.385170 0.092809
0.371587 0.385170 0.092809
0.385170 0.385170 0.092809
0.397261 0.385170 0.092809
0.408027 0.385170 0.092809
0.417870 0.385170 0.092809
0.426899 0.385170 0.092809
0.435175 0.385170 0.092809
0.442895 0.385170 0.092809
0.450100 0.385170 0.092809
0.456822 0.385170 0.092809
0.463173 0.385170 0.092809
0.469167 0.385170 0.092809
0.474828 0.385170 0.092809
0.480222 0.385170 0.092809
0.485354 0.385170 0.092809
0.490242 0.385170 0.092809
0.494929 0.385170 0.092809
0.499415 0.385170 0.092809
0.503717 0.385170 0.092809
0.507862 0.385170 0.092809
0.511847 0.385170 0.092809
0.515687 0.385170 0.092809
0.519403 0.385170 0.092809
0.522988 0.385170 0.092809
0.526457 0.385170 0.092809
0.529823 0.385170 0.092809
0.533080 0.385170 0.092809
0.536243 0.385170 0.092809
0.539320 0.385170 0.092809
0.542305 0.385170 0.092809
0.545211 0.385170 0.092809
0.548045 0.385170 0.092809
0.550799 0.385170 0.092809
0.553487 0.385170 0.092809
0.556113 0.385170 0.092809
0.558670 0.385170 0.092809
0.561171 0.385170 0.092809
0.563618 0.385170 0.092809
0.566004 0.385170 0.092809
0.568341 0.385170 0.092809
0.570631 0.385170 0.092809
0.092809 0.397261 0.092809
0.192405 0.397261 0.092809
0.250799 0.397261 0.092809
0.288825 0.397261 0.092809
0.315935 0.397261 0.092809
0.337870 0.397261 0.092809
0.356185 0.397261 0.092809
0.371587 0.397261 0.092809
0.385170 0.397261 0.092809
0.397261 0.397261 0.092809
0.408027 0.397261 0.092809
0.417870 0.397261 0.092809
0.426899 0.397261 0.092809
0.435175 0.397261 0.092809
0.442895 0.397261 0.092809
0.450100 0.397261 0.092809
0.456822 0.397261 0.092809
0.463173 0.397261 0.092809
0.469167 0.397261 0.092809
0.474828 0.397261 0.092809
0.480222 0.397261 0.092809
0.485354 0.397261 0.092809
0.490242 0.397261 0.092809
0.494929 0.397261 0.092809
0.499415 0.397261 0.092809
0.503717 0.397261 0.092809
0.507862 0.397261 0.092809
0.511847 0.397261 0.092809
0.515687 0.397261 0.092809
0.519403 0.397261 0.092809
0.522988 0.397261 0.092809
0.526457 0.397261 0.092809
0.529823 0.397261 0.092809
0.533080 0.397261 0.092809
0.536243 0.397261 0.092809
0.539320 0.397261 0.092809
0.542305 0.397261 0.092809
0.545211 0.397261 0.092809
0.548045 0.397261 0.092809
0.550799 0.397261 0.092809
0.553487 0.397261 0.092809
0.556113 0.397261 0.092809
0.558670 0.397261 0.092809
0.561171 0.397261 0.092809
0.563618 0.397261 0.092809
0.566004 0.397261 0.092809
0.568341 0.397261 0.092809
0.570631 0.397261 0.092809
0.092809 0.408027 0.092809
0.192405 0.408027 0.092809
0.250799 0.408027 0.092809
0.288825 0.408027 0.092809
0.315935 0.408027 0.092809
0.337870 0.408027 0.092809
0.356185 0.408027 0.092809
0.371587 0.408027 0.092809
0.385170 0.408027 0.092809
0.397261 0.408027 0.092809
0.408027 0.408027 0.092809
0.417870 0.408027 0.092809
0.426899 0.408027 0.092809
0.435175 0.408027 0.092809
0.442895 0.408027 0.092809
0.450100 0.408027 0.092809
0.456822 0.408027 0.092809
0.463173 0.408027 0.092809
0.469167 0.408027 0.092809
0.474828 0.408027 0.092809
0.480222 0.408027 0.092809
0.485354 0.408027 0.092809
0.490242 0.408027 0.092809
0.494929 0.408027 0.092809
0.499415 0.408027 0.092809
0.503717 0.408027 0.092809
0.507862 0.408027 0.092809
0.511847 0.408027 0.092809
0.515687 0.408027 0.092809
0.519403 0.408027 0.092809
0.522988 0.408027 0.092809
0.526457 0.408027 0.092809
0.529823 0.408027 0.092809
0.533080 0.408027 0.092809
0.536243 0.408027 0.092809
0.539320 0.408027 0.092809
0.542305 0.408027 0.092809
0.545211 0.408027 0.092809
0.548045 0.408027 0.092809
0.550799 0.408027 0.092809
0.553487 0.408027 0.092809
0.556113 0.408027 0.092809
0.558670 0.408027 0.092809
0.561171 0.408027 0.092809
0.563618 0.408027 0.092809
0.566004 0.408027 0.092809
0.568341 0.408027 0.092809
0.570631 0.408027 0.092809
0.092809 0.417870 0.092809
0.192405 0.417870 0.092809
0.250799 0.417870 0.092809
0.288825 0.417870 0.092809
0.315935 0.417870 0.092809
0.337870 0.417870 0.092809
0.356185 0.417870 0.092809
0.371587 0.417870 0.092809
0.385170 0.417870 0.092809
0.397261 0.417870 0.092809
0.408027 0.417870 0.092809
0.417870 0.417870 0.092809
0.426899 0.417870 0.092809
0.435175 0.417870 0.092809
0.442895 0.417870 0.092809
0.450100 0.417870 0.092809
0.456822 0.417870 0.092809
0.463173 0.417870 0.092809
0.469167 0.417870 0.092809
0.474828 0.417870 0.092809
0.480222 0.417870 0.092809
0.485354 0.417870 0.092809
0.490242 0.417870 0.092809
0.494929 0.417870 0.092809
0.499415 0.417870 0.092809
0.503717 0.417870 0.092809
0.507862 0.417870 0.092809
0.511847 0.417870 0.092809
0.515687 0.417870 0.092809
0.519403 0.417870 0.092809
0.522988 0.417870 0.092809
0.526457 0.417870 0.092809
0.529823 0.417870 0.092809
0.533080 0.417870 0.092809
0.536243 0.417870 0.092809
0.539320 0.417870 0.092809
0.542305 0.417870 0.092809
0.545211 0.417870 0.092809
0.548045 0.417870 0.092809
0.550799 0.417870 0.092809
0.553487 0.417870 0.092809
0.556113 0.417870 0.092809
0.558670 0.417870 0.092809
0.561171 0.417870 0.092809
0.563618 0.417870 0.092809
0.566004 0.417870 0.092809
0.568341 0.417870 0.092809
0.570631 0.417870 0.092809
0.092809 0.426899 0.092809
0.192405 0.426899 0.092809
0.250799 0.426899 0.092809
0.288825 0.426899 0.092809
0.315935 0.426899 0.092809
0.337870 0.426899 0.092809
0.356185 0.426899 0.092809
0.371587 0.426899 0.092809
0.385170 0.426899 0.092809
0.397261 0.426899 0.092809
0.408027 0.426899 0.092809
0.417870 0.426899 0.092809
0.426899 0.426899 0.092809
0.435175 0.426899 0.092809
0.442895 0.426899 0.092809
0.450100 0.426899 0.092809
0.456822 0.426899 0.092809
0.463173 0.426899 0.092809
0.469167 0.426899 0.092809
0.474828 0.426899 0.092809
0.480222 0.426899 0.092809
0.485354 0.426899 0.092809
0.490242 0.426899 0.092809
0.494929 0.426899 0.092809
0.499415 0.426899 0.092809
0.503717 0.426899 0.092809
0.507862 0.426899 0.092809
0.511847 0.426899 0.092809
0.515687 0.426899 0.092809
0.519403 0.426899 0.092809
0.522988 0.426899 0.092809
0.526457 0.426899 0.092809
0.529823 0.426899 0.092809
0.533080 0.426899 0.092809
0.536243 0.426899 0.092809
0.539320 0.426899 0.092809
0.542305 0.426899 0.092809
0.545211 0.426899 0.092809
0.548045 0.426899 0.092809
0.550799 0.426899 0.092809
0.553487 0.426899 0.092809
0.556113 0.426899 0.092809
0.558670 0.426899 0.092809
0.561171 0.426899 0.092809
0.563618 0.426899 0.092809
0.566004 0.426899 0.092809
0.568341 0.426899 0.092809
0.570631 0.426899 0.092809
0.092809 0.435175 0.092809
0.192405 0.435175 0.092809
0.250799 0.435175 0.092809
0.288825 0.435175 0.092809
0.315935 0.435175 0.092809
0.337870 0.435175 0.092809
0.356185 0.435175 0.092809
0.371587 0.435175 0.092809
0.385170 0.435175 0.092809
0.397261 0.435175 0.092809
0.408027 0.435175 0.092809
0.417870 0.435175 0.092809
0.426899 0.435175 0.092809
0.435175 0.435175 0.092809
0.442895 0.435175 0.092809
0.450100 0.435175 0.092809
0.456822 0.435175 0.092809
0.463173 0.435175 0.092809
0.469167 0.435175 0.092809
0.474828 0.435175 0.092809
0.480222 0.435175 0.092809
0.485354 0.435175 0.092809
0.490242 0.435175 0.092809
0.494929 0.435175 0.092809
0.499415 0.435175 0.092809
0.503717 0.435175 0.092809
0.507862 0.435175 0.092809
0.511847 0.435175 0.092809
0.515687 0.435175 0.092809
0.519403 0.435175 0.092809
0.522988 0.435175 0.092809
0.526457 0.435175 0.092809
0.529823 0.435175 0.092809
0.533080 0.435175 0.092809
0.536243 0.435175 0.092809
0.539320 0.435175 0.092809
0.542305 0.435175 0.092809
0.545211 0.435175 0.092809
0.548045 0.435175 0.092809
0.550799 0.435175 0.092809
0.553487 0.435175 0.092809
0.556113 0.435175 0.092809
0.558670 0.435175 0.092809
0.561171 0.435175 0.092809
0.563618 0.435175 0.092809
0.566004 0.435175 0.092809
0.568341 0.435175 0.092809
0.570631 0.435175 0.092809
0.092809 0.442895 0.092809
0.192405 0.442895 0.092809
0.250799 0.442895 0.092809
0.288825 0.442895 0.092809
0.315935 0.442895 0.092809
0.337870 0.442895 0.092809
0.356185 0.442895 0.092809
0.371587 0.442895 0.092809
0.385170 0.442895 0.092809
0.397261 0.442895 0.092809
0.408027 0.442895 0.092809
0.417870 0.442895 0.092809
0.426899 0.442895 0.092809
0.435175 0.442895 0.092809
0.442895 0.442895 0.092809
0.450100 0.442895 0.092809
0.456822 0.442895 0.092809
0.463173 0.442895 0.092809
0.469167 0.442895 0.092809
0.474828 0.442895 0.092809
0.480222 0.442895 0.092809
0.485354 0.442895 0.092809
0.490242 0.442895 0.092809
0.494929 0.442895 0.092809
0.499415 0.442895 0.092809
0.503717 0.442895 0.092809
0.507862 0.442895 0.092809
0.511847 0.442895 0.092809
0.515687 0.442895 0.092809
0.519403 0.442895 0.092809
0.522988 0.442895 0.092809
0.526457 0.442895 0.092809
0.529823 0.442895 0.092809
0.533080 0.442895 0.092809
0.536243 0.442895 0.092809
0.539320 0.442895 0.092809
0.542305 0.442895 0.092809
0.545211 0.442895 0.092809
0.548045 0.442895 0.092809
0.550799 0.442895 0.092809
0.553487 0.442895 0.092809
0.556113 0.442895 0.092809
0.558670 0.442895 0.092809
0.561171 0.442895 0.092809
0.563618 0.442895 0.092809
0.566004 0.442895 0.092809
0.568341 0.442895 0.092809
0.570631 0.442895 0.092809
0.092809 0.450100 0.092809
0.192405 0.450100 0.092809
0.250799 0.450100 0.092809
0.288825 0.450100 0.092809
0.315935 0.450100 0.092809
0.337870 0.450100 0.092809
0.356185 0.450100 0.092809
0.371587 0.450100 0.092809
0.385170 0.450100 0.092809
0.397261 0.450100 0.092809
0.408027 0.450100 0.092809
0.417870 0.450100 0.092809
0.426899 0.450100 0.092809
0.435175 0.450100 0.092809
0.442895 0.450100 0.092809
0.450100 0.450100 0.092809
0.456822 0.450100 0.092809
0.463173 0.450100 0.092809
0.469167 0.450100 0.092809
0.474828 0.450100 0.092809
0.480222 0.450100 0.092809
0.485354 0.450100 0.092809
0.490242 0.450100 0.092809
0.494929 0.450100 0.092809
0.499415 0.450100 0.092809
0.503717 0.450100 0.092809
0.507862 0.450100 0.092809
0.511847 0.450100 0.092809
0.515687 0.450100 0.092809
0.519403 0.450100 0.092809
0.522988 0.450100 0.092809
0.526457 0.450100 0.092809
0.529823 0.450100 0.092809
0.533080 0.450100 0.092809
0.536243 0.450100 0.092809
0.539320 0.450100 0.092809
0.542305 0.450100 0.092809
0.545211 0.450100 0.092809
0.548045 0.450100 0.092809
0.550799 0.450100 0.092809
0.553487 0.450100 0.092809
0.556113 0.450100 0.092809
0.558670 0.450100 0.092809
0.561171 0.450100 0.092809
0.563618 0.450100 0.092809
0.566004 0.450100 0.092809
0.568341 0.450100 0.092809
0.570631 0.450100 0.092809
0.092809 0.456822 0.092809
0.192405 0.456822 0.092809
0.250799 0.456822 0.092809
0.288825 0.456822 0.092809
0.315935 0.456822 0.092809
0.337870 0.456822 0.092809
0.356185 0.456822 0.092809
0.371587 0.456822 0.092809
0.385170 0.456822 0.092809
0.397261 0.456822 0.092809
0.408027 0.456822 0.092809
0.417870 0.456822 0.092809
0.426899 0.456822 0.092809
0.435175 0.456822 0.092809
0.442895 0.456822 0.092809
0.450100 0.456822 0.092809
0.456822 0.456822 0.092809
0.463173 0.456822 0.092809
0.469167 0.456822 0.092809
0.474828 0.456822 0.092809
0.480222 0.456822 0.092809
0.485354 0.456822 0.092809
0.490242 0.456822 0.092809
0.494929 0.456822 0.092809
0.499415 0.456822 0.092809
0.503717 0.456822 0.092809
0.507862 0.456822 0.092809
0.511847 0.456822 0.092809
0.515687 0.456822 0.092809
0.519403 0.456822 0.092809
0.522988 0.456822 0.092809
0.526457 0.456822 0.092809
0.529823 0.456822 0.092809
0.533080 0.456822 0.092809
0.536243 0.456822 0.092809
0.539320 0.456822 0.092809
0.542305 0.456822 0.092809
0.545211 0.456822 0.092809
0.548045 0.456822 0.092809
0.550799 0.456822 0.092809
0.553487 0.456822 0.092809
0.556113 0.456822 0.092809
0.558670 0.456822 0.092809
0.561171 0.456822 0.092809
0.563618 0.456822 0.092809
0.566004 0.456822 0.092809
0.568341 0.456822 0.092809
0.570631 0.456822 0.092809
0.092809 0.463173 0.092809
0.192405 0.463173 0.092809
0.250799 0.463173 0.092809
0.288825 0.463173 0.092809
0.315935 0.463173 0.092809
0.337870 0.463173 0.092809
0.356185 0.463173 0.092809
0.371587 0.463173 0.092809
0.385170 0.463173 0.092809
0.397261 0.463173 0.092809
0.408027 0.463173 0.092809
0.417870 0.463173 0.092809
0.426899 0.463173 0.092809
0.435175 0.463173 0.092809
0.442895 0.463173 0.092809
0.450100 0.463173 0.092809
0.456822 0.463173 0.092809
0.463173 0.463173 0.092809
0.469167 0.463173 0.092809
0.474828 0.463173 0.092809
0.480222 0.463173 0.092809
0.485354 0.463173 0.092809
0.490242 0.463173 0.092809
0.494929 0.463173 0.092809
0.499415 0.463173 0.092809
0.503717 0.463173 0.092809
0.507862 0.463173 0.092809
0.511847 0.463173 0.092809
0.515687 0.463173 0.092809
0.519403 0.463173 0.092809
0.522988 0.463173 0.092809
0.526457 0.463173 0.092809
0.529823 0.463173 0.092809
0.533080 0.463173 0.092809
0.536243 0.463173 0.092809
0.539320 0.463173 0.092809
0.542305 0.463173 0.092809
0.545211 0.463173 0.092809
0.548045 0.463173 0.092809
0.550799 0.463173 0.092809
0.553487 0.463173 0.092809
0.556113 0.463173 0.092809
0.558670 0.463173 0.092809
0.561171 0.463173 0.092809
0.563618 0.463173 0.092809
0.566004 0.463173 0.092809
0.568341 0.463173 0.092809
0.570631 0.463173 0.092809
0.092809 0.469167 0.092809
0.192405 0.469167 0.092809
0.250799 0.469167 0.092809
0.288825 0.469167 0.092809
0.315935 0.469167 0.092809
0.337870 0.469167 0.092809
0.356185 0.469167 0.092809
0.371587 0.469167 0.092809
0.385170 0.469167 0.092809
0.397261 0.469167 0.092809
0.408027 0.469167 0.092809
0.417870 0.469167 0.092809
0.426899 0.469167 0.092809
0.435175 0.469167 0.092809
0.442895 0.469167 0.092809
0.450100 0.469167 0.092809
0.456822 0.469167 0.092809
0.463173 0.469167 0.092809
0.469167 0.469167 0.092809
0.474828 0.469167 0.092809
0.480222 0.469167 0.092809
0.485354 0.469167 0.092809
0.490242 0.469167 0.092809
0.494929 0.469167 0.092809
