Switch/bin/logNeutral_inverse.cube
TITLE "Generate by Resolve"
LUT_3D_SIZE 9
0 0 0
0.0485084 0 0
0.154604 0 0
0.298146 0 0
0.469963 0 0
0.641428 0 0
0.799405 0 0
0.91693 0 0
0.996094 0 0
0 0.0485084 0
0.0485084 0.0485084 0
0.154604 0.0485084 0
0.298146 0.0485084 0
0.469963 0.0485084 0
0.641428 0.0485084 0
0.799405 0.0485084 0
0.91693 0.0485084 0
0.996094 0.0485084 0
0 0.154604 0
0.0485084 0.154604 0
0.154604 0.154604 0
0.298146 0.154604 0
0.469963 0.154604 0
0.641428 0.154604 0
0.799405 0.154604 0
0.91693 0.154604 0
0.996094 0.154604 0
0 0.298146 0
0.0485084 0.298146 0
0.154604 0.298146 0
0.298146 0.298146 0
0.469963 0.298146 0
0.641428 0.298146 0
0.799405 0.298146 0
0.91693 0.298146 0
0.996094 0.298146 0
0 0.469963 0
0.0485084 0.469963 0
0.154604 0.469963 0
0.298146 0.469963 0
0.469963 0.469963 0
0.641428 0.469963 0
0.799405 0.469963 0
0.91693 0.469963 0
0.996094 0.469963 0
0 0.641428 0
0.0485084 0.641428 0
0.154604 0.641428 0
0.298146 0.641428 0
0.469963 0.641428 0
0.641428 0.641428 0
0.799405 0.641428 0
0.91693 0.641428 0
0.996094 0.641428 0
0 0.799405 0
0.0485084 0.799405 0
0.154604 0.799405 0
0.298146 0.799405 0
0.469963 0.799405 0
0.641428 0.799405 0
0.799405 0.799405 0
0.91693 0.799405 0
0.996094 0.799405 0
0 0.91693 0
0.0485084 0.91693 0
0.154604 0.91693 0
0.298146 0.91693 0
0.469963 0.91693 0
0.641428 0.91693 0
0.799405 0.91693 0
0.91693 0.91693 0
0.996094 0.91693 0
0 0.996094 0
0.0485084 0.996094 0
0.154604 0.996094 0
0.298146 0.996094 0
0.469963 0.996094 0
0.641428 0.996094 0
0.799405 0.996094 0
0.91693 0.996094 0
0.996094 0.996094 0
0 0 0.0485084
0.0485084 0 0.0485084
0.154604 0 0.0485084
0.298146 0 0.0485084
0.469963 0 0.0485084
0.641428 0 0.0485084
0.799405 0 0.0485084
0.91693 0 0.0485084
0.996094 0 0.0485084
0 0.0485084 0.0485084
0.0485084 0.0485084 0.0485084
0.154604 0.0485084 0.0485084
0.298146 0.0485084 0.0485084
0.469963 0.0485084 0.0485084
0.641428 0.0485084 0.0485084
0.799405 0.0485084 0.0485084
0.91693 0.0485084 0.0485084
0.996094 0.0485084 0.0485084
0 0.154604 0.0485084
0.0485084 0.154604 0.0485084
0.154604 0.154604 0.0485084
0.298146 0.154604 0.0485084
0.469963 0.154604 0.0485084
0.641428 0.154604 0.0485084
0.799405 0.154604 0.0485084
0.91693 0.154604 0.0485084
0.996094 0.154604 0.0485084
0 0.298146 0.0485084
0.0485084 0.298146 0.0485084
0.154604 0.298146 0.0485084
0.298146 0.298146 0.0485084
0.469963 0.298146 0.0485084
0.641428 0.298146 0.0485084
0.799405 0.298146 0.0485084
0.91693 0.298146 0.0485084
0.996094 0.298146 0.0485084
0 0.469963 0.0485084
0.0485084 0.469963 0.0485084
0.154604 0.469963 0.0485084
0.298146 0.469963 0.0485084
0.469963 0.469963 0.0485084
0.641428 0.469963 0.0485084
0.799405 0.469963 0.0485084
0.91693 0.469963 0.0485084
0.996094 0.469963 0.0485084
0 0.641428 0.0485084
0.0485084 0.641428 0.0485084
0.154604 0.641428 0.0485084
0.298146 0.641428 0.0485084
0.469963 0.641428 0.0485084
0.641428 0.641428 0.0485084
0.799405 0.641428 0.0485084
0.91693 0.641428 0.0485084
0.996094 0.641428 0.0485084
0 0.799405 0.0485084
0.0485084 0.799405 0.0485084
0.154604 0.799405 0.0485084
0.298146 0.799405 0.0485084
0.469963 0.799405 0.0485084
0.641428 0.799405 0.0485084
0.799405 0.799405 0.0485084
0.91693 0.799405 0.0485084
0.996094 0.799405 0.0485084
0 0.91693 0.0485084
0.0485084 0.91693 0.0485084
0.154604 0.91693 0.0485084
0.298146 0.91693 0.0485084
0.469963 0.91693 0.0485084
0.641428 0.91693 0.0485084
0.799405 0.91693 0.0485084
0.91693 0.91693 0.0485084
0.996094 0.91693 0.0485084
0 0.996094 0.0485084
0.0485084 0.996094 0.0485084
0.154604 0.996094 0.0485084
0.298146 0.996094 0.0485084
0.469963 0.996094 0.0485084
0.641428 0.996094 0.0485084
0.799405 0.996094 0.0485084
0.91693 0.996094 0.0485084
0.996094 0.996094 0.0485084
0 0 0.154604
0.0485084 0 0.154604
0.154604 0 0.154604
0.298146 0 0.154604
0.469963 0 0.154604
0.641428 0 0.154604
0.799405 0 0.154604
0.91693 0 0.154604
0.996094 0 0.154604
0 0.0485084 0.154604
0.0485084 0.0485084 0.154604
0.154604 0.0485084 0.154604
0.298146 0.0485084 0.154604
0.469963 0.0485084 0.154604
0.641428 0.0485084 0.154604
0.799405 0.0485084 0.154604
0.91693 0.0485084 0.154604
0.996094 0.0485084 0.154604
0 0.154604 0.154604
0.0485084 0.154604 0.154604
0.154604 0.154604 0.154604
0.298146 0.154604 0.154604
0.469963 0.154604 0.154604
0.641428 0.154604 0.154604
0.799405 0.154604 0.154604
0.91693 0.154604 0.154604
0.996094 0.154604 0.154604
0 0.298146 0.154604
0.0485084 0.298146 0.154604
0.154604 0.298146 0.154604
0.298146 0.298146 0.154604
0.469963 0.298146 0.154604
0.641428 0.298146 0.154604
0.799405 0.298146 0.154604
0.91693 0.298146 0.154604
0.996094 0.298146 0.154604
0 0.469963 0.154604
0.0485084 0.469963 0.154604
0.154604 0.469963 0.154604
0.298146 0.469963 0.154604
0.469963 0.469963 0.154604
0.641428 0.469963 0.154604
0.799405 0.469963 0.154604
0.91693 0.469963 0.154604
0.996094 0.469963 0.154604
0 0.641428 0.154604
0.0485084 0.641428 0.154604
0.154604 0.641428 0.154604
0.298146 0.641428 0.154604
0.469963 0.641428 0.154604
0.641428 0.641428 0.154604
0.799405 0.641428 0.154604
0.91693 0.641428 0.154604
0.996094 0.641428 0.154604
0 0.799405 0.154604
0.0485084 0.799405 0.154604
0.154604 0.799405 0.154604
0.298146 0.799405 0.154604
0.469963 0.799405 0.154604
0.641428 0.799405 0.154604
0.799405 0.799405 0.154604
0.91693 0.799405 0.154604
0.996094 0.799405 0.154604
0 0.91693 0.154604
0.0485084 0.91693 0.154604
0.154604 0.91693 0.154604
0.298146 0.91693 0.154604
0.469963 0.91693 0.154604
0.641428 0.91693 0.154604
0.799405 0.91693 0.154604
0.91693 0.91693 0.154604
0.996094 0.91693 0.154604
0 0.996094 0.154604
0.0485084 0.996094 0.154604
0.154604 0.996094 0.154604
0.298146 0.996094 0.154604
0.469963 0.996094 0.154604
0.641428 0.996094 0.154604
0.799405 0.996094 0.154604
0.91693 0.996094 0.154604
0.996094 0.996094 0.154604
0 0 0.298146
0.0485084 0 0.298146
0.154604 0 0.298146
0.298146 0 0.298146
0.469963 0 0.298146
0.641428 0 0.298146
0.799405 0 0.298146
0.91693 0 0.298146
0.996094 0 0.298146
0 0.0485084 0.298146
0.0485084 0.0485084 0.298146
0.154604 0.0485084 0.298146
0.298146 0.0485084 0.298146
0.469963 0.0485084 0.298146
0.641428 0.0485084 0.298146
0.799405 0.0485084 0.298146
0.91693 0.0485084 0.298146
0.996094 0.0485084 0.298146
0 0.154604 0.298146
0.0485084 0.154604 0.298146
0.154604 0.154604 0.298146
0.298146 0.154604 0.298146
0.469963 0.154604 0.298146
0.641428 0.154604 0.298146
0.799405 0.154604 0.298146
0.91693 0.154604 0.298146
0.996094 0.154604 0.298146
0 0.298146 0.298146
0.0485084 0.298146 0.298146
0.154604 0.298146 0.298146
0.298146 0.298146 0.298146
0.469963 0.298146 0.298146
0.641428 0.298146 0.298146
0.799405 0.298146 0.298146
0.91693 0.298146 0.298146
0.996094 0.298146 0.298146
0 0.469963 0.298146
0.0485084 0.469963 0.298146
0.154604 0.469963 0.298146
0.298146 0.469963 0.298146
0.469963 0.469963 0.298146
0.641428 0.469963 0.298146
0.799405 0.469963 0.298146
0.91693 0.469963 0.298146
0.996094 0.469963 0.298146
0 0.641428 0.298146
0.0485084 0.641428 0.298146
0.154604 0.641428 0.298146
0.298146 0.641428 0.298146
0.469963 0.641428 0.298146
0.641428 0.641428 0.298146
0.799405 0.641428 0.298146
0.91693 0.641428 0.298146
0.996094 0.641428 0.298146
0 0.799405 0.298146
0.0485084 0.799405 0.298146
0.154604 0.799405 0.298146
0.298146 0.799405 0.298146
0.469963 0.799405 0.298146
0.641428 0.799405 0.298146
0.799405 0.799405 0.298146
0.91693 0.799405 0.298146
0.996094 0.799405 0.298146
0 0.91693 0.298146
0.0485084 0.91693 0.298146
0.154604 0.91693 0.298146
0.298146 0.91693 0.298146
0.469963 0.91693 0.298146
0.641428 0.91693 0.298146
0.799405 0.91693 0.298146
0.91693 0.91693 0.298146
0.996094 0.91693 0.298146
0 0.996094 0.298146
0.0485084 0.996094 0.298146
0.154604 0.996094 0.298146
0.298146 0.996094 0.298146
0.469963 0.996094 0.298146
0.641428 0.996094 0.298146
0.799405 0.996094 0.298146
0.91693 0.996094 0.298146
0.996094 0.996094 0.298146
0 0 0.469963
0.0485084 0 0.469963
0.154604 0 0.469963
0.298146 0 0.469963
0.469963 0 0.469963
0.641428 0 0.469963
0.799405 0 0.469963
0.91693 0 0.469963
0.996094 0 0.469963
0 0.0485084 0.469963
0.0485084 0.0485084 0.469963
0.154604 0.0485084 0.469963
0.298146 0.0485084 0.469963
0.469963 0.0485084 0.469963
0.641428 0.0485084 0.469963
0.799405 0.0485084 0.469963
0.91693 0.0485084 0.469963
0.996094 0.0485084 0.469963
0 0.154604 0.469963
0.0485084 0.154604 0.469963
0.154604 0.154604 0.469963
0.298146 0.154604 0.469963
0.469963 0.154604 0.469963
0.641428 0.154604 0.469963
0.799405 0.154604 0.469963
0.91693 0.154604 0.469963
0.996094 0.154604 0.469963
0 0.298146 0.469963
0.0485084 0.298146 0.469963
0.154604 0.298146 0.469963
0.298146 0.298146 0.469963
0.469963 0.298146 0.469963
0.641428 0.298146 0.469963
0.799405 0.298146 0.469963
0.91693 0.298146 0.469963
0.996094 0.298146 0.469963
0 0.469963 0.469963
0.0485084 0.469963 0.469963
0.154604 0.469963 0.469963
0.298146 0.469963 0.469963
0.469963 0.469963 0.469963
0.641428 0.469963 0.469963
0.799405 0.469963 0.469963
0.91693 0.469963 0.469963
0.996094 0.469963 0.469963
0 0.641428 0.469963
0.0485084 0.641428 0.469963
0.154604 0.641428 0.469963
0.298146 0.641428 0.469963
0.469963 0.641428 0.469963
0.641428 0.641428 0.469963
0.799405 0.641428 0.469963
0.91693 0.641428 0.469963
0.996094 0.641428 0.469963
0 0.799405 0.469963
0.0485084 0.799405 0.469963
0.154604 0.799405 0.469963
0.298146 0.799405 0.469963
0.469963 0.799405 0.469963
0.641428 0.799405 0.469963
0.799405 0.799405 0.469963
0.91693 0.799405 0.469963
0.996094 0.799405 0.469963
0 0.91693 0.469963
0.0485084 0.91693 0.469963
0.154604 0.91693 0.469963
0.298146 0.91693 0.469963
0.469963 0.91693 0.469963
0.641428 0.91693 0.469963
0.799405 0.91693 0.469963
0.91693 0.91693 0.469963
0.996094 0.91693 0.469963
0 0.996094 0.469963
0.0485084 0.996094 0.469963
0.154604 0.996094 0.469963
0.298146 0.996094 0.469963
0.469963 0.996094 0.469963
0.641428 0.996094 0.469963
0.799405 0.996094 0.469963
0.91693 0.996094 0.469963
0.996094 0.996094 0.469963
0 0 0.641428
0.0485084 0 0.641428
0.154604 0 0.641428
0.298146 0 0.641428
0.469963 0 0.641428
0.641428 0 0.641428
0.799405 0 0.641428
0.91693 0 0.641428
0.996094 0 0.641428
0 0.0485084 0.641428
0.0485084 0.0485084 0.641428
0.154604 0.0485084 0.641428
0.298146 0.0485084 0.641428
0.469963 0.0485084 0.641428
0.641428 0.0485084 0.641428
0.799405 0.0485084 0.641428
0.91693 0.0485084 0.641428
0.996094 0.0485084 0.641428
0 0.154604 0.641428
0.0485084 0.154604 0.641428
0.154604 0.154604 0.641428
0.298146 0.154604 0.641428
0.469963 0.154604 0.641428
0.641428 0.154604 0.641428
0.799405 0.154604 0.641428
0.91693 0.154604 0.641428
0.996094 0.154604 0.641428
0 0.298146 0.641428
0.0485084 0.298146 0.641428
0.154604 0.298146 0.641428
0.298146 0.298146 0.641428
0.469963 0.298146 0.641428
0.641428 0.298146 0.641428
0.799405 0.298146 0.641428
0.91693 0.298146 0.641428
0.996094 0.298146 0.641428
0 0.469963 0.641428
0.0485084 0.469963 0.641428
0.154604 0.469963 0.641428
0.298146 0.469963 0.641428
0.469963 0.469963 0.641428
0.641428 0.469963 0.641428
0.799405 0.469963 0.641428
0.91693 0.469963 0.641428
0.996094 0.469963 0.641428
0 0.641428 0.641428
0.0485084 0.641428 0.641428
0.154604 0.641428 0.641428
0.298146 0.641428 0.641428
0.469963 0.641428 0.641428
0.641428 0.641428 0.641428
0.799405 0.641428 0.641428
0.91693 0.641428 0.641428
0.996094 0.641428 0.641428
0 0.799405 0.641428
0.0485084 0.799405 0.641428
0.154604 0.799405 0.641428
0.298146 0.799405 0.641428
0.469963 0.799405 0.641428
0.641428 0.799405 0.641428
0.799405 0.799405 0.641428
0.91693 0.799405 0.641428
0.996094 0.799405 0.641428
0 0.91693 0.641428
0.0485084 0.91693 0.641428
0.154604 0.91693 0.641428
0.298146 0.91693 0.641428
0.469963 0.91693 0.641428
0.641428 0.91693 0.641428
0.799405 0.91693 0.641428
0.91693 0.91693 0.641428
0.996094 0.91693 0.641428
0 0.996094 0.641428
0.0485084 0.996094 0.641428
0.154604 0.996094 0.641428
0.298146 0.996094 0.641428
0.469963 0.996094 0.641428
0.641428 0.996094 0.641428
0.799405 0.996094 0.641428
0.91693 0.996094 0.641428
0.996094 0.996094 0.641428
0 0 0.799405
0.0485084 0 0.799405
0.154604 0 0.799405
0.298146 0 0.799405
0.469963 0 0.799405
0.641428 0 0.799405
0.799405 0 0.799405
0.91693 0 0.799405
0.996094 0 0.799405
0 0.0485084 0.799405
0.0485084 0.0485084 0.799405
0.154604 0.0485084 0.799405
0.298146 0.0485084 0.799405
0.469963 0.0485084 0.799405
0.641428 0.0485084 0.799405
0.799405 0.0485084 0.799405
0.91693 0.0485084 0.799405
0.996094 0.0485084 0.799405
0 0.154604 0.799405
0.0485084 0.154604 0.799405
0.154604 0.154604 0.799405
0.298146 0.154604 0.799405
0.469963 0.154604 0.799405
0.641428 0.154604 0.799405
0.799405 0.154604 0.799405
0.91693 0.154604 0.799405
0.996094 0.154604 0.799405
0 0.298146 0.799405
0.0485084 0.298146 0.799405
0.154604 0.298146 0.799405
0.298146 0.298146 0.799405
0.469963 0.298146 0.799405
0.641428 0.298146 0.799405
0.799405 0.298146 0.799405
0.91693 0.298146 0.799405
0.996094 0.298146 0.799405
0 0.469963 0.799405
0.0485084 0.469963 0.799405
0.154604 0.469963 0.799405
0.298146 0.469963 0.799405
0.469963 0.469963 0.799405
0.641428 0.469963 0.799405
0.799405 0.469963 0.799405
0.91693 0.469963 0.799405
0.996094 0.469963 0.799405
0 0.641428 0.799405
0.0485084 0.641428 0.799405
0.154604 0.641428 0.799405
0.298146 0.641428 0.799405
0.469963 0.641428 0.799405
0.641428 0.641428 0.799405
0.799405 0.641428 0.799405
0.91693 0.641428 0.799405
0.996094 0.641428 0.799405
0 0.799405 0.799405
0.0485084 0.799405 0.799405
0.154604 0.799405 0.799405
0.298146 0.799405 0.799405
0.469963 0.799405 0.799405
0.641428 0.799405 0.799405
0.799405 0.799405 0.799405
0.91693 0.799405 0.799405
0.996094 0.799405 0.799405
0 0.91693 0.799405
0.0485084 0.91693 0.799405
0.154604 0.91693 0.799405
0.298146 0.91693 0.799405
0.469963 0.91693 0.799405
0.641428 0.91693 0.799405
0.799405 0.91693 0.799405
0.91693 0.91693 0.799405
0.996094 0.91693 0.799405
0 0.996094 0.799405
0.0485084 0.996094 0.799405
0.154604 0.996094 0.799405
0.298146 0.996094 0.799405
0.469963 0.996094 0.799405
0.641428 0.996094 0.799405
0.799405 0.996094 0.799405
0.91693 0.996094 0.799405
0.996094 0.996094 0.799405
0 0 0.91693
0.0485084 0 0.91693
0.154604 0 0.91693
0.298146 0 0.91693
0.469963 0 0.91693
0.641428 0 0.91693
0.799405 0 0.91693
0.91693 0 0.91693
0.996094 0 0.91693
0 0.0485084 0.91693
0.0485084 0.0485084 0.91693
0.154604 0.0485084 0.91693
0.298146 0.0485084 0.91693
0.469963 0.0485084 0.91693
0.641428 0.0485084 0.91693
0.799405 0.0485084 0.91693
0.91693 0.0485084 0.91693
0.996094 0.0485084 0.91693
0 0.154604 0.91693
0.0485084 0.154604 0.91693
0.154604 0.154604 0.91693
0.298146 0.154604 0.91693
0.469963 0.154604 0.91693
0.641428 0.154604 0.91693
0.799405 0.154604 0.91693
0.91693 0.154604 0.91693
0.996094 0.154604 0.91693
0 0.298146 0.91693
0.0485084 0.298146 0.91693
0.154604 0.298146 0.91693
0.298146 0.298146 0.91693
0.469963 0.298146 0.91693
0.641428 0.298146 0.91693
0.799405 0.298146 0.91693
0.91693 0.298146 0.91693
0.996094 0.298146 0.91693
0 0.469963 0.91693
0.0485084 0.469963 0.91693
0.154604 0.469963 0.91693
0.298146 0.469963 0.91693
0.469963 0.469963 0.91693
0.641428 0.469963 0.91693
0.799405 0.469963 0.91693
0.91693 0.469963 0.91693
0.996094 0.469963 0.91693
0 0.641428 0.91693
0.0485084 0.641428 0.91693
0.154604 0.641428 0.91693
0.298146 0.641428 0.91693
0.469963 0.641428 0.91693
0.641428 0.641428 0.91693
0.799405 0.641428 0.91693
0.91693 0.641428 0.91693
0.996094 0.641428 0.91693
0 0.799405 0.91693
0.0485084 0.799405 0.91693
0.154604 0.799405 0.91693
0.298146 0.799405 0.91693
0.469963 0.799405 0.91693
0.641428 0.799405 0.91693
0.799405 0.799405 0.91693
0.91693 0.799405 0.91693
0.996094 0.799405 0.91693
0 0.91693 0.91693
0.0485084 0.91693 0.91693
0.154604 0.91693 0.91693
0.298146 0.91693 0.91693
0.469963 0.91693 0.91693
0.641428 0.91693 0.91693
0.799405 0.91693 0.91693
0.91693 0.91693 0.91693
0.996094 0.91693 0.91693
0 0.996094 0.91693
0.0485084 0.996094 0.91693
0.154604 0.996094 0.91693
0.298146 0.996094 0.91693
0.469963 0.996094 0.91693
0.641428 0.996094 0.91693
0.799405 0.996094 0.91693
0.91693 0.996094 0.91693
0.996094 0.996094 0.91693
0 0 0.996094
0.0485084 0 0.996094
0.154604 0 0.996094
0.298146 0 0.996094
0.469963 0 0.996094
0.641428 0 0.996094
0.799405 0 0.996094
0.91693 0 0.996094
0.996094 0 0.996094
0 0.0485084 0.996094
0.0485084 0.0485084 0.996094
0.154604 0.0485084 0.996094
0.298146 0.0485084 0.996094
0.469963 0.0485084 0.996094
0.641428 0.0485084 0.996094
0.799405 0.0485084 0.996094
0.91693 0.0485084 0.996094
0.996094 0.0485084 0.996094
0 0.154604 0.996094
0.0485084 0.154604 0.996094
0.154604 0.154604 0.996094
0.298146 0.154604 0.996094
0.469963 0.154604 0.996094
0.641428 0.154604 0.996094
0.799405 0.154604 0.996094
0.91693 0.154604 0.996094
0.996094 0.154604 0.996094
0 0.298146 0.996094
0.0485084 0.298146 0.996094
0.154604 0.298146 0.996094
0.298146 0.298146 0.996094
0.469963 0.298146 0.996094
0.641428 0.298146 0.996094
0.799405 0.298146 0.996094
0.91693 0.298146 0.996094
0.996094 0.298146 0.996094
0 0.469963 0.996094
0.0485084 0.469963 0.996094
0.154604 0.469963 0.996094
0.298146 0.469963 0.996094
0.469963 0.469963 0.996094
0.641428 0.469963 0.996094
0.799405 0.469963 0.996094
0.91693 0.469963 0.996094
0.996094 0.469963 0.996094
0 0.641428 0.996094
0.0485084 0.641428 0.996094
0.154604 0.641428 0.996094
0.298146 0.641428 0.996094
0.469963 0.641428 0.996094
0.641428 0.641428 0.996094
0.799405 0.641428 0.996094
0.91693 0.641428 0.996094
0.996094 0.641428 0.996094
0 0.799405 0.996094
0.0485084 0.799405 0.996094
0.154604 0.799405 0.996094
0.298146 0.799405 0.996094
0.469963 0.799405 0.996094
0.641428 0.799405 0.996094
0.799405 0.799405 0.996094
0.91693 0.799405 0.996094
0.996094 0.799405 0.996094
0 0.91693 0.996094
0.0485084 0.91693 0.996094
0.154604 0.91693 0.996094
0.298146 0.91693 0.996094
0.469963 0.91693 0.996094
0.641428 0.91693 0.996094
0.799405 0.91693 0.996094
0.91693 0.91693 0.996094
0.996094 0.91693 0.996094
0 0.996094 0.996094
0.0485084 0.996094 0.996094
0.154604 0.996094 0.996094
0.298146 0.996094 0.996094
0.469963 0.996094 0.996094
0.641428 0.996094 0.996094
0.799405 0.996094 0.996094
0.91693 0.996094 0.996094
0.996094 0.996094 0.996094
