Switch/bin/logNeutral_inverse.cube
TITLE "Generate by Resolve"
LUT_3D_SIZE 33
0 0 0
0 0 0
0.00448615 0 0
0.0256962 0 0
0.0485084 0 0
0.0733501 0 0
0.0981765 0 0
0.123003 0 0
0.154604 0 0
0.18706 0 0
0.219501 0 0
0.25539 0 0
0.298146 0 0
0.340902 0 0
0.383658 0 0
0.426749 0 0
0.469963 0 0
0.513161 0 0
0.556222 0 0
0.598825 0 0
0.641428 0 0
0.684031 0 0
0.723522 0 0
0.761471 0 0
0.799405 0 0
0.836118 0 0
0.863066 0 0
0.889998 0 0
0.91693 0 0
0.939406 0 0
0.958297 0 0
0.977203 0 0
0.996094 0 0
0 0 0
0 0 0
0.00448615 0 0
0.0256962 0 0
0.0485084 0 0
0.0733501 0 0
0.0981765 0 0
0.123003 0 0
0.154604 0 0
0.18706 0 0
0.219501 0 0
0.25539 0 0
0.298146 0 0
0.340902 0 0
0.383658 0 0
0.426749 0 0
0.469963 0 0
0.513161 0 0
0.556222 0 0
0.598825 0 0
0.641428 0 0
0.684031 0 0
0.723522 0 0
0.761471 0 0
0.799405 0 0
0.836118 0 0
0.863066 0 0
0.889998 0 0
0.91693 0 0
0.939406 0 0
0.958297 0 0
0.977203 0 0
0.996094 0 0
0 0.00448615 0
0 0.00448615 0
0.00448615 0.00448615 0
0.0256962 0.00448615 0
0.0485084 0.00448615 0
0.0733501 0.00448615 0
0.0981765 0.00448615 0
0.123003 0.00448615 0
0.154604 0.00448615 0
0.18706 0.00448615 0
0.219501 0.00448615 0
0.25539 0.00448615 0
0.298146 0.00448615 0
0.340902 0.00448615 0
0.383658 0.00448615 0
0.426749 0.00448615 0
0.469963 0.00448615 0
0.513161 0.00448615 0
0.556222 0.00448615 0
0.598825 0.00448615 0
0.641428 0.00448615 0
0.684031 0.00448615 0
0.723522 0.00448615 0
0.761471 0.00448615 0
0.799405 0.00448615 0
0.836118 0.00448615 0
0.863066 0.00448615 0
0.889998 0.00448615 0
0.91693 0.00448615 0
0.939406 0.00448615 0
0.958297 0.00448615 0
0.977203 0.00448615 0
0.996094 0.00448615 0
0 0.0256962 0
0 0.0256962 0
0.00448615 0.0256962 0
0.0256962 0.0256962 0
0.0485084 0.0256962 0
0.0733501 0.0256962 0
0.0981765 0.0256962 0
0.123003 0.0256962 0
0.154604 0.0256962 0
0.18706 0.0256962 0
0.219501 0.0256962 0
0.25539 0.0256962 0
0.298146 0.0256962 0
0.340902 0.0256962 0
0.383658 0.0256962 0
0.426749 0.0256962 0
0.469963 0.0256962 0
0.513161 0.0256962 0
0.556222 0.0256962 0
0.598825 0.0256962 0
0.641428 0.0256962 0
0.684031 0.0256962 0
0.723522 0.0256962 0
0.761471 0.0256962 0
0.799405 0.0256962 0
0.836118 0.0256962 0
0.863066 0.0256962 0
0.889998 0.0256962 0
0.91693 0.0256962 0
0.939406 0.0256962 0
0.958297 0.0256962 0
0.977203 0.0256962 0
0.996094 0.0256962 0
0 0.0485084 0
0 0.0485084 0
0.00448615 0.0485084 0
0.0256962 0.0485084 0
0.0485084 0.0485084 0
0.0733501 0.0485084 0
0.0981765 0.0485084 0
0.123003 0.0485084 0
0.154604 0.0485084 0
0.18706 0.0485084 0
0.219501 0.0485084 0
0.25539 0.0485084 0
0.298146 0.0485084 0
0.340902 0.0485084 0
0.383658 0.0485084 0
0.426749 0.0485084 0
0.469963 0.0485084 0
0.513161 0.0485084 0
0.556222 0.0485084 0
0.598825 0.0485084 0
0.641428 0.0485084 0
0.684031 0.0485084 0
0.723522 0.0485084 0
0.761471 0.0485084 0
0.799405 0.0485084 0
0.836118 0.0485084 0
0.863066 0.0485084 0
0.889998 0.0485084 0
0.91693 0.0485084 0
0.939406 0.0485084 0
0.958297 0.0485084 0
0.977203 0.0485084 0
0.996094 0.0485084 0
0 0.0733501 0
0 0.0733501 0
0.00448615 0.0733501 0
0.0256962 0.0733501 0
0.0485084 0.0733501 0
0.0733501 0.0733501 0
0.0981765 0.0733501 0
0.123003 0.0733501 0
0.154604 0.0733501 0
0.18706 0.0733501 0
0.219501 0.0733501 0
0.25539 0.0733501 0
0.298146 0.0733501 0
0.340902 0.0733501 0
0.383658 0.0733501 0
0.426749 0.0733501 0
0.469963 0.0733501 0
0.513161 0.0733501 0
0.556222 0.0733501 0
0.598825 0.0733501 0
0.641428 0.0733501 0
0.684031 0.0733501 0
0.723522 0.0733501 0
0.761471 0.0733501 0
0.799405 0.0733501 0
0.836118 0.0733501 0
0.863066 0.0733501 0
0.889998 0.0733501 0
0.91693 0.0733501 0
0.939406 0.0733501 0
0.958297 0.0733501 0
0.977203 0.0733501 0
0.996094 0.0733501 0
0 0.0981765 0
0 0.0981765 0
0.00448615 0.0981765 0
0.0256962 0.0981765 0
0.0485084 0.0981765 0
0.0733501 0.0981765 0
0.0981765 0.0981765 0
0.123003 0.0981765 0
0.154604 0.0981765 0
0.18706 0.0981765 0
0.219501 0.0981765 0
0.25539 0.0981765 0
0.298146 0.0981765 0
0.340902 0.0981765 0
0.383658 0.0981765 0
0.426749 0.0981765 0
0.469963 0.0981765 0
0.513161 0.0981765 0
0.556222 0.0981765 0
0.598825 0.0981765 0
0.641428 0.0981765 0
0.684031 0.0981765 0
0.723522 0.0981765 0
0.761471 0.0981765 0
0.799405 0.0981765 0
0.836118 0.0981765 0
0.863066 0.0981765 0
0.889998 0.0981765 0
0.91693 0.0981765 0
0.939406 0.0981765 0
0.958297 0.0981765 0
0.977203 0.0981765 0
0.996094 0.0981765 0
0 0.123003 0
0 0.123003 0
0.00448615 0.123003 0
0.0256962 0.123003 0
0.0485084 0.123003 0
0.0733501 0.123003 0
0.0981765 0.123003 0
0.123003 0.123003 0
0.154604 0.123003 0
0.18706 0.123003 0
0.219501 0.123003 0
0.25539 0.123003 0
0.298146 0.123003 0
0.340902 0.123003 0
0.383658 0.123003 0
0.426749 0.123003 0
0.469963 0.123003 0
0.513161 0.123003 0
0.556222 0.123003 0
0.598825 0.123003 0
0.641428 0.123003 0
0.684031 0.123003 0
0.723522 0.123003 0
0.761471 0.123003 0
0.799405 0.123003 0
0.836118 0.123003 0
0.863066 0.123003 0
0.889998 0.123003 0
0.91693 0.123003 0
0.939406 0.123003 0
0.958297 0.123003 0
0.977203 0.123003 0
0.996094 0.123003 0
0 0.154604 0
0 0.154604 0
0.00448615 0.154604 0
0.0256962 0.154604 0
0.0485084 0.154604 0
0.0733501 0.154604 0
0.0981765 0.154604 0
0.123003 0.154604 0
0.154604 0.154604 0
0.18706 0.154604 0
0.219501 0.154604 0
0.25539 0.154604 0
0.298146 0.154604 0
0.340902 0.154604 0
0.383658 0.154604 0
0.426749 0.154604 0
0.469963 0.154604 0
0.513161 0.154604 0
0.556222 0.154604 0
0.598825 0.154604 0
0.641428 0.154604 0
0.684031 0.154604 0
0.723522 0.154604 0
0.761471 0.154604 0
0.799405 0.154604 0
0.836118 0.154604 0
0.863066 0.154604 0
0.889998 0.154604 0
0.91693 0.154604 0
0.939406 0.154604 0
0.958297 0.154604 0
0.977203 0.154604 0
0.996094 0.154604 0
0 0.18706 0
0 0.18706 0
0.00448615 0.18706 0
0.0256962 0.18706 0
0.0485084 0.18706 0
0.0733501 0.18706 0
0.0981765 0.18706 0
0.123003 0.18706 0
0.154604 0.18706 0
0.18706 0.18706 0
0.219501 0.18706 0
0.25539 0.18706 0
0.298146 0.18706 0
0.340902 0.18706 0
0.383658 0.18706 0
0.426749 0.18706 0
0.469963 0.18706 0
0.513161 0.18706 0
0.556222 0.18706 0
0.598825 0.18706 0
0.641428 0.18706 0
0.684031 0.18706 0
0.723522 0.18706 0
0.761471 0.18706 0
0.799405 0.18706 0
0.836118 0.18706 0
0.863066 0.18706 0
0.889998 0.18706 0
0.91693 0.18706 0
0.939406 0.18706 0
0.958297 0.18706 0
0.977203 0.18706 0
0.996094 0.18706 0
0 0.219501 0
0 0.219501 0
0.00448615 0.219501 0
0.0256962 0.219501 0
0.0485084 0.219501 0
0.0733501 0.219501 0
0.0981765 0.219501 0
0.123003 0.219501 0
0.154604 0.219501 0
0.18706 0.219501 0
0.219501 0.219501 0
0.25539 0.219501 0
0.298146 0.219501 0
0.340902 0.219501 0
0.383658 0.219501 0
0.426749 0.219501 0
0.469963 0.219501 0
0.513161 0.219501 0
0.556222 0.219501 0
0.598825 0.219501 0
0.641428 0.219501 0
0.684031 0.219501 0
0.723522 0.219501 0
0.761471 0.219501 0
0.799405 0.219501 0
0.836118 0.219501 0
0.863066 0.219501 0
0.889998 0.219501 0
0.91693 0.219501 0
0.939406 0.219501 0
0.958297 0.219501 0
0.977203 0.219501 0
0.996094 0.219501 0
0 0.25539 0
0 0.25539 0
0.00448615 0.25539 0
0.0256962 0.25539 0
0.0485084 0.25539 0
0.0733501 0.25539 0
0.0981765 0.25539 0
0.123003 0.25539 0
0.154604 0.25539 0
0.18706 0.25539 0
0.219501 0.25539 0
0.25539 0.25539 0
0.298146 0.25539 0
0.340902 0.25539 0
0.383658 0.25539 0
0.426749 0.25539 0
0.469963 0.25539 0
0.513161 0.25539 0
0.556222 0.25539 0
0.598825 0.25539 0
0.641428 0.25539 0
0.684031 0.25539 0
0.723522 0.25539 0
0.761471 0.25539 0
0.799405 0.25539 0
0.836118 0.25539 0
0.863066 0.25539 0
0.889998 0.25539 0
0.91693 0.25539 0
0.939406 0.25539 0
0.958297 0.25539 0
0.977203 0.25539 0
0.996094 0.25539 0
0 0.298146 0
0 0.298146 0
0.00448615 0.298146 0
0.0256962 0.298146 0
0.0485084 0.298146 0
0.0733501 0.298146 0
0.0981765 0.298146 0
0.123003 0.298146 0
0.154604 0.298146 0
0.18706 0.298146 0
0.219501 0.298146 0
0.25539 0.298146 0
0.298146 0.298146 0
0.340902 0.298146 0
0.383658 0.298146 0
0.426749 0.298146 0
0.469963 0.298146 0
0.513161 0.298146 0
0.556222 0.298146 0
0.598825 0.298146 0
0.641428 0.298146 0
0.684031 0.298146 0
0.723522 0.298146 0
0.761471 0.298146 0
0.799405 0.298146 0
0.836118 0.298146 0
0.863066 0.298146 0
0.889998 0.298146 0
0.91693 0.298146 0
0.939406 0.298146 0
0.958297 0.298146 0
0.977203 0.298146 0
0.996094 0.298146 0
0 0.340902 0
0 0.340902 0
0.00448615 0.340902 0
0.0256962 0.340902 0
0.0485084 0.340902 0
0.0733501 0.340902 0
0.0981765 0.340902 0
0.123003 0.340902 0
0.154604 0.340902 0
0.18706 0.340902 0
0.219501 0.340902 0
0.25539 0.340902 0
0.298146 0.340902 0
0.340902 0.340902 0
0.383658 0.340902 0
0.426749 0.340902 0
0.469963 0.340902 0
0.513161 0.340902 0
0.556222 0.340902 0
0.598825 0.340902 0
0.641428 0.340902 0
0.684031 0.340902 0
0.723522 0.340902 0
0.761471 0.340902 0
0.799405 0.340902 0
0.836118 0.340902 0
0.863066 0.340902 0
0.889998 0.340902 0
0.91693 0.340902 0
0.939406 0.340902 0
0.958297 0.340902 0
0.977203 0.340902 0
0.996094 0.340902 0
0 0.383658 0
0 0.383658 0
0.00448615 0.383658 0
0.0256962 0.383658 0
0.0485084 0.383658 0
0.0733501 0.383658 0
0.0981765 0.383658 0
0.123003 0.383658 0
0.154604 0.383658 0
0.18706 0.383658 0
0.219501 0.383658 0
0.25539 0.383658 0
0.298146 0.383658 0
0.340902 0.383658 0
0.383658 0.383658 0
0.426749 0.383658 0
0.469963 0.383658 0
0.513161 0.383658 0
0.556222 0.383658 0
0.598825 0.383658 0
0.641428 0.383658 0
0.684031 0.383658 0
0.723522 0.383658 0
0.761471 0.383658 0
0.799405 0.383658 0
0.836118 0.383658 0
0.863066 0.383658 0
0.889998 0.383658 0
0.91693 0.383658 0
0.939406 0.383658 0
0.958297 0.383658 0
0.977203 0.383658 0
0.996094 0.383658 0
0 0.426749 0
0 0.426749 0
0.00448615 0.426749 0
0.0256962 0.426749 0
0.0485084 0.426749 0
0.0733501 0.426749 0
0.0981765 0.426749 0
0.123003 0.426749 0
0.154604 0.426749 0
0.18706 0.426749 0
0.219501 0.426749 0
0.25539 0.426749 0
0.298146 0.426749 0
0.340902 0.426749 0
0.383658 0.426749 0
0.426749 0.426749 0
0.469963 0.426749 0
0.513161 0.426749 0
0.556222 0.426749 0
0.598825 0.426749 0
0.641428 0.426749 0
0.684031 0.426749 0
0.723522 0.426749 0
0.761471 0.426749 0
0.799405 0.426749 0
0.836118 0.426749 0
0.863066 0.426749 0
0.889998 0.426749 0
0.91693 0.426749 0
0.939406 0.426749 0
0.958297 0.426749 0
0.977203 0.426749 0
0.996094 0.426749 0
0 0.469963 0
0 0.469963 0
0.00448615 0.469963 0
0.0256962 0.469963 0
0.0485084 0.469963 0
0.0733501 0.469963 0
0.0981765 0.469963 0
0.123003 0.469963 0
0.154604 0.469963 0
0.18706 0.469963 0
0.219501 0.469963 0
0.25539 0.469963 0
0.298146 0.469963 0
0.340902 0.469963 0
0.383658 0.469963 0
0.426749 0.469963 0
0.469963 0.469963 0
0.513161 0.469963 0
0.556222 0.469963 0
0.598825 0.469963 0
0.641428 0.469963 0
0.684031 0.469963 0
0.723522 0.469963 0
0.761471 0.469963 0
0.799405 0.469963 0
0.836118 0.469963 0
0.863066 0.469963 0
0.889998 0.469963 0
0.91693 0.469963 0
0.939406 0.469963 0
0.958297 0.469963 0
0.977203 0.469963 0
0.996094 0.469963 0
0 0.513161 0
0 0.513161 0
0.00448615 0.513161 0
0.0256962 0.513161 0
0.0485084 0.513161 0
0.0733501 0.513161 0
0.0981765 0.513161 0
0.123003 0.513161 0
0.154604 0.513161 0
0.18706 0.513161 0
0.219501 0.513161 0
0.25539 0.513161 0
0.298146 0.513161 0
0.340902 0.513161 0
0.383658 0.513161 0
0.426749 0.513161 0
0.469963 0.513161 0
0.513161 0.513161 0
0.556222 0.513161 0
0.598825 0.513161 0
0.641428 0.513161 0
0.684031 0.513161 0
0.723522 0.513161 0
0.761471 0.513161 0
0.799405 0.513161 0
0.836118 0.513161 0
0.863066 0.513161 0
0.889998 0.513161 0
0.91693 0.513161 0
0.939406 0.513161 0
0.958297 0.513161 0
0.977203 0.513161 0
0.996094 0.513161 0
0 0.556222 0
0 0.556222 0
0.00448615 0.556222 0
0.0256962 0.556222 0
0.0485084 0.556222 0
0.0733501 0.556222 0
0.0981765 0.556222 0
0.123003 0.556222 0
0.154604 0.556222 0
0.18706 0.556222 0
0.219501 0.556222 0
0.25539 0.556222 0
0.298146 0.556222 0
0.340902 0.556222 0
0.383658 0.556222 0
0.426749 0.556222 0
0.469963 0.556222 0
0.513161 0.556222 0
0.556222 0.556222 0
0.598825 0.556222 0
0.641428 0.556222 0
0.684031 0.556222 0
0.723522 0.556222 0
0.761471 0.556222 0
0.799405 0.556222 0
0.836118 0.556222 0
0.863066 0.556222 0
0.889998 0.556222 0
0.91693 0.556222 0
0.939406 0.556222 0
0.958297 0.556222 0
0.977203 0.556222 0
0.996094 0.556222 0
0 0.598825 0
0 0.598825 0
0.00448615 0.598825 0
0.0256962 0.598825 0
0.0485084 0.598825 0
0.0733501 0.598825 0
0.0981765 0.598825 0
0.123003 0.598825 0
0.154604 0.598825 0
0.18706 0.598825 0
0.219501 0.598825 0
0.25539 0.598825 0
0.298146 0.598825 0
0.340902 0.598825 0
0.383658 0.598825 0
0.426749 0.598825 0
0.469963 0.598825 0
0.513161 0.598825 0
0.556222 0.598825 0
0.598825 0.598825 0
0.641428 0.598825 0
0.684031 0.598825 0
0.723522 0.598825 0
0.761471 0.598825 0
0.799405 0.598825 0
0.836118 0.598825 0
0.863066 0.598825 0
0.889998 0.598825 0
0.91693 0.598825 0
0.939406 0.598825 0
0.958297 0.598825 0
0.977203 0.598825 0
0.996094 0.598825 0
0 0.641428 0
0 0.641428 0
0.00448615 0.641428 0
0.0256962 0.641428 0
0.0485084 0.641428 0
0.0733501 0.641428 0
0.0981765 0.641428 0
0.123003 0.641428 0
0.154604 0.641428 0
0.18706 0.641428 0
0.219501 0.641428 0
0.25539 0.641428 0
0.298146 0.641428 0
0.340902 0.641428 0
0.383658 0.641428 0
0.426749 0.641428 0
0.469963 0.641428 0
0.513161 0.641428 0
0.556222 0.641428 0
0.598825 0.641428 0
0.641428 0.641428 0
0.684031 0.641428 0
0.723522 0.641428 0
0.761471 0.641428 0
0.799405 0.641428 0
0.836118 0.641428 0
0.863066 0.641428 0
0.889998 0.641428 0
0.91693 0.641428 0
0.939406 0.641428 0
0.958297 0.641428 0
0.977203 0.641428 0
0.996094 0.641428 0
0 0.684031 0
0 0.684031 0
0.00448615 0.684031 0
0.0256962 0.684031 0
0.0485084 0.684031 0
0.0733501 0.684031 0
0.0981765 0.684031 0
0.123003 0.684031 0
0.154604 0.684031 0
0.18706 0.684031 0
0.219501 0.684031 0
0.25539 0.684031 0
0.298146 0.684031 0
0.340902 0.684031 0
0.383658 0.684031 0
0.426749 0.684031 0
0.469963 0.684031 0
0.513161 0.684031 0
0.556222 0.684031 0
0.598825 0.684031 0
0.641428 0.684031 0
0.684031 0.684031 0
0.723522 0.684031 0
0.761471 0.684031 0
0.799405 0.684031 0
0.836118 0.684031 0
0.863066 0.684031 0
0.889998 0.684031 0
0.91693 0.684031 0
0.939406 0.684031 0
0.958297 0.684031 0
0.977203 0.684031 0
0.996094 0.684031 0
0 0.723522 0
0 0.723522 0
0.00448615 0.723522 0
0.0256962 0.723522 0
0.0485084 0.723522 0
0.0733501 0.723522 0
0.0981765 0.723522 0
0.123003 0.723522 0
0.154604 0.723522 0
0.18706 0.723522 0
0.219501 0.723522 0
0.25539 0.723522 0
0.298146 0.723522 0
0.340902 0.723522 0
0.383658 0.723522 0
0.426749 0.723522 0
0.469963 0.723522 0
0.513161 0.723522 0
0.556222 0.723522 0
0.598825 0.723522 0
0.641428 0.723522 0
0.684031 0.723522 0
0.723522 0.723522 0
0.761471 0.723522 0
0.799405 0.723522 0
0.836118 0.723522 0
0.863066 0.723522 0
0.889998 0.723522 0
0.91693 0.723522 0
0.939406 0.723522 0
0.958297 0.723522 0
0.977203 0.723522 0
0.996094 0.723522 0
0 0.761471 0
0 0.761471 0
0.00448615 0.761471 0
0.0256962 0.761471 0
0.0485084 0.761471 0
0.0733501 0.761471 0
0.0981765 0.761471 0
0.123003 0.761471 0
0.154604 0.761471 0
0.18706 0.761471 0
0.219501 0.761471 0
0.25539 0.761471 0
0.298146 0.761471 0
0.340902 0.761471 0
0.383658 0.761471 0
0.426749 0.761471 0
0.469963 0.761471 0
0.513161 0.761471 0
0.556222 0.761471 0
0.598825 0.761471 0
0.641428 0.761471 0
0.684031 0.761471 0
0.723522 0.761471 0
0.761471 0.761471 0
0.799405 0.761471 0
0.836118 0.761471 0
0.863066 0.761471 0
0.889998 0.761471 0
0.91693 0.761471 0
0.939406 0.761471 0
0.958297 0.761471 0
0.977203 0.761471 0
0.996094 0.761471 0
0 0.799405 0
0 0.799405 0
0.00448615 0.799405 0
0.0256962 0.799405 0
0.0485084 0.799405 0
0.0733501 0.799405 0
0.0981765 0.799405 0
0.123003 0.799405 0
0.154604 0.799405 0
0.18706 0.799405 0
0.219501 0.799405 0
0.25539 0.799405 0
0.298146 0.799405 0
0.340902 0.799405 0
0.383658 0.799405 0
0.426749 0.799405 0
0.469963 0.799405 0
0.513161 0.799405 0
0.556222 0.799405 0
0.598825 0.799405 0
0.641428 0.799405 0
0.684031 0.799405 0
0.723522 0.799405 0
0.761471 0.799405 0
0.799405 0.799405 0
0.836118 0.799405 0
0.863066 0.799405 0
0.889998 0.799405 0
0.91693 0.799405 0
0.939406 0.799405 0
0.958297 0.799405 0
0.977203 0.799405 0
0.996094 0.799405 0
0 0.836118 0
0 0.836118 0
0.00448615 0.836118 0
0.0256962 0.836118 0
0.0485084 0.836118 0
0.0733501 0.836118 0
0.0981765 0.836118 0
0.123003 0.836118 0
0.154604 0.836118 0
0.18706 0.836118 0
0.219501 0.836118 0
0.25539 0.836118 0
0.298146 0.836118 0
0.340902 0.836118 0
0.383658 0.836118 0
0.426749 0.836118 0
0.469963 0.836118 0
0.513161 0.836118 0
0.556222 0.836118 0
0.598825 0.836118 0
0.641428 0.836118 0
0.684031 0.836118 0
0.723522 0.836118 0
0.761471 0.836118 0
0.799405 0.836118 0
0.836118 0.836118 0
0.863066 0.836118 0
0.889998 0.836118 0
0.91693 0.836118 0
0.939406 0.836118 0
0.958297 0.836118 0
0.977203 0.836118 0
0.996094 0.836118 0
0 0.863066 0
0 0.863066 0
0.00448615 0.863066 0
0.0256962 0.863066 0
0.0485084 0.863066 0
0.0733501 0.863066 0
0.0981765 0.863066 0
0.123003 0.863066 0
0.154604 0.863066 0
0.18706 0.863066 0
0.219501 0.863066 0
0.25539 0.863066 0
0.298146 0.863066 0
0.340902 0.863066 0
0.383658 0.863066 0
0.426749 0.863066 0
0.469963 0.863066 0
0.513161 0.863066 0
0.556222 0.863066 0
0.598825 0.863066 0
0.641428 0.863066 0
0.684031 0.863066 0
0.723522 0.863066 0
0.761471 0.863066 0
0.799405 0.863066 0
0.836118 0.863066 0
0.863066 0.863066 0
0.889998 0.863066 0
0.91693 0.863066 0
0.939406 0.863066 0
0.958297 0.863066 0
0.977203 0.863066 0
0.996094 0.863066 0
0 0.889998 0
0 0.889998 0
0.00448615 0.889998 0
0.0256962 0.889998 0
0.0485084 0.889998 0
0.0733501 0.889998 0
0.0981765 0.889998 0
0.123003 0.889998 0
0.154604 0.889998 0
