Switch/bin/logNeutral_inverse.cube
TITLE "Generate by Resolve"
LUT_3D_SIZE 5
0 0 0
0.154604 0 0
0.469963 0 0
0.799405 0 0
0.996094 0 0
0 0.154604 0
0.154604 0.154604 0
0.469963 0.154604 0
0.799405 0.154604 0
0.996094 0.154604 0
0 0.469963 0
0.154604 0.469963 0
0.469963 0.469963 0
0.799405 0.469963 0
0.996094 0.469963 0
0 0.799405 0
0.154604 0.799405 0
0.469963 0.799405 0
0.799405 0.799405 0
0.996094 0.799405 0
0 0.996094 0
0.154604 0.996094 0
0.469963 0.996094 0
0.799405 0.996094 0
0.996094 0.996094 0
0 0 0.154604
0.154604 0 0.154604
0.469963 0 0.154604
0.799405 0 0.154604
0.996094 0 0.154604
0 0.154604 0.154604
0.154604 0.154604 0.154604
0.469963 0.154604 0.154604
0.799405 0.154604 0.154604
0.996094 0.154604 0.154604
0 0.469963 0.154604
0.154604 0.469963 0.154604
0.469963 0.469963 0.154604
0.799405 0.469963 0.154604
0.996094 0.469963 0.154604
0 0.799405 0.154604
0.154604 0.799405 0.154604
0.469963 0.799405 0.154604
0.799405 0.799405 0.154604
0.996094 0.799405 0.154604
0 0.996094 0.154604
0.154604 0.996094 0.154604
0.469963 0.996094 0.154604
0.799405 0.996094 0.154604
0.996094 0.996094 0.154604
0 0 0.469963
0.154604 0 0.469963
0.469963 0 0.469963
0.799405 0 0.469963
0.996094 0 0.469963
0 0.154604 0.469963
0.154604 0.154604 0.469963
0.469963 0.154604 0.469963
0.799405 0.154604 0.469963
0.996094 0.154604 0.469963
0 0.469963 0.469963
0.154604 0.469963 0.469963
0.469963 0.469963 0.469963
0.799405 0.469963 0.469963
0.996094 0.469963 0.469963
0 0.799405 0.469963
0.154604 0.799405 0.469963
0.469963 0.799405 0.469963
0.799405 0.799405 0.469963
0.996094 0.799405 0.469963
0 0.996094 0.469963
0.154604 0.996094 0.469963
0.469963 0.996094 0.469963
0.799405 0.996094 0.469963
0.996094 0.996094 0.469963
0 0 0.799405
0.154604 0 0.799405
0.469963 0 0.799405
0.799405 0 0.799405
0.996094 0 0.799405
0 0.154604 0.799405
0.154604 0.154604 0.799405
0.469963 0.154604 0.799405
0.799405 0.154604 0.799405
0.996094 0.154604 0.799405
0 0.469963 0.799405
0.154604 0.469963 0.799405
0.469963 0.469963 0.799405
0.799405 0.469963 0.799405
0.996094 0.469963 0.799405
0 0.799405 0.799405
0.154604 0.799405 0.799405
0.469963 0.799405 0.799405
0.799405 0.799405 0.799405
0.996094 0.799405 0.799405
0 0.996094 0.799405
0.154604 0.996094 0.799405
0.469963 0.996094 0.799405
0.799405 0.996094 0.799405
0.996094 0.996094 0.799405
0 0 0.996094
0.154604 0 0.996094
0.469963 0 0.996094
0.799405 0 0.996094
0.996094 0 0.996094
0 0.154604 0.996094
0.154604 0.154604 0.996094
0.469963 0.154604 0.996094
0.799405 0.154604 0.996094
0.996094 0.154604 0.996094
0 0.469963 0.996094
0.154604 0.469963 0.996094
0.469963 0.469963 0.996094
0.799405 0.469963 0.996094
0.996094 0.469963 0.996094
0 0.799405 0.996094
0.154604 0.799405 0.996094
0.469963 0.799405 0.996094
0.799405 0.799405 0.996094
0.996094 0.799405 0.996094
0 0.996094 0.996094
0.154604 0.996094 0.996094
0.469963 0.996094 0.996094
0.799405 0.996094 0.996094
0.996094 0.996094 0.996094
